( Made using CamBam - http://www.cambam.co.uk )
( boomerangv3 1/14/2010 9:29:11 PM )
( T0 : 0.25 )
G20 G90 G64 G40
G0 Z1.0
( T0 : 0.25 )
T0 M6
( Profile1 )
G17
M3 S0
G0 X11.4158 Y0.5132
G1 F30.0 Z0.0
G3 F300.0 X12.9975 Y1.714 I0.4346 J1.0696
G0 Z1.0
G0 X0.4562 Y1.7439
G1 F30.0 Z0.0
G3 F300.0 X2.018 Y0.538 I1.0998 J-0.1898
( 3DSurface1 )
S0
G0 Z1.0
G0 X0.1101 Y1.2205
G1 F30.0 Z-0.0025
G1 F300.0 Y1.4452
G1 F30.0 X0.1851 Y1.5275
G1 F300.0 Y1.504
G1 Y1.479 Z0.001
G1 Y1.404 Z0.0333
G1 Y1.204
G1 Y1.179 Z-0.0025
G1 Y1.1581
G1 F30.0 X0.2601 Y1.0964
G1 F300.0 Y1.104
G1 Y1.129 Z0.0973
G1 Y1.329
G1 Y1.379 Z0.0791
G1 Y1.404 Z0.0688
G1 Y1.554 Z0.0041
G1 Y1.579 Z-0.0025
G1 Y1.6098
G1 F30.0 X0.3351 Y1.6921
G1 F300.0 Y1.654
G1 Y1.629 Z0.0072
G1 Y1.479 Z0.0719
G1 Y1.454 Z0.0817
G1 Y1.304 Z0.1363
G1 Y1.279 Z0.1451
G1 Y1.079
G1 Y1.054 Z-0.0025
G1 Y1.0352
G1 F30.0 X0.4101 Y0.9747
M5
M30
