( Made using CamBam - http://www.cambam.co.uk )
( boomerangv3 1/14/2010 9:29:11 PM )
( T0 : 0.25 )
G20 G90 G64 G40
G0 Z1.0
( T0 : 0.25 )
T0 M6
( Profile1 )
G17
M3 S0
G0 X11.4158 Y0.5132
G1 F30.0 Z0.0
G3 F300.0 X12.9975 Y1.714 I0.4346 J1.0696
G0 Z1.0
G0 X0.4562 Y1.7439
G1 F30.0 Z0.0
G3 F300.0 X2.018 Y0.538 I1.0998 J-0.1898
( 3DSurface1 )
S0
G0 Z1.0
G0 X0.1101 Y1.2205
G1 F30.0 Z-0.0025
G1 F300.0 Y1.4452
G1 F30.0 X0.1851 Y1.5275
G1 F300.0 Y1.504
G1 Y1.479 Z0.001
G1 Y1.404 Z0.0333
G1 Y1.204
G1 Y1.179 Z-0.0025
G1 Y1.1581
G1 F30.0 X0.2601 Y1.0964
G1 F300.0 Y1.104
G1 Y1.129 Z0.0973
G1 Y1.329
G1 Y1.379 Z0.0791
G1 Y1.404 Z0.0688
G1 Y1.554 Z0.0041
G1 Y1.579 Z-0.0025
G1 Y1.6098
G1 F30.0 X0.3351 Y1.6921
G1 F300.0 Y1.654
G1 Y1.629 Z0.0072
G1 Y1.479 Z0.0719
G1 Y1.454 Z0.0817
G1 Y1.304 Z0.1363
G1 Y1.279 Z0.1451
G1 Y1.079
G1 Y1.054 Z-0.0025
G1 Y1.0352
G1 F30.0 X0.4101 Y0.9747
G1 F300.0 Y1.004
G1 Y1.029 Z0.1844
G1 Y1.229
G1 Y1.354 Z0.1472
G1 Y1.379 Z0.139
G1 Y1.529 Z0.0844
G1 Y1.554 Z0.0751
G1 Y1.704 Z0.0104
G1 Y1.729 Z-0.0004
G1 Y1.754 Z-0.0025
G1 Y1.7743
G1 F30.0 X0.4851 Y1.8566
G1 F300.0 Y1.829
G1 Y1.804 Z0.0027
G1 Y1.779 Z0.0135
G1 Y1.654 Z0.0674
G1 Y1.629 Z0.0779
G1 Y1.604 Z0.087
G1 Y1.454 Z0.1416
G1 Y1.429 Z0.1494
G1 Y1.279 Z0.194
G1 Y1.254 Z0.2007
G1 Y1.154 Z0.2239
G1 Y0.954
G1 Y0.929 Z-0.0025
G1 Y0.9147
G1 F30.0 X0.5601 Y0.8552
G1 F300.0 Y0.879
G1 Y0.904 Z0.2507
G1 Y1.104
G1 Y1.154 Z0.2424
G1 Y1.179 Z0.2371
G1 Y1.329 Z0.2024
G1 Y1.354 Z0.1962
G1 Y1.504 Z0.1515
G1 Y1.529 Z0.1441
G1 Y1.554 Z0.1352
G1 Y1.679 Z0.0897
G1 Y1.704 Z0.0806
G1 Y1.729 Z0.0706
G1 Y1.854 Z0.0167
G1 Y1.879 Z0.0059
G1 Y1.904 Z-0.0025
G1 Y1.9389
G1 F30.0 X0.6351 Y2.0212
G1 F300.0 Y2.004
G1 Y1.979 Z-0.0018
G1 Y1.954 Z0.009
G1 Y1.929 Z0.0198
G1 Y1.804 Z0.0737
G1 Y1.779 Z0.0832
G1 Y1.754 Z0.0923
G1 Y1.629 Z0.1378
G1 Y1.604 Z0.1463
G1 Y1.579 Z0.1537
G1 Y1.454 Z0.1909
G1 Y1.429 Z0.1983
G1 Y1.404 Z0.2041
G1 Y1.254 Z0.2388
G1 Y1.229 Z0.2436
G1 Y1.079 Z0.2685
G1 Y1.054 Z0.2723
G1 Y1.029 Z0.2749
G1 Y0.829
G1 Y0.804 Z-0.0025
G1 Y0.7964
G1 F30.0 X0.7101 Y0.738
G1 F300.0 Y0.754
G1 Y0.779 Z0.2882
G1 Y0.979
G1 Y1.129 Z0.2731
G1 Y1.154 Z0.2697
G1 Y1.304 Z0.2448
G1 Y1.329 Z0.2405
G1 Y1.479 Z0.2058
G1 Y1.504 Z0.2
G1 Y1.529 Z0.1931
G1 Y1.654 Z0.1559
G1 Y1.679 Z0.1484
G1 Y1.704 Z0.1405
G1 Y1.829 Z0.0949
G1 Y1.854 Z0.0858
G1 Y1.879 Z0.0768
G1 Y1.904 Z0.066
G1 Y2.004 Z0.0229
G1 Y2.029 Z0.0121
G1 Y2.054 Z0.0014
G1 Y2.079 Z-0.0025
G1 Y2.1034
G1 F30.0 X0.7851 Y2.1857
G1 F300.0 Y2.154
G1 Y2.129 Z0.0045
G1 Y2.104 Z0.0153
G1 Y2.079 Z0.0261
G1 Y1.979 Z0.0692
G1 Y1.954 Z0.0794
G1 Y1.929 Z0.0885
G1 Y1.904 Z0.0976
G1 Y1.779 Z0.1431
G1 Y1.754 Z0.1506
G1 Y1.729 Z0.158
G1 Y1.604 Z0.1952
G1 Y1.579 Z0.2017
G1 Y1.554 Z0.2074
G1 Y1.429 Z0.2364
G1 Y1.404 Z0.2418
G1 Y1.379 Z0.246
G1 Y1.229 Z0.2709
G1 Y1.204 Z0.2738
G1 Y1.054 Z0.2889
G1 Y1.029 Z0.291
G1 Y0.929 Z0.2946
G1 Y0.729
G1 Y0.704 Z-0.0025
G1 Y0.6802
G1 F30.0 X0.8601 Y0.623
G1 F300.0 Y0.629
G1 Y0.654 Z0.2953
G1 Y0.729 Z0.2974
G1 Y0.929
G1 Y0.954 Z0.2967
G1 Y1.104 Z0.2912
G1 Y1.129 Z0.2897
G1 Y1.279 Z0.2745
G1 Y1.304 Z0.272
G1 Y1.329 Z0.2679
G1 Y1.454 Z0.2472
G1 Y1.479 Z0.243
G1 Y1.504 Z0.2381
G1 Y1.629 Z0.2091
G1 Y1.654 Z0.2033
G1 Y1.679 Z0.1974
G1 Y1.804 Z0.1602
G1 Y1.829 Z0.1527
G1 Y1.854 Z0.1453
G1 Y1.879 Z0.1366
G1 Y1.979 Z0.1002
G1 Y2.004 Z0.0911
G1 Y2.029 Z0.082
G1 Y2.054 Z0.0723
G1 Y2.154 Z0.0292
G1 Y2.179 Z0.0184
G1 Y2.204 Z0.0076
G1 Y2.229 Z-0.0025
G1 Y2.268
G1 F30.0 X0.9351 Y2.3503
G1 F300.0 Y2.329
G1 Y2.304 Z0.0
G1 Y2.254 Z0.0215
G1 Y2.229 Z0.0323
G1 Y2.129 Z0.0754
G1 Y2.104 Z0.0847
G1 Y2.079 Z0.0938
G1 Y2.054 Z0.1029
G1 Y1.954 Z0.1393
G1 Y1.929 Z0.1475
G1 Y1.904 Z0.1549
G1 Y1.879 Z0.1623
G1 Y1.779 Z0.1921
G1 Y1.754 Z0.1992
G1 Y1.729 Z0.205
G1 Y1.704 Z0.2108
G1 Y1.579 Z0.2397
G1 Y1.554 Z0.2442
G1 Y1.529 Z0.2484
G1 Y1.404 Z0.2691
G1 Y1.379 Z0.2727
G1 Y1.354 Z0.2753
G1 Y1.204 Z0.2904
G1 Y1.179 Z0.2915
G1 Y1.029 Z0.2969
G1 Y1.004 Z0.2972
G1 Y0.979
G1 Y0.954 Z0.2974
G1 Y0.704
G1 Y0.629 Z0.2953
G1 Y0.604 Z0.2903
G1 Y0.579 Z-0.0025
G1 Y0.5663
G1 F30.0 X1.0101 Y0.5101
G1 F300.0 Y0.529
G1 Y0.554 Z0.2782
G1 Y0.579 Z0.2903
G1 Y0.604 Z0.2924
G1 Y0.629 Z0.2931
G1 Y0.654 Z0.2953
G1 Y0.729 Z0.2974
G1 Y0.929
G1 Y0.954 Z0.2972
G1 Y1.029
G1 Y1.054
G1 Y1.104
G1 Y1.279 Z0.2908
G1 Y1.304 Z0.2886
G1 Y1.429 Z0.276
G1 Y1.454 Z0.2735
G1 Y1.479 Z0.2704
G1 Y1.604 Z0.2496
G1 Y1.654 Z0.2413
G1 Y1.679 Z0.2356
G1 Y1.779 Z0.2125
G1 Y1.804 Z0.2067
G1 Y1.829 Z0.2009
G1 Y1.854 Z0.1942
G1 Y1.954 Z0.1645
G1 Y1.979 Z0.1571
G1 Y2.004 Z0.1496
G1 Y2.029 Z0.1419
G1 Y2.129 Z0.1055
G1 Y2.154 Z0.0964
G1 Y2.204 Z0.0782
G1 Y2.229 Z0.0678
G1 Y2.304 Z0.0355
G1 Y2.329 Z0.0247
G1 Y2.379 Z0.0031
G1 Y2.404 Z-0.0025
G1 Y2.4325
G1 F30.0 X1.0851 Y2.5148
G1 F300.0 Y2.479
G1 Y2.454 Z0.0063
G1 Y2.404 Z0.0278
G1 Y2.379 Z0.0386
G1 Y2.304 Z0.0709
G1 Y2.279 Z0.0809
G1 Y2.229 Z0.0991
G1 Y2.204 Z0.1082
G1 Y2.129 Z0.1355
G1 Y2.104 Z0.1443
G1 Y2.054 Z0.1592
G1 Y2.029 Z0.1666
G1 Y1.929 Z0.1964
G1 Y1.904 Z0.2026
G1 Y1.879 Z0.2084
G1 Y1.854 Z0.2142
G1 Y1.754 Z0.2373
G1 Y1.729 Z0.2425
G1 Y1.679 Z0.2508
G1 Y1.554 Z0.2716
G1 Y1.529 Z0.2742
G1 Y1.504 Z0.2767
G1 Y1.379 Z0.2893
G1 Y1.354 Z0.2911
G1 Y1.179 Z0.2975
G1 Y0.979
G1 Y0.954 Z0.2972
G1 Y0.804
G1 Y0.629 Z0.2924
G1 Y0.604 Z0.2903
G1 Y0.579 Z0.2827
G1 Y0.529 Z0.2782
G1 Y0.504 Z0.2599
G1 Y0.479 Z-0.0025
G1 Y0.4544
G1 F30.0 X1.1601 Y0.3992
G1 F300.0 Y0.429
G1 Y0.454 Z0.2369
G1 Y0.479 Z0.2599
G1 Y0.529 Z0.2676
G1 Y0.554 Z0.2782
G1 Y0.704 Z0.2919
G1 Y0.729 Z0.2929
G1 Y0.879 Z0.297
G1 Y0.904 Z0.2972
G1 Y0.929
G1 Y0.954 Z0.2975
G1 Y1.204
G1 Y1.229 Z0.2973
G1 Y1.254
G1 Y1.279 Z0.2968
G1 Y1.429 Z0.2914
G1 Y1.454 Z0.2901
G1 Y1.579 Z0.2774
G1 Y1.629 Z0.2724
G1 Y1.654 Z0.2686
G1 Y1.754 Z0.252
G1 Y1.804 Z0.2437
G1 Y1.829 Z0.239
G1 Y1.929 Z0.2158
G1 Y1.954 Z0.21
G1 Y2.004 Z0.1985
G1 Y2.029 Z0.1911
G1 Y2.104 Z0.1688
G1 Y2.129 Z0.1614
G1 Y2.179 Z0.1465
G1 Y2.204 Z0.1381
G1 Y2.279 Z0.1108
G1 Y2.304 Z0.1017
G1 Y2.354 Z0.0835
G1 Y2.379 Z0.0741
G1 Y2.454 Z0.0417
G1 Y2.479 Z0.0309
G1 Y2.554 Z-0.0014
G1 Y2.579 Z-0.0025
G1 Y2.5971
G1 F30.0 X1.2351 Y2.6794
G1 F300.0 Y2.654
G1 Y2.629 Z0.0018
G1 Y2.554 Z0.0341
G1 Y2.529 Z0.0449
G1 Y2.479 Z0.0664
G1 Y2.454 Z0.0771
G1 Y2.379 Z0.1044
G1 Y2.354 Z0.1135
G1 Y2.279 Z0.1408
G1 Y2.254 Z0.1487
G1 Y2.204 Z0.1635
G1 Y2.179 Z0.171
G1 Y2.104 Z0.1933
G1 Y2.079 Z0.2002
G1 Y2.029 Z0.2117
G1 Y2.004 Z0.2175
G1 Y1.904 Z0.2407
G1 Y1.879 Z0.2449
G1 Y1.829 Z0.2532
G1 Y1.729 Z0.2698
G1 Y1.704 Z0.2731
G1 Y1.654 Z0.2782
G1 Y1.554 Z0.2883
G1 Y1.529 Z0.2907
G1 Y1.354 Z0.2971
G1 Y1.329
G1 Y1.304
G1 Y1.279 Z0.2973
G1 Y1.204
G1 Y1.179 Z0.2975
G1 Y0.979
G1 Y0.954 Z0.2968
G1 Y0.804 Z0.2927
G1 Y0.779 Z0.2912
G1 Y0.604 Z0.2752
G1 Y0.579 Z0.2715
G1 Y0.504 Z0.2599
G1 Y0.479 Z0.2472
G1 Y0.454 Z0.2423
G1 Y0.429 Z0.2369
G1 Y0.404 Z0.2082
G1 Y0.379 Z0.2023
G1 Y0.354 Z-0.0025
G1 Y0.3446
G1 F30.0 X1.3101 Y0.2905
G1 F300.0 Y0.304
G1 Y0.329 Z0.1653
G1 Y0.354 Z0.2023
G1 Y0.379 Z0.2082
G1 Y0.429 Z0.2191
G1 Y0.454 Z0.2369
G1 Y0.479 Z0.2423
G1 Y0.504 Z0.2472
G1 Y0.679 Z0.2742
G1 Y0.704 Z0.2769
G1 Y0.854 Z0.2906
G1 Y0.879 Z0.2925
G1 Y1.054 Z0.2973
G1 Y1.204
G1 Y1.229 Z0.2974
G1 Y1.429
G1 Y1.604 Z0.291
G1 Y1.629 Z0.289
G1 Y1.729 Z0.2789
G1 Y1.779 Z0.2739
G1 Y1.804 Z0.271
G1 Y1.904 Z0.2544
G1 Y1.979 Z0.242
G1 Y2.004 Z0.2366
G1 Y2.079 Z0.2192
G1 Y2.104 Z0.2134
G1 Y2.154 Z0.2018
G1 Y2.179 Z0.1954
G1 Y2.254 Z0.1731
G1 Y2.279 Z0.1657
G1 Y2.354 Z0.1434
G1 Y2.379 Z0.1343
G1 Y2.429 Z0.1161
G1 Y2.454 Z0.107
G1 Y2.529 Z0.0797
G1 Y2.554 Z0.0695
G1 Y2.604 Z0.048
G1 Y2.629 Z0.0372
G1 Y2.704 Z0.0049
G1 Y2.729 Z-0.0025
G1 Y2.7616
G1 F30.0 X1.3851 Y2.8439
G1 F300.0 Y2.804
G1 Y2.779 Z0.008
G1 Y2.704 Z0.0403
G1 Y2.679 Z0.0511
G1 Y2.629 Z0.0727
G1 Y2.604 Z0.0824
G1 Y2.529 Z0.1096
G1 Y2.504 Z0.1187
G1 Y2.454 Z0.1369
G1 Y2.429 Z0.1455
G1 Y2.354 Z0.1678
G1 Y2.329 Z0.1753
G1 Y2.254 Z0.1976
G1 Y2.229 Z0.2035
G1 Y2.179 Z0.2151
G1 Y2.154 Z0.2209
G1 Y2.079 Z0.2382
G1 Y2.054 Z0.2432
G1 Y1.979 Z0.2556
G1 Y1.904 Z0.2681
G1 Y1.879 Z0.2721
G1 Y1.804 Z0.2796
G1 Y1.704 Z0.2897
G1 Y1.679 Z0.2912
G1 Y1.529 Z0.2967
G1 Y1.504 Z0.2974
G1 Y1.304
G1 Y1.279
G1 Y1.204
G1 Y1.179 Z0.2971
G1 Y1.129
G1 Y0.979 Z0.2929
G1 Y0.954 Z0.2922
G1 Y0.779 Z0.2762
G1 Y0.754 Z0.2731
G1 Y0.579 Z0.2461
G1 Y0.554 Z0.2408
G1 Y0.404 Z0.2082
G1 Y0.379 Z0.2023
G1 Y0.354 Z0.1793
G1 Y0.304 Z0.1653
G1 Y0.279 Z0.1233
G1 Y0.254 Z-0.0025
G1 Y0.2368
G1 F30.0 X1.4601 Y0.1837
G1 F300.0 Y0.204
G1 Y0.229 Z0.0768
G1 Y0.254 Z0.1233
G1 Y0.304 Z0.1404
G1 Y0.329 Z0.1653
G1 Y0.454 Z0.2002
G1 Y0.479 Z0.2066
G1 Y0.654 Z0.2446
G1 Y0.679 Z0.2488
G1 Y0.829 Z0.272
G1 Y0.854 Z0.2755
G1 Y1.029 Z0.2915
G1 Y1.054 Z0.2927
G1 Y1.204 Z0.2969
G1 Y1.229 Z0.2974
G1 Y1.254
G1 Y1.279
G1 Y1.529
G1 Y1.554 Z0.2972
G1 Y1.579
G1 Y1.604 Z0.297
G1 Y1.754 Z0.2915
G1 Y1.779 Z0.2905
G1 Y1.879 Z0.2804
G1 Y1.954 Z0.2728
G1 Y1.979 Z0.2693
G1 Y2.054 Z0.2568
G1 Y2.129 Z0.2444
G1 Y2.154 Z0.2399
G1 Y2.229 Z0.2225
G1 Y2.254 Z0.2168
G1 Y2.329 Z0.1994
G1 Y2.354 Z0.1923
G1 Y2.404 Z0.1774
G1 Y2.429 Z0.17
G1 Y2.504 Z0.1477
G1 Y2.529 Z0.1396
G1 Y2.579 Z0.1214
G1 Y2.604 Z0.1123
G1 Y2.679 Z0.085
G1 Y2.704 Z0.0758
G1 Y2.754 Z0.0543
G1 Y2.779 Z0.0435
G1 Y2.879 Z0.0004
G1 Y2.904 Z-0.0025
G1 Y2.9262
G1 F30.0 X1.5351 Y3.0085
G1 F300.0 Y2.979
G1 Y2.954 Z0.0035
G1 Y2.854 Z0.0466
G1 Y2.829 Z0.0574
G1 Y2.804 Z0.0682
G1 Y2.779 Z0.0785
G1 Y2.679 Z0.1149
G1 Y2.654 Z0.124
G1 Y2.604 Z0.1422
G1 Y2.579 Z0.1499
G1 Y2.504 Z0.1722
G1 Y2.479 Z0.1796
G1 Y2.429 Z0.1945
G1 Y2.404 Z0.2011
G1 Y2.329 Z0.2184
G1 Y2.304 Z0.2242
G1 Y2.254 Z0.2358
G1 Y2.229 Z0.2414
G1 Y2.129 Z0.258
G1 Y2.054 Z0.2705
G1 Y2.029 Z0.2735
G1 Y1.954 Z0.2811
G1 Y1.879 Z0.2887
G1 Y1.854 Z0.2909
G1 Y1.679 Z0.2972
G1 Y1.529
G1 Y1.504 Z0.2974
G1 Y1.304
G1 Y1.129 Z0.2925
G1 Y1.104 Z0.2909
G1 Y0.954 Z0.2772
G1 Y0.929 Z0.2748
G1 Y0.754 Z0.2477
G1 Y0.729 Z0.2431
G1 Y0.554 Z0.2051
G1 Y0.529 Z0.1982
G1 Y0.379 Z0.1563
G1 Y0.354 Z0.1489
G1 Y0.279 Z0.1233
G1 Y0.254 Z0.0953
G1 Y0.229 Z0.0867
G1 Y0.204 Z0.0768
G1 Y0.179 Z0.0236
G1 Y0.154 Z-0.0025
G1 Y0.131
G1 F30.0 X1.6101 Y0.1044
G1 F300.0 Y0.129
G1 Y0.154 Z0.0236
G1 Y0.204 Z0.0437
G1 Y0.229 Z0.0768
G1 Y0.254 Z0.0867
G1 Y0.429 Z0.1464
G1 Y0.454 Z0.1543
G1 Y0.629 Z0.2032
G1 Y0.654 Z0.2089
G1 Y0.804 Z0.2415
G1 Y0.829 Z0.2466
G1 Y1.004 Z0.2736
G1 Y1.029 Z0.2765
G1 Y1.179 Z0.2902
G1 Y1.204 Z0.2923
G1 Y1.379 Z0.2972
G1 Y1.429
G1 Y1.454
G1 Y1.529
G1 Y1.554 Z0.2975
G1 Y1.754
G1 Y1.779 Z0.2966
G1 Y1.929 Z0.2911
G1 Y1.954 Z0.2894
G1 Y2.029 Z0.2818
G1 Y2.104 Z0.2743
G1 Y2.129 Z0.2717
G1 Y2.204 Z0.2592
G1 Y2.304 Z0.2426
G1 Y2.329 Z0.2375
G1 Y2.379 Z0.2259
G1 Y2.404 Z0.2201
G1 Y2.479 Z0.2028
G1 Y2.504 Z0.1966
G1 Y2.554 Z0.1818
G1 Y2.579 Z0.1743
G1 Y2.679 Z0.1446
G1 Y2.704 Z0.1358
G1 Y2.729 Z0.1267
G1 Y2.754 Z0.1176
G1 Y2.854 Z0.0812
G1 Y2.879 Z0.0713
G1 Y2.904 Z0.0605
G1 Y2.929 Z0.0497
G1 Y3.029 Z0.0067
G1 Y3.054 Z-0.0025
G1 Y3.0907
G1 F30.0 X1.6851 Y3.173
G1 F300.0 Y3.154
G1 Y3.129 Z-0.001
G1 Y3.004 Z0.0529
G1 Y2.979 Z0.0637
G1 Y2.954 Z0.0744
G1 Y2.929 Z0.0838
G1 Y2.829 Z0.1202
G1 Y2.804 Z0.1293
G1 Y2.779 Z0.1384
G1 Y2.754 Z0.1467
G1 Y2.654 Z0.1765
G1 Y2.629 Z0.1839
G1 Y2.604 Z0.1914
G1 Y2.579 Z0.1987
G1 Y2.479 Z0.2218
G1 Y2.454 Z0.2276
G1 Y2.404 Z0.2392
G1 Y2.379 Z0.2438
G1 Y2.279 Z0.2604
G1 Y2.229 Z0.2687
G1 Y2.204 Z0.2725
G1 Y2.104 Z0.2826
G1 Y2.029 Z0.2901
G1 Y2.004 Z0.2914
G1 Y1.854 Z0.2968
G1 Y1.829 Z0.2973
G1 Y1.804
G1 Y1.779 Z0.2975
G1 Y1.529
G1 Y1.504 Z0.2972
G1 Y1.479
G1 Y1.454 Z0.297
G1 Y1.304 Z0.2928
G1 Y1.279 Z0.2918
G1 Y1.104 Z0.2758
G1 Y1.079 Z0.2725
G1 Y0.929 Z0.2494
G1 Y0.904 Z0.2454
G1 Y0.729 Z0.2074
G1 Y0.704 Z0.2012
G1 Y0.529 Z0.1523
G1 Y0.504 Z0.144
G1 Y0.354 Z0.0928
G1 Y0.329 Z0.084
G1 Y0.179 Z0.0236
G1 Y0.154 Z-0.0025
G1 Y0.1184
G1 F30.0 X1.7601 Y0.184
G1 F300.0 Y0.204
G1 Y0.229 Z0.0106
G1 Y0.404 Z0.0811
G1 Y0.429 Z0.0903
G1 Y0.604 Z0.15
G1 Y0.629 Z0.1572
G1 Y0.779 Z0.1992
G1 Y0.804 Z0.2058
G1 Y0.979 Z0.2438
G1 Y1.004 Z0.2482
G1 Y1.154 Z0.2714
G1 Y1.179 Z0.2752
G1 Y1.354 Z0.2912
G1 Y1.379 Z0.2926
G1 Y1.554 Z0.2975
G1 Y1.754
G1 Y1.779 Z0.2973
G1 Y1.854
G1 Y1.879 Z0.2971
G1 Y1.929
G1 Y2.104 Z0.2907
G1 Y2.129 Z0.2883
G1 Y2.179 Z0.2833
G1 Y2.279 Z0.2732
G1 Y2.304 Z0.2699
G1 Y2.354 Z0.2616
G1 Y2.454 Z0.245
G1 Y2.479 Z0.2408
G1 Y2.529 Z0.2293
G1 Y2.554 Z0.2235
G1 Y2.654 Z0.2003
G1 Y2.679 Z0.1935
G1 Y2.704 Z0.1861
G1 Y2.729 Z0.1786
G1 Y2.829 Z0.1489
G1 Y2.854 Z0.1411
G1 Y2.879 Z0.132
G1 Y2.904 Z0.1229
G1 Y3.029 Z0.0774
G1 Y3.054 Z0.0668
G1 Y3.079 Z0.056
G1 Y3.204 Z0.0022
G1 Y3.229 Z-0.0025
G1 Y3.2553
G1 F30.0 X1.8351 Y3.3375
G1 F300.0 Y3.304
G1 Y3.279 Z0.0053
G1 Y3.154 Z0.0591
G1 Y3.129 Z0.0699
G1 Y3.104 Z0.08
G1 Y2.979 Z0.1255
G1 Y2.954 Z0.1346
G1 Y2.929 Z0.1436
G1 Y2.804 Z0.1808
G1 Y2.779 Z0.1882
G1 Y2.754 Z0.1957
G1 Y2.729 Z0.202
G1 Y2.629 Z0.2251
G1 Y2.604 Z0.2309
G1 Y2.579 Z0.2367
G1 Y2.554 Z0.2421
G1 Y2.429 Z0.2628
G1 Y2.379 Z0.2711
G1 Y2.354 Z0.2739
G1 Y2.254 Z0.284
G1 Y2.204 Z0.2891
G1 Y2.179 Z0.291
G1 Y2.004 Z0.2974
G1 Y1.804
G1 Y1.779 Z0.2973
G1 Y1.629
G1 Y1.454 Z0.2924
G1 Y1.429 Z0.2905
G1 Y1.279 Z0.2768
G1 Y1.254 Z0.2741
G1 Y1.079 Z0.2471
G1 Y1.054 Z0.2422
G1 Y0.904 Z0.2096
G1 Y0.879 Z0.2041
G1 Y0.704 Z0.1552
G1 Y0.679 Z0.1476
G1 Y0.504 Z0.0879
G1 Y0.479 Z0.0781
G1 Y0.329 Z0.0178
G1 Y0.304 Z-0.0025
G1 Y0.2662
G1 F30.0 X1.9101 Y0.3484
G1 F300.0 Y0.379
G1 Y0.404 Z0.0149
G1 Y0.579 Z0.0853
G1 Y0.604 Z0.0939
G1 Y0.754 Z0.1451
G1 Y0.779 Z0.1532
G1 Y0.954 Z0.2021
G1 Y0.979 Z0.2081
G1 Y1.129 Z0.2406
G1 Y1.154 Z0.246
G1 Y1.329 Z0.273
G1 Y1.354 Z0.2761
G1 Y1.529 Z0.2921
G1 Y1.554 Z0.2929
G1 Y1.704 Z0.2971
G1 Y1.729
G1 Y1.754
G1 Y1.779 Z0.2974
G1 Y2.029
G1 Y2.054
G1 Y2.079
G1 Y2.104 Z0.2967
G1 Y2.254 Z0.2913
G1 Y2.279 Z0.2898
G1 Y2.329 Z0.2848
G1 Y2.454 Z0.2721
G1 Y2.479 Z0.2682
G1 Y2.504 Z0.264
G1 Y2.529 Z0.2599
G1 Y2.629 Z0.2433
G1 Y2.654 Z0.2384
G1 Y2.679 Z0.2326
G1 Y2.704 Z0.2268
G1 Y2.804 Z0.2037
G1 Y2.829 Z0.1978
G1 Y2.854 Z0.1904
G1 Y2.879 Z0.183
G1 Y3.004 Z0.1458
G1 Y3.029 Z0.1372
G1 Y3.054 Z0.1281
G1 Y3.179 Z0.0827
G1 Y3.204 Z0.0731
G1 Y3.229 Z0.0623
G1 Y3.379 Z-0.0023
G1 Y3.404 Z-0.0025
G1 Y3.4198
G1 F30.0 X1.9851 Y3.5022
G1 F300.0 Y3.479
G1 Y3.454 Z0.0008
G1 Y3.304 Z0.0654
G1 Y3.279 Z0.0762
G1 Y3.254 Z0.0853
G1 Y3.129 Z0.1308
G1 Y3.104 Z0.1399
G1 Y3.079 Z0.1479
G1 Y2.954 Z0.1851
G1 Y2.929 Z0.1926
G1 Y2.904 Z0.1996
G1 Y2.779 Z0.2285
G1 Y2.754 Z0.2343
G1 Y2.729 Z0.2401
G1 Y2.704 Z0.2445
G1 Y2.604 Z0.2611
G1 Y2.579 Z0.2652
G1 Y2.554 Z0.2694
G1 Y2.529 Z0.2729
G1 Y2.404 Z0.2855
G1 Y2.354 Z0.2905
G1 Y2.329 Z0.2915
G1 Y2.179 Z0.297
G1 Y2.154 Z0.2972
G1 Y2.129
G1 Y2.104 Z0.2974
G1 Y2.029
G1 Y2.004
G1 Y1.804
G1 Y1.779 Z0.2969
G1 Y1.629 Z0.2927
G1 Y1.604 Z0.2915
G1 Y1.429 Z0.2755
G1 Y1.404 Z0.2719
G1 Y1.254 Z0.2487
G1 Y1.229 Z0.2445
G1 Y1.054 Z0.2065
G1 Y1.029 Z0.2001
G1 Y0.879 Z0.1582
G1 Y0.854 Z0.1512
G1 Y0.679 Z0.0915
G1 Y0.654 Z0.0824
G1 Y0.479 Z0.012
G1 Y0.454 Z-0.0025
G1 Y0.4307
G1 F30.0 X2.0601 Y0.5129
G1 F300.0 Y0.529
G1 Y0.554 Z0.0091
G1 Y0.729 Z0.0795
G1 Y0.754 Z0.089
G1 Y0.929 Z0.1487
G1 Y0.954 Z0.1562
G1 Y1.104 Z0.1981
G1 Y1.129 Z0.2049
G1 Y1.304 Z0.2429
G1 Y1.329 Z0.2476
G1 Y1.504 Z0.2747
G1 Y1.529 Z0.2771
G1 Y1.679 Z0.2908
G1 Y1.704 Z0.2925
G1 Y1.879 Z0.2974
G1 Y2.079
G1 Y2.104 Z0.2973
G1 Y2.254
G1 Y2.429 Z0.2909
G1 Y2.454 Z0.2887
G1 Y2.479 Z0.2862
G1 Y2.604 Z0.2736
G1 Y2.629 Z0.2706
G1 Y2.654 Z0.2664
G1 Y2.679 Z0.2623
G1 Y2.804 Z0.2415
G1 Y2.829 Z0.236
G1 Y2.854 Z0.2302
G1 Y2.979 Z0.2013
G1 Y3.004 Z0.1947
G1 Y3.029 Z0.1873
G1 Y3.154 Z0.1501
G1 Y3.179 Z0.1425
G1 Y3.204 Z0.1334
G1 Y3.354 Z0.0789
G1 Y3.379 Z0.0685
G1 Y3.454 Z0.0362
G1 Y3.479 Z0.0256
G1 Y3.504 Z0.0152
G1 Y3.529 Z0.0048
G1 Y3.554 Z-0.0025
G1 Y3.5898
G1 F30.0 X2.1351 Y3.6774
G1 F300.0 Y3.654
G1 Y3.629 Z-0.0003
G1 Y3.579 Z0.0204
G1 Y3.554 Z0.0308
G1 Y3.454 Z0.0724
G1 Y3.429 Z0.0818
G1 Y3.404 Z0.0906
G1 Y3.279 Z0.1361
G1 Y3.254 Z0.1448
G1 Y3.104 Z0.1894
G1 Y3.079 Z0.1969
G1 Y3.054 Z0.2029
G1 Y2.929 Z0.2319
G1 Y2.904 Z0.2377
G1 Y2.879 Z0.2428
G1 Y2.754 Z0.2635
G1 Y2.729 Z0.2676
G1 Y2.704 Z0.2718
G1 Y2.679 Z0.2743
G1 Y2.554 Z0.2869
G1 Y2.529 Z0.2895
G1 Y2.504 Z0.2912
G1 Y2.354 Z0.2966
G1 Y2.329 Z0.2975
G1 Y2.129
G1 Y2.104 Z0.2973
G1 Y2.029
G1 Y2.004 Z0.2972
G1 Y1.954
G1 Y1.779 Z0.2923
G1 Y1.754 Z0.2901
G1 Y1.604 Z0.2764
G1 Y1.579 Z0.2735
G1 Y1.404 Z0.2465
G1 Y1.379 Z0.2414
G1 Y1.229 Z0.2088
G1 Y1.204 Z0.203
G1 Y1.029 Z0.1541
G1 Y1.004 Z0.1462
G1 Y0.829 Z0.0865
G1 Y0.804 Z0.0766
G1 Y0.654 Z0.0162
G1 Y0.629 Z-0.0025
G1 Y0.5951
G1 F30.0 X2.2101 Y0.6773
G1 F300.0 Y0.704
G1 Y0.729 Z0.0133
G1 Y0.904 Z0.0837
G1 Y0.929 Z0.0926
G1 Y1.079 Z0.1438
G1 Y1.104 Z0.1521
G1 Y1.279 Z0.201
G1 Y1.304 Z0.2072
G1 Y1.479 Z0.2452
G1 Y1.504 Z0.2493
G1 Y1.654 Z0.2724
G1 Y1.679 Z0.2758
G1 Y1.854 Z0.2918
G1 Y1.879 Z0.2928
G1 Y2.029 Z0.297
G1 Y2.054 Z0.2973
G1 Y2.079
G1 Y2.104 Z0.2975
G1 Y2.354
G1 Y2.379 Z0.2973
G1 Y2.404
G1 Y2.429 Z0.2969
G1 Y2.579 Z0.2914
G1 Y2.604 Z0.2902
G1 Y2.629 Z0.2877
G1 Y2.779 Z0.2725
G1 Y2.804 Z0.2688
G1 Y2.829 Z0.2647
G1 Y2.954 Z0.244
G1 Y2.979 Z0.2393
G1 Y3.004 Z0.2335
G1 Y3.154 Z0.1988
G1 Y3.179 Z0.1916
G1 Y3.329 Z0.147
G1 Y3.354 Z0.1388
G1 Y3.479 Z0.0949
G1 Y3.529 Z0.0774
G1 Y3.554 Z0.0671
G1 Y3.604 Z0.0464
G1 Y3.629 Z0.036
G1 Y3.704 Z0.0049
G1 Y3.729 Z-0.0025
G1 Y3.765
G1 F30.0 X2.2851 Y3.8566
G1 F300.0 Y3.829
G1 Y3.804 Z0.0003
G1 Y3.779 Z0.0103
G1 Y3.754 Z0.0205
G1 Y3.679 Z0.0516
G1 Y3.654 Z0.0619
G1 Y3.629 Z0.0723
G1 Y3.604 Z0.0817
G1 Y3.529 Z0.108
G1 Y3.504 Z0.1168
G1 Y3.429 Z0.1431
G1 Y3.404 Z0.1503
G1 Y3.379 Z0.1575
G1 Y3.304 Z0.179
G1 Y3.279 Z0.1863
G1 Y3.254 Z0.1938
G1 Y3.229 Z0.2005
G1 Y3.079 Z0.2352
G1 Y3.054 Z0.241
G1 Y2.904 Z0.2659
G1 Y2.879 Z0.27
G1 Y2.854 Z0.2733
G1 Y2.704 Z0.2884
G1 Y2.679 Z0.2908
G1 Y2.504 Z0.2971
G1 Y2.454
G1 Y2.429 Z0.2973
G1 Y2.354
G1 Y2.329 Z0.2975
G1 Y2.129
G1 Y1.954 Z0.2926
G1 Y1.929 Z0.2911
G1 Y1.754 Z0.2751
G1 Y1.729 Z0.2713
G1 Y1.579 Z0.2481
G1 Y1.554 Z0.2437
G1 Y1.379 Z0.2057
G1 Y1.354 Z0.199
G1 Y1.204 Z0.1571
G1 Y1.179 Z0.1498
G1 Y1.004 Z0.0901
G1 Y0.979 Z0.0808
G1 Y0.804 Z0.0104
G1 Y0.779 Z-0.0025
G1 Y0.7596
G1 F30.0 X2.3601 Y0.8418
G1 F300.0 Y0.879
G1 Y0.904 Z0.0175
G1 Y1.054 Z0.0779
G1 Y1.079 Z0.0877
G1 Y1.254 Z0.1474
G1 Y1.279 Z0.1551
G1 Y1.454 Z0.2039
G1 Y1.479 Z0.2095
G1 Y1.629 Z0.2421
G1 Y1.654 Z0.247
G1 Y1.829 Z0.2741
G1 Y1.854 Z0.2767
G1 Y2.004 Z0.2904
G1 Y2.029 Z0.2924
G1 Y2.204 Z0.2973
G1 Y2.354
G1 Y2.379 Z0.2974
G1 Y2.579
G1 Y2.754 Z0.291
G1 Y2.779 Z0.2891
G1 Y2.929 Z0.274
G1 Y2.954 Z0.2712
G1 Y2.979 Z0.2671
G1 Y3.129 Z0.2422
G1 Y3.154 Z0.2369
G1 Y3.229 Z0.2195
G1 Y3.254 Z0.2139
G1 Y3.279 Z0.2083
G1 Y3.304 Z0.2028
G1 Y3.329 Z0.1969
G1 Y3.429 Z0.1682
G1 Y3.454 Z0.161
G1 Y3.504 Z0.1467
G1 Y3.529 Z0.1387
G1 Y3.554 Z0.1299
G1 Y3.579 Z0.1211
G1 Y3.704 Z0.0773
G1 Y3.729 Z0.0674
G1 Y3.829 Z0.0273
G1 Y3.854 Z0.0172
G1 Y3.879 Z0.0072
G1 Y3.904 Z-0.0025
G1 Y3.9489
G1 F30.0 X2.4351 Y4.0412
G1 F300.0 Y4.004
G1 Y3.979 Z0.0041
G1 Y3.904 Z0.0342
G1 Y3.879 Z0.0442
G1 Y3.804 Z0.0744
G1 Y3.779 Z0.0831
G1 Y3.754 Z0.0916
G1 Y3.654 Z0.1255
G1 Y3.629 Z0.1343
G1 Y3.604 Z0.143
G1 Y3.579 Z0.1502
G1 Y3.504 Z0.1717
G1 Y3.479 Z0.1789
G1 Y3.429 Z0.1932
G1 Y3.404 Z0.1999
G1 Y3.354 Z0.2111
G1 Y3.329 Z0.2167
G1 Y3.229 Z0.239
G1 Y3.204 Z0.2436
G1 Y3.179 Z0.2476
G1 Y3.154 Z0.2517
G1 Y3.054 Z0.2683
G1 Y3.029 Z0.2722
G1 Y2.854 Z0.2899
G1 Y2.829 Z0.2913
G1 Y2.679 Z0.2968
G1 Y2.654 Z0.2974
G1 Y2.629
G1 Y2.604
G1 Y2.354
G1 Y2.329 Z0.2971
G1 Y2.304
G1 Y2.279
G1 Y2.129 Z0.2929
G1 Y2.104 Z0.2921
G1 Y1.929 Z0.2761
G1 Y1.904 Z0.2729
G1 Y1.729 Z0.2459
G1 Y1.704 Z0.2405
G1 Y1.554 Z0.2079
G1 Y1.529 Z0.2019
G1 Y1.354 Z0.153
G1 Y1.329 Z0.1449
G1 Y1.179 Z0.0937
G1 Y1.154 Z0.0851
G1 Y0.979 Z0.0146
G1 Y0.954 Z-0.0025
G1 Y0.924
G1 F30.0 X2.5101 Y1.0063
G1 F300.0 Y1.029
G1 Y1.054 Z0.0117
G1 Y1.229 Z0.0821
G1 Y1.254 Z0.0913
G1 Y1.429 Z0.151
G1 Y1.454 Z0.158
G1 Y1.604 Z0.1999
G1 Y1.629 Z0.2064
G1 Y1.804 Z0.2444
G1 Y1.829 Z0.2487
G1 Y1.979 Z0.2718
G1 Y2.004 Z0.2754
G1 Y2.179 Z0.2914
G1 Y2.204 Z0.2927
G1 Y2.354 Z0.2969
G1 Y2.379 Z0.2974
G1 Y2.579
G1 Y2.604
G1 Y2.679
G1 Y2.704 Z0.2972
G1 Y2.729
G1 Y2.754 Z0.297
G1 Y2.904 Z0.2916
G1 Y2.929 Z0.2906
G1 Y3.104 Z0.2729
G1 Y3.129 Z0.2696
G1 Y3.254 Z0.2495
G1 Y3.304 Z0.2415
G1 Y3.329 Z0.2361
G1 Y3.379 Z0.225
G1 Y3.404 Z0.2194
G1 Y3.479 Z0.2027
G1 Y3.504 Z0.1968
G1 Y3.529 Z0.1896
G1 Y3.579 Z0.1753
G1 Y3.604 Z0.1682
G1 Y3.654 Z0.1543
G1 Y3.679 Z0.1474
G1 Y3.704 Z0.1398
G1 Y3.804 Z0.1059
G1 Y3.829 Z0.0974
G1 Y3.879 Z0.0805
G1 Y3.904 Z0.0712
G1 Y3.929 Z0.0612
G1 Y3.954 Z0.0512
G1 Y4.079 Z0.001
G1 Y4.104 Z-0.0025
G1 Y4.1334
G1 F30.0 X2.5851 Y4.2256
G1 F300.0 Y4.204
G1 Y4.179 Z-0.0017
G1 Y4.054 Z0.0481
G1 Y4.029 Z0.0581
G1 Y4.004 Z0.0681
G1 Y3.979 Z0.0779
G1 Y3.879 Z0.1117
G1 Y3.854 Z0.1202
G1 Y3.804 Z0.1372
G1 Y3.779 Z0.1452
G1 Y3.729 Z0.1591
G1 Y3.704 Z0.166
G1 Y3.604 Z0.1937
G1 Y3.579 Z0.2001
G1 Y3.554 Z0.2055
G1 Y3.529 Z0.211
G1 Y3.454 Z0.2277
G1 Y3.429 Z0.2333
G1 Y3.404 Z0.2389
G1 Y3.379 Z0.2435
G1 Y3.304 Z0.2555
G1 Y3.279 Z0.2595
G1 Y3.204 Z0.2715
G1 Y3.179 Z0.2741
G1 Y3.154 Z0.2765
G1 Y3.079 Z0.2838
G1 Y3.054 Z0.2863
G1 Y3.029 Z0.2888
G1 Y3.004 Z0.2909
G1 Y2.829 Z0.2973
G1 Y2.679
G1 Y2.654 Z0.2974
G1 Y2.454
G1 Y2.279 Z0.2925
G1 Y2.254 Z0.2907
G1 Y2.104 Z0.2771
G1 Y2.079 Z0.2746
G1 Y1.904 Z0.2475
G1 Y1.879 Z0.2428
G1 Y1.704 Z0.2048
G1 Y1.679 Z0.1979
G1 Y1.529 Z0.156
G1 Y1.504 Z0.1485
G1 Y1.329 Z0.0888
G1 Y1.304 Z0.0792
G1 Y1.229 Z0.0491
G1 Y1.129 Z0.0088
G1 Y1.104 Z-0.0025
G1 Y1.0885
G1 F30.0 X2.6601 Y1.1707
G1 F300.0 Y1.204
G1 Y1.229 Z0.016
G1 Y1.304 Z0.0461
G1 Y1.379 Z0.0763
G1 Y1.404 Z0.0863
G1 Y1.579 Z0.146
G1 Y1.604 Z0.154
G1 Y1.779 Z0.2029
G1 Y1.804 Z0.2087
G1 Y1.954 Z0.2412
G1 Y1.979 Z0.2464
G1 Y2.154 Z0.2734
G1 Y2.179 Z0.2764
G1 Y2.329 Z0.2901
G1 Y2.354 Z0.2923
G1 Y2.529 Z0.2972
G1 Y2.579
G1 Y2.604 Z0.2973
G1 Y2.679
G1 Y2.704 Z0.2974
G1 Y2.904
G1 Y2.929 Z0.2966
G1 Y2.979 Z0.2948
G1 Y3.004 Z0.2939
G1 Y3.079 Z0.2913
G1 Y3.104 Z0.2899
G1 Y3.204 Z0.2801
G1 Y3.279 Z0.2728
G1 Y3.304 Z0.2694
G1 Y3.329 Z0.2654
G1 Y3.354 Z0.2614
G1 Y3.479 Z0.2414
G1 Y3.504 Z0.2362
G1 Y3.604 Z0.2146
G1 Y3.629 Z0.2092
G1 Y3.679 Z0.1984
G1 Y3.704 Z0.1915
G1 Y3.754 Z0.1777
G1 Y3.779 Z0.1707
G1 Y3.854 Z0.15
G1 Y3.879 Z0.143
G1 Y3.904 Z0.1345
G1 Y3.929 Z0.1261
G1 Y3.979 Z0.1091
G1 Y4.004 Z0.1007
G1 Y4.054 Z0.0839
G1 Y4.079 Z0.0753
G1 Y4.254 Z0.0056
G1 Y4.279 Z-0.0025
G1 Y4.3177
G1 F30.0 X2.7351 Y4.4097
G1 F300.0 Y4.379
G1 Y4.354 Z0.003
G1 Y4.254 Z0.0428
G1 Y4.179 Z0.0726
G1 Y4.154 Z0.0816
G1 Y4.104 Z0.0985
G1 Y3.979 Z0.1405
G1 Y3.954 Z0.1479
G1 Y3.929 Z0.1547
G1 Y3.904 Z0.1617
G1 Y3.829 Z0.1824
G1 Y3.804 Z0.1894
G1 Y3.779 Z0.1963
G1 Y3.754 Z0.2021
G1 Y3.679 Z0.2183
G1 Y3.654 Z0.2237
G1 Y3.579 Z0.2398
G1 Y3.554 Z0.244
G1 Y3.529 Z0.2479
G1 Y3.429 Z0.2634
G1 Y3.404 Z0.2674
G1 Y3.379 Z0.2714
G1 Y3.354 Z0.274
G1 Y3.254 Z0.2837
G1 Y3.204 Z0.2886
G1 Y3.179 Z0.2908
G1 Y3.004 Z0.297
G1 Y2.979 Z0.2972
G1 Y2.954
G1 Y2.929 Z0.2974
G1 Y2.679
G1 Y2.654 Z0.2973
G1 Y2.629
G1 Y2.604 Z0.297
G1 Y2.454 Z0.2928
G1 Y2.429 Z0.2917
G1 Y2.254 Z0.2757
G1 Y2.229 Z0.2723
G1 Y2.079 Z0.2492
G1 Y2.054 Z0.2451
G1 Y1.879 Z0.2071
G1 Y1.854 Z0.2008
G1 Y1.679 Z0.152
G1 Y1.654 Z0.1436
G1 Y1.504 Z0.0924
G1 Y1.479 Z0.0835
G1 Y1.379 Z0.0432
G1 Y1.304 Z0.0131
G1 Y1.279 Z-0.0025
G1 Y1.2529
G1 F30.0 X2.8101 Y1.3352
G1 F300.0 Y1.354
G1 Y1.379 Z0.0101
G1 Y1.454 Z0.0403
G1 Y1.554 Z0.0806
G1 Y1.579 Z0.0899
G1 Y1.754 Z0.1496
G1 Y1.779 Z0.1569
G1 Y1.929 Z0.1988
G1 Y1.954 Z0.2055
G1 Y2.129 Z0.2435
G1 Y2.154 Z0.248
G1 Y2.304 Z0.2712
G1 Y2.329 Z0.2751
G1 Y2.504 Z0.291
G1 Y2.529 Z0.2926
G1 Y2.704 Z0.2974
G1 Y2.904
G1 Y2.929
G1 Y3.079
G1 Y3.254 Z0.2912
G1 Y3.279 Z0.2898
G1 Y3.304 Z0.2874
G1 Y3.354 Z0.2825
G1 Y3.379 Z0.2801
G1 Y3.429 Z0.2754
G1 Y3.454 Z0.273
G1 Y3.479 Z0.2699
G1 Y3.579 Z0.2544
G1 Y3.654 Z0.2428
G1 Y3.679 Z0.2381
G1 Y3.704 Z0.2327
G1 Y3.729 Z0.2273
G1 Y3.854 Z0.2004
G1 Y3.879 Z0.1941
G1 Y4.054 Z0.146
G1 Y4.079 Z0.1382
G1 Y4.254 Z0.0794
G1 Y4.279 Z0.07
G1 Y4.304 Z0.06
G1 Y4.404 Z0.0202
G1 Y4.429 Z0.0101
G1 Y4.454 Z0.0
G1 Y4.479 Z-0.0025
G1 Y4.5017
G1 F30.0 X2.8851 Y4.5937
G1 F300.0 Y4.554
G1 Y4.529 Z0.0064
G1 Y4.504 Z0.0165
G1 Y4.479 Z0.0266
G1 Y4.379 Z0.0671
G1 Y4.354 Z0.0771
G1 Y4.329 Z0.0855
G1 Y4.179 Z0.136
G1 Y4.154 Z0.1442
G1 Y3.979 Z0.1923
G1 Y3.954 Z0.1989
G1 Y3.829 Z0.2256
G1 Y3.804 Z0.231
G1 Y3.779 Z0.2364
G1 Y3.754 Z0.2416
G1 Y3.629 Z0.2609
G1 Y3.579 Z0.2686
G1 Y3.554 Z0.2723
G1 Y3.504 Z0.277
G1 Y3.479 Z0.2793
G1 Y3.379 Z0.2887
G1 Y3.354 Z0.2908
G1 Y3.329 Z0.2917
G1 Y3.304 Z0.2925
G1 Y3.179 Z0.2969
G1 Y3.154 Z0.2972
G1 Y3.129
G1 Y3.104 Z0.2974
G1 Y2.854
G1 Y2.829 Z0.2972
G1 Y2.779
G1 Y2.754 Z0.2965
G1 Y2.729 Z0.2959
G1 Y2.604 Z0.2924
G1 Y2.579 Z0.2904
G1 Y2.429 Z0.2767
G1 Y2.404 Z0.274
G1 Y2.229 Z0.2469
G1 Y2.204 Z0.242
G1 Y2.054 Z0.2094
G1 Y2.029 Z0.2038
G1 Y1.854 Z0.1549
G1 Y1.829 Z0.1472
G1 Y1.654 Z0.0875
G1 Y1.629 Z0.0777
G1 Y1.529 Z0.0374
G1 Y1.479 Z0.0173
G1 Y1.454 Z-0.0025
G1 Y1.4174
G1 F30.0 X2.9601 Y1.4996
G1 F300.0 Y1.529
G1 Y1.554 Z0.0144
G1 Y1.604 Z0.0345
G1 Y1.729 Z0.0848
G1 Y1.754 Z0.0935
G1 Y1.904 Z0.1447
G1 Y1.929 Z0.1529
G1 Y2.104 Z0.2018
G1 Y2.129 Z0.2078
G1 Y2.304 Z0.2458
G1 Y2.329 Z0.2497
G1 Y2.479 Z0.2728
G1 Y2.504 Z0.276
G1 Y2.679 Z0.292
G1 Y2.704 Z0.2929
G1 Y2.854 Z0.2969
G1 Y2.879 Z0.2974
G1 Y3.079
G1 Y3.104 Z0.2973
G1 Y3.254
G1 Y3.279 Z0.2965
G1 Y3.429 Z0.2914
G1 Y3.454 Z0.2903
G1 Y3.529 Z0.2833
G1 Y3.554 Z0.2809
G1 Y3.629 Z0.2739
G1 Y3.654 Z0.2713
G1 Y3.679 Z0.2674
G1 Y3.754 Z0.2558
G1 Y3.779 Z0.252
G1 Y3.829 Z0.2443
G1 Y3.854 Z0.2402
G1 Y4.029 Z0.2028
G1 Y4.054 Z0.1973
G1 Y4.229 Z0.1492
G1 Y4.254 Z0.1421
G1 Y4.279 Z0.1337
G1 Y4.304 Z0.1253
G1 Y4.404 Z0.0911
G1 Y4.429 Z0.0825
G1 Y4.454 Z0.0735
G1 Y4.529 Z0.0432
G1 Y4.554 Z0.0331
G1 Y4.629 Z0.0026
G1 Y4.654 Z-0.0025
G1 Y4.6856
G1 F30.0 X3.0351 Y4.7773
G1 F300.0 Y4.754
G1 Y4.729 Z-0.0011
G1 Y4.604 Z0.0496
G1 Y4.554 Z0.0699
G1 Y4.529 Z0.0794
G1 Y4.479 Z0.0965
G1 Y4.454 Z0.1051
G1 Y4.354 Z0.1393
G1 Y4.329 Z0.147
G1 Y4.304 Z0.154
G1 Y4.254 Z0.1679
G1 Y4.229 Z0.1749
G1 Y4.154 Z0.1955
G1 Y4.129 Z0.2014
G1 Y3.954 Z0.2388
G1 Y3.929 Z0.2433
G1 Y3.754 Z0.2701
G1 Y3.729 Z0.2731
G1 Y3.704 Z0.2754
G1 Y3.604 Z0.2849
G1 Y3.579 Z0.2872
G1 Y3.554 Z0.2896
G1 Y3.529 Z0.2911
G1 Y3.354 Z0.2971
G1 Y3.329 Z0.2972
G1 Y3.304
G1 Y3.279 Z0.2973
G1 Y3.029
G1 Y3.004 Z0.2972
G1 Y2.954
G1 Y2.779 Z0.2926
G1 Y2.754 Z0.291
G1 Y2.729 Z0.2888
G1 Y2.654 Z0.2822
G1 Y2.629 Z0.2799
G1 Y2.579 Z0.2754
G1 Y2.554 Z0.2717
G1 Y2.404 Z0.2486
G1 Y2.379 Z0.2442
G1 Y2.204 Z0.2062
G1 Y2.179 Z0.1997
G1 Y2.029 Z0.1578
G1 Y2.004 Z0.1508
G1 Y1.829 Z0.0911
G1 Y1.804 Z0.0819
G1 Y1.679 Z0.0316
G1 Y1.629 Z0.0115
G1 Y1.604 Z-0.0025
G1 Y1.5819
G1 F30.0 X3.1101 Y1.6641
G1 F300.0 Y1.704
G1 Y1.729 Z0.0186
G1 Y1.754 Z0.0287
G1 Y1.879 Z0.079
G1 Y1.904 Z0.0886
G1 Y2.079 Z0.1483
G1 Y2.104 Z0.1558
G1 Y2.254 Z0.1977
G1 Y2.279 Z0.2047
G1 Y2.454 Z0.2427
G1 Y2.479 Z0.2474
G1 Y2.579 Z0.2629
G1 Y2.604 Z0.2666
G1 Y2.629 Z0.2704
G1 Y2.654 Z0.2741
G1 Y2.679 Z0.2767
G1 Y2.779 Z0.2855
G1 Y2.854 Z0.2921
G1 Y2.879 Z0.2929
G1 Y3.029 Z0.2969
G1 Y3.054 Z0.2973
G1 Y3.204
G1 Y3.229 Z0.2974
G1 Y3.429
G1 Y3.454 Z0.2968
G1 Y3.629 Z0.2908
G1 Y3.654 Z0.2888
G1 Y3.679 Z0.2865
G1 Y3.829 Z0.2725
G1 Y3.854 Z0.2691
G1 Y4.029 Z0.2422
G1 Y4.054 Z0.2374
G1 Y4.179 Z0.2107
G1 Y4.204 Z0.2053
G1 Y4.229 Z0.1998
G1 Y4.254 Z0.1933
G1 Y4.354 Z0.1654
G1 Y4.379 Z0.1584
G1 Y4.429 Z0.1445
G1 Y4.454 Z0.1362
G1 Y4.504 Z0.1191
G1 Y4.529 Z0.1105
G1 Y4.604 Z0.0849
G1 Y4.629 Z0.0763
G1 Y4.654 Z0.0662
G1 Y4.679 Z0.056
G1 Y4.729 Z0.0357
G1 Y4.754 Z0.0254
G1 Y4.779 Z0.0148
G1 Y4.804 Z0.0042
G1 Y4.829 Z-0.0025
G1 Y4.8664
G1 F30.0 X3.1851 Y4.9525
G1 F300.0 Y4.929
G1 Y4.904 Z-0.0022
G1 Y4.854 Z0.019
G1 Y4.829 Z0.0295
G1 Y4.729 Z0.0718
G1 Y4.704 Z0.0814
G1 Y4.679 Z0.0903
G1 Y4.579 Z0.1245
G1 Y4.554 Z0.1331
G1 Y4.529 Z0.1416
G1 Y4.504 Z0.1489
G1 Y4.429 Z0.1699
G1 Y4.404 Z0.1769
G1 Y4.329 Z0.1978
G1 Y4.304 Z0.2033
G1 Y4.279 Z0.2087
G1 Y4.254 Z0.2142
G1 Y4.154 Z0.2359
G1 Y4.129 Z0.2412
G1 Y3.954 Z0.268
G1 Y3.929 Z0.2719
G1 Y3.729 Z0.2905
G1 Y3.704 Z0.2915
G1 Y3.629 Z0.294
G1 Y3.604 Z0.2948
G1 Y3.529 Z0.2974
G1 Y3.479
G1 Y3.454
G1 Y3.204
G1 Y3.179 Z0.2972
G1 Y3.129
G1 Y3.029 Z0.2946
G1 Y3.004 Z0.2939
G1 Y2.954 Z0.2926
G1 Y2.929 Z0.2911
G1 Y2.829 Z0.2823
G1 Y2.754 Z0.2757
G1 Y2.729 Z0.2723
G1 Y2.679 Z0.2649
G1 Y2.554 Z0.2462
G1 Y2.529 Z0.2411
G1 Y2.504 Z0.2357
G1 Y2.379 Z0.2085
G1 Y2.354 Z0.2027
G1 Y2.179 Z0.1538
G1 Y2.154 Z0.1458
G1 Y1.979 Z0.0861
G1 Y1.954 Z0.0761
G1 Y1.829 Z0.0258
G1 Y1.804 Z0.0157
G1 Y1.779 Z-0.0025
G1 Y1.7463
G1 F30.0 X3.2601 Y1.8285
G1 F300.0 Y1.854
G1 Y1.879 Z0.0128
G1 Y1.904 Z0.0229
G1 Y2.054 Z0.0832
G1 Y2.079 Z0.0922
G1 Y2.229 Z0.1434
G1 Y2.254 Z0.1518
G1 Y2.429 Z0.2007
G1 Y2.454 Z0.207
G1 Y2.479 Z0.2124
G1 Y2.604 Z0.2386
G1 Y2.629 Z0.2439
G1 Y2.654 Z0.2482
G1 Y2.729 Z0.2594
G1 Y2.829 Z0.2743
G1 Y2.854 Z0.2768
G1 Y2.879 Z0.279
G1 Y2.954 Z0.2856
G1 Y2.979 Z0.2878
G1 Y3.029 Z0.292
G1 Y3.054 Z0.2929
G1 Y3.229 Z0.2974
G1 Y3.429
G1 Y3.454
G1 Y3.554
G1 Y3.579 Z0.2971
G1 Y3.604
G1 Y3.629
G1 Y3.804 Z0.2912
G1 Y3.829 Z0.2899
G1 Y4.004 Z0.2736
G1 Y4.029 Z0.2709
G1 Y4.054 Z0.267
G1 Y4.079 Z0.2632
G1 Y4.179 Z0.2476
G1 Y4.204 Z0.2437
G1 Y4.229 Z0.2394
G1 Y4.329 Z0.2177
G1 Y4.404 Z0.2014
G1 Y4.429 Z0.1953
G1 Y4.454 Z0.1883
G1 Y4.479 Z0.1813
G1 Y4.604 Z0.1464
G1 Y4.629 Z0.1385
G1 Y4.754 Z0.0939
G1 Y4.779 Z0.085
G1 Y4.804 Z0.076
G1 Y4.879 Z0.0443
G1 Y4.904 Z0.0337
G1 Y4.979 Z0.0019
G1 Y5.004 Z-0.0025
G1 Y5.0357
G1 F30.0 X3.3351 Y5.1162
G1 F300.0 Y5.079
G1 Y5.054 Z0.006
G1 Y4.954 Z0.0485
G1 Y4.929 Z0.059
G1 Y4.904 Z0.0696
G1 Y4.879 Z0.0796
G1 Y4.829 Z0.0974
G1 Y4.804 Z0.1064
G1 Y4.704 Z0.142
G1 Y4.679 Z0.1496
G1 Y4.654 Z0.1568
G1 Y4.579 Z0.1787
G1 Y4.554 Z0.1858
G1 Y4.529 Z0.1928
G1 Y4.504 Z0.1994
G1 Y4.379 Z0.2266
G1 Y4.329 Z0.2374
G1 Y4.304 Z0.2423
G1 Y4.254 Z0.2501
G1 Y4.229 Z0.254
G1 Y4.129 Z0.2696
G1 Y4.104 Z0.2728
G1 Y4.079 Z0.2752
G1 Y4.029 Z0.2799
G1 Y4.004 Z0.2823
G1 Y3.929 Z0.2893
G1 Y3.904 Z0.291
G1 Y3.729 Z0.2969
G1 Y3.704 Z0.2973
G1 Y3.554
G1 Y3.529 Z0.2974
G1 Y3.329
G1 Y3.304 Z0.2969
G1 Y3.129 Z0.2924
G1 Y3.104 Z0.2906
G1 Y2.929 Z0.2757
G1 Y2.904 Z0.2725
G1 Y2.779 Z0.2539
G1 Y2.729 Z0.2464
G1 Y2.704 Z0.2414
G1 Y2.629 Z0.2256
G1 Y2.529 Z0.2046
G1 Y2.504 Z0.1979
G1 Y2.429 Z0.1776
G1 Y2.404 Z0.1707
G1 Y2.354 Z0.1567
G1 Y2.329 Z0.1494
G1 Y2.154 Z0.0897
G1 Y2.129 Z0.0803
G1 Y1.979 Z0.02
G1 Y1.954 Z0.0099
G1 Y1.929 Z-0.0025
G1 Y1.9108
G1 F30.0 X3.4101 Y1.993
G1 F300.0 Y2.029
G1 Y2.054 Z0.0171
G1 Y2.204 Z0.0774
G1 Y2.229 Z0.0873
G1 Y2.354 Z0.1299
G1 Y2.379 Z0.1383
G1 Y2.404 Z0.1466
G1 Y2.429 Z0.1542
G1 Y2.604 Z0.2014
G1 Y2.629 Z0.2074
G1 Y2.679 Z0.2179
G1 Y2.804 Z0.2441
G1 Y2.829 Z0.2483
G1 Y2.854 Z0.2521
G1 Y2.879 Z0.2557
G1 Y3.004 Z0.2737
G1 Y3.029 Z0.2764
G1 Y3.204 Z0.2913
G1 Y3.229 Z0.2926
G1 Y3.354 Z0.2959
G1 Y3.379 Z0.2965
G1 Y3.404 Z0.2971
G1 Y3.454
G1 Y3.479 Z0.2973
G1 Y3.579
G1 Y3.604 Z0.2975
G1 Y3.804
G1 Y3.829 Z0.2967
G1 Y3.954 Z0.2925
G1 Y3.979 Z0.2916
G1 Y4.004 Z0.2908
G1 Y4.029 Z0.2886
G1 Y4.129 Z0.2791
G1 Y4.154 Z0.2767
G1 Y4.204 Z0.272
G1 Y4.229 Z0.2682
G1 Y4.279 Z0.2604
G1 Y4.304 Z0.2565
G1 Y4.379 Z0.2448
G1 Y4.404 Z0.2409
G1 Y4.429 Z0.2355
G1 Y4.504 Z0.2192
G1 Y4.529 Z0.2136
G1 Y4.554 Z0.2079
G1 Y4.579 Z0.2023
G1 Y4.604 Z0.1962
G1 Y4.704 Z0.1671
G1 Y4.729 Z0.1598
G1 Y4.779 Z0.1452
G1 Y4.804 Z0.1367
G1 Y4.854 Z0.1189
G1 Y4.879 Z0.1099
G1 Y4.954 Z0.0831
G1 Y4.979 Z0.0738
G1 Y5.004 Z0.0632
G1 Y5.079 Z0.0314
G1 Y5.104 Z0.0204
G1 Y5.129 Z0.0091
G1 Y5.154 Z-0.0023
G1 Y5.179 Z-0.0025
G1 Y5.1941
G1 F30.0 X3.4851 Y5.2696
G1 F300.0 Y5.254
G1 Y5.229 Z-0.0023
G1 Y5.204 Z0.0091
G1 Y5.179 Z0.0205
G1 Y5.079 Z0.0659
G1 Y5.054 Z0.0771
G1 Y5.029 Z0.0866
G1 Y5.004 Z0.0956
G1 Y4.929 Z0.1224
G1 Y4.904 Z0.1314
G1 Y4.879 Z0.1403
G1 Y4.854 Z0.1481
G1 Y4.779 Z0.17
G1 Y4.754 Z0.1773
G1 Y4.704 Z0.1919
G1 Y4.679 Z0.1989
G1 Y4.629 Z0.2103
G1 Y4.604 Z0.2159
G1 Y4.504 Z0.2386
G1 Y4.479 Z0.2433
G1 Y4.454 Z0.2474
G1 Y4.354 Z0.2629
G1 Y4.329 Z0.2668
G1 Y4.304 Z0.2707
G1 Y4.279 Z0.2735
G1 Y4.204 Z0.2806
G1 Y4.179 Z0.283
G1 Y4.104 Z0.2901
G1 Y4.079 Z0.2913
G1 Y3.929 Z0.2964
G1 Y3.904 Z0.2973
G1 Y3.854
G1 Y3.829 Z0.2975
G1 Y3.579
G1 Y3.554 Z0.2973
G1 Y3.504
G1 Y3.329 Z0.2928
G1 Y3.304 Z0.292
G1 Y3.129 Z0.2771
G1 Y3.104 Z0.2749
G1 Y2.904 Z0.2461
G1 Y2.879 Z0.2411
G1 Y2.829 Z0.231
G1 Y2.804 Z0.2259
G1 Y2.729 Z0.2101
G1 Y2.704 Z0.2049
G1 Y2.679 Z0.1982
G1 Y2.529 Z0.1577
G1 Y2.504 Z0.1509
G1 Y2.329 Z0.0932
G1 Y2.304 Z0.0846
G1 Y2.129 Z0.0141
G1 Y2.104 Z-0.0025
G1 Y2.0752
G1 F30.0 X3.5601 Y2.1575
G1 F300.0 Y2.179
G1 Y2.204 Z0.0112
G1 Y2.254 Z0.0314
G1 Y2.279 Z0.0412
G1 Y2.354 Z0.0704
G1 Y2.379 Z0.0801
G1 Y2.404 Z0.0893
G1 Y2.579 Z0.147
G1 Y2.604 Z0.1545
G1 Y2.754 Z0.195
G1 Y2.779 Z0.2016
G1 Y2.804 Z0.2073
G1 Y2.929 Z0.2326
G1 Y2.979 Z0.2428
G1 Y3.004 Z0.2473
G1 Y3.079 Z0.2581
G1 Y3.179 Z0.2725
G1 Y3.204 Z0.2757
G1 Y3.254 Z0.2799
G1 Y3.279 Z0.282
G1 Y3.379 Z0.2904
G1 Y3.404 Z0.2924
G1 Y3.604 Z0.2975
G1 Y3.804
G1 Y3.829 Z0.2973
G1 Y3.929
G1 Y3.954 Z0.2972
G1 Y3.979
G1 Y4.004 Z0.297
G1 Y4.179 Z0.291
G1 Y4.204 Z0.2893
G1 Y4.254 Z0.2845
G1 Y4.379 Z0.2727
G1 Y4.404 Z0.2693
G1 Y4.529 Z0.249
G1 Y4.554 Z0.245
G1 Y4.579 Z0.2409
G1 Y4.654 Z0.2239
G1 Y4.679 Z0.2182
G1 Y4.754 Z0.2012
G1 Y4.779 Z0.1948
G1 Y4.804 Z0.1875
G1 Y4.829 Z0.1802
G1 Y4.954 Z0.1437
G1 Y4.979 Z0.1346
G1 Y5.079 Z0.0963
G1 Y5.104 Z0.0868
G1 Y5.129 Z0.0772
G1 Y5.154 Z0.066
G1 Y5.229 Z0.032
G1 Y5.254 Z0.0206
G1 Y5.304 Z-0.0023
G1 Y5.329 Z-0.0025
G1 Y5.3428
G1 F30.0 X3.6351 Y5.4137
G1 F300.0 Y5.404
G1 Y5.379 Z-0.0022
G1 Y5.279 Z0.0434
G1 Y5.254 Z0.0547
G1 Y5.229 Z0.066
G1 Y5.204 Z0.0772
G1 Y5.154 Z0.0965
G1 Y5.129 Z0.1061
G1 Y5.054 Z0.1347
G1 Y5.029 Z0.1441
G1 Y5.004 Z0.152
G1 Y4.979 Z0.1598
G1 Y4.929 Z0.1754
G1 Y4.904 Z0.1832
G1 Y4.879 Z0.1905
G1 Y4.854 Z0.1978
G1 Y4.829 Z0.2035
G1 Y4.729 Z0.2262
G1 Y4.704 Z0.2319
G1 Y4.679 Z0.2375
G1 Y4.654 Z0.2426
G1 Y4.579 Z0.2548
G1 Y4.479 Z0.271
G1 Y4.454 Z0.2738
G1 Y4.429 Z0.2763
G1 Y4.354 Z0.2837
G1 Y4.329 Z0.2861
G1 Y4.304 Z0.2884
G1 Y4.279 Z0.2907
G1 Y4.104 Z0.2967
G1 Y4.079 Z0.2974
G1 Y3.879
G1 Y3.854 Z0.2973
G1 Y3.704
G1 Y3.679 Z0.297
G1 Y3.504 Z0.2925
G1 Y3.479 Z0.291
G1 Y3.304 Z0.2763
G1 Y3.279 Z0.2735
G1 Y3.229 Z0.2664
G1 Y3.204 Z0.2628
G1 Y3.129 Z0.252
G1 Y3.104 Z0.2484
G1 Y3.079 Z0.2444
G1 Y2.979 Z0.2242
G1 Y2.904 Z0.209
G1 Y2.879 Z0.2037
G1 Y2.729 Z0.1646
G1 Y2.704 Z0.1581
G1 Y2.679 Z0.1513
G1 Y2.654 Z0.1431
G1 Y2.504 Z0.0936
G1 Y2.479 Z0.0853
G1 Y2.404 Z0.0561
G1 Y2.304 Z0.0172
G1 Y2.279 Z-0.0025
G1 Y2.2397
G1 F30.0 X3.7101 Y2.3268
G1 F300.0 Y2.354
G1 Y2.379 Z0.0126
G1 Y2.454 Z0.0417
G1 Y2.554 Z0.0807
G1 Y2.579 Z0.0897
G1 Y2.654 Z0.1144
G1 Y2.679 Z0.1225
G1 Y2.754 Z0.1463
G1 Y2.779 Z0.1537
G1 Y2.954 Z0.1993
G1 Y2.979 Z0.2056
G1 Y3.029 Z0.2157
G1 Y3.154 Z0.241
G1 Y3.179 Z0.246
G1 Y3.379 Z0.2745
G1 Y3.404 Z0.2768
G1 Y3.579 Z0.2916
G1 Y3.604 Z0.2927
G1 Y3.654 Z0.294
G1 Y3.679 Z0.2946
G1 Y3.779 Z0.2972
G1 Y3.829
G1 Y3.854 Z0.2974
G1 Y4.104
G1 Y4.129 Z0.2972
G1 Y4.179
G1 Y4.279 Z0.2938
G1 Y4.304 Z0.293
G1 Y4.354 Z0.2912
G1 Y4.379 Z0.2896
G1 Y4.479 Z0.2798
G1 Y4.504 Z0.2773
G1 Y4.554 Z0.2723
G1 Y4.579 Z0.2686
G1 Y4.629 Z0.2605
G1 Y4.729 Z0.2442
G1 Y4.754 Z0.2399
G1 Y4.779 Z0.2342
G1 Y4.829 Z0.2229
G1 Y4.854 Z0.217
G1 Y4.904 Z0.2049
G1 Y4.929 Z0.1988
G1 Y4.954 Z0.1912
G1 Y5.029 Z0.1677
G1 Y5.054 Z0.1599
G1 Y5.104 Z0.1442
G1 Y5.129 Z0.1349
G1 Y5.179 Z0.1158
G1 Y5.204 Z0.1062
G1 Y5.279 Z0.0773
G1 Y5.304 Z0.0661
G1 Y5.329 Z0.0548
G1 Y5.454 Z-0.0022
G1 Y5.479 Z-0.0025
G1 Y5.4824
G1 F30.0 X3.7851 Y5.5492
G1 F300.0 Y5.529
G1 Y5.504 Z0.0046
G1 Y5.479 Z0.0172
G1 Y5.404 Z0.0547
G1 Y5.379 Z0.0662
G1 Y5.354 Z0.0774
G1 Y5.229 Z0.1255
G1 Y5.204 Z0.135
G1 Y5.179 Z0.1444
G1 Y5.104 Z0.1679
G1 Y5.079 Z0.1757
G1 Y5.029 Z0.1913
G1 Y5.004 Z0.1989
G1 Y4.954 Z0.2111
G1 Y4.854 Z0.2354
G1 Y4.829 Z0.2413
G1 Y4.804 Z0.2457
G1 Y4.779 Z0.25
G1 Y4.679 Z0.2662
G1 Y4.654 Z0.2703
G1 Y4.629 Z0.2734
G1 Y4.554 Z0.2808
G1 Y4.529 Z0.2832
G1 Y4.454 Z0.2906
G1 Y4.429 Z0.2916
G1 Y4.404 Z0.2924
G1 Y4.279 Z0.2969
G1 Y4.254 Z0.2973
G1 Y4.104
G1 Y4.079 Z0.2974
G1 Y3.879
G1 Y3.704 Z0.2929
G1 Y3.679 Z0.2922
G1 Y3.629 Z0.2879
G1 Y3.604 Z0.2858
G1 Y3.479 Z0.2753
G1 Y3.454 Z0.2719
G1 Y3.279 Z0.2469
G1 Y3.254 Z0.2424
G1 Y3.129 Z0.2173
G1 Y3.104 Z0.2123
G1 Y3.079 Z0.2072
G1 Y3.054 Z0.2015
G1 Y2.879 Z0.1559
G1 Y2.854 Z0.1489
G1 Y2.679 Z0.0933
G1 Y2.654 Z0.0852
G1 Y2.629 Z0.0758
G1 Y2.604 Z0.0663
G1 Y2.504 Z0.0274
G1 Y2.479 Z0.0177
G1 Y2.454 Z-0.0025
G1 Y2.4146
G1 F30.0 X3.8601 Y2.5031
G1 F300.0 Y2.529
G1 Y2.554 Z0.0131
G1 Y2.579 Z0.0226
G1 Y2.704 Z0.0695
G1 Y2.729 Z0.0788
G1 Y2.754 Z0.0879
G1 Y2.929 Z0.1436
G1 Y2.954 Z0.1515
G1 Y3.054 Z0.1775
G1 Y3.079 Z0.184
G1 Y3.154 Z0.2033
G1 Y3.179 Z0.2086
G1 Y3.354 Z0.2437
G1 Y3.379 Z0.2479
G1 Y3.554 Z0.2728
G1 Y3.579 Z0.2759
G1 Y3.754 Z0.2908
G1 Y3.779 Z0.2925
G1 Y3.954 Z0.297
G1 Y3.979 Z0.2972
G1 Y4.004
G1 Y4.029 Z0.2973
G1 Y4.279
G1 Y4.304
G1 Y4.354
G1 Y4.454 Z0.2937
G1 Y4.529 Z0.291
G1 Y4.554 Z0.2892
G1 Y4.579 Z0.2867
G1 Y4.604 Z0.2843
G1 Y4.704 Z0.2744
G1 Y4.729 Z0.2719
G1 Y4.754 Z0.2676
G1 Y4.854 Z0.2502
G1 Y4.879 Z0.2458
G1 Y4.904 Z0.2414
G1 Y4.929 Z0.2356
G1 Y4.979 Z0.2234
G1 Y5.004 Z0.2173
G1 Y5.079 Z0.1991
G1 Y5.104 Z0.1915
G1 Y5.129 Z0.1837
G1 Y5.154 Z0.1759
G1 Y5.254 Z0.1445
G1 Y5.279 Z0.1352
G1 Y5.304 Z0.1255
G1 Y5.329 Z0.1159
G1 Y5.404 Z0.0843
G1 Y5.429 Z0.0731
G1 Y5.529 Z0.0231
G1 Y5.554 Z0.0105
G1 Y5.579 Z-0.0021
G1 Y5.604 Z-0.0025
G1 Y5.6139
G1 F30.0 X3.9351 Y5.6768
G1 F300.0 Y5.654
G1 Y5.629 Z0.0038
G1 Y5.579 Z0.029
G1 Y5.554 Z0.0415
G1 Y5.504 Z0.0666
G1 Y5.479 Z0.0787
G1 Y5.454 Z0.0893
G1 Y5.429 Z0.0999
G1 Y5.329 Z0.1421
G1 Y5.304 Z0.151
G1 Y5.279 Z0.1596
G1 Y5.254 Z0.1681
G1 Y5.179 Z0.1917
G1 Y5.154 Z0.1992
G1 Y5.054 Z0.2236
G1 Y5.029 Z0.2297
G1 Y5.004 Z0.2357
G1 Y4.979 Z0.2416
G1 Y4.929 Z0.2503
G1 Y4.904 Z0.2547
G1 Y4.829 Z0.2677
G1 Y4.804 Z0.272
G1 Y4.779 Z0.2746
G1 Y4.754 Z0.2773
G1 Y4.679 Z0.2852
G1 Y4.654 Z0.2878
G1 Y4.629 Z0.2902
G1 Y4.604 Z0.2914
G1 Y4.454 Z0.2967
G1 Y4.429 Z0.2974
G1 Y4.229
G1 Y4.204 Z0.2973
G1 Y4.054
G1 Y4.029 Z0.2966
G1 Y3.879 Z0.2927
G1 Y3.854 Z0.2916
G1 Y3.679 Z0.2766
G1 Y3.654 Z0.274
G1 Y3.629 Z0.2704
G1 Y3.529 Z0.256
G1 Y3.504 Z0.2524
G1 Y3.479 Z0.2488
G1 Y3.454 Z0.245
G1 Y3.254 Z0.205
G1 Y3.229 Z0.1986
G1 Y3.054 Z0.1535
G1 Y3.029 Z0.1461
G1 Y3.004 Z0.1382
G1 Y2.854 Z0.0905
G1 Y2.829 Z0.0819
G1 Y2.754 Z0.0538
G1 Y2.654 Z0.0162
G1 Y2.629 Z-0.0025
G1 Y2.5923
G1 F30.0 X4.0101 Y2.6822
G1 F300.0 Y2.704
G1 Y2.729 Z0.0099
G1 Y2.804 Z0.0381
G1 Y2.929 Z0.085
G1 Y2.954 Z0.0931
G1 Y2.979 Z0.101
G1 Y3.129 Z0.1482
G1 Y3.154 Z0.1552
G1 Y3.329 Z0.2003
G1 Y3.354 Z0.2063
G1 Y3.454 Z0.2263
G1 Y3.479 Z0.2314
G1 Y3.529 Z0.2415
G1 Y3.554 Z0.2464
G1 Y3.679 Z0.2645
G1 Y3.729 Z0.2717
G1 Y3.754 Z0.2752
G1 Y3.929 Z0.2902
G1 Y3.954 Z0.2923
G1 Y3.979 Z0.2929
G1 Y4.004 Z0.2936
G1 Y4.104 Z0.2963
G1 Y4.129 Z0.297
G1 Y4.154 Z0.2973
G1 Y4.179
G1 Y4.204 Z0.2974
G1 Y4.454
G1 Y4.479 Z0.2971
G1 Y4.529
G1 Y4.604 Z0.2944
G1 Y4.679 Z0.2916
G1 Y4.704 Z0.2906
G1 Y4.804 Z0.28
G1 Y4.829 Z0.2774
G1 Y4.879 Z0.2721
G1 Y4.904 Z0.2679
G1 Y4.929 Z0.2635
G1 Y4.954 Z0.2592
G1 Y5.054 Z0.2417
G1 Y5.079 Z0.2359
G1 Y5.104 Z0.2298
G1 Y5.179 Z0.2115
G1 Y5.204 Z0.205
G1 Y5.229 Z0.1982
G1 Y5.254 Z0.1897
G1 Y5.329 Z0.1638
G1 Y5.354 Z0.1552
G1 Y5.379 Z0.1465
G1 Y5.404 Z0.1366
G1 Y5.454 Z0.1155
G1 Y5.479 Z0.105
G1 Y5.529 Z0.0837
G1 Y5.554 Z0.0725
G1 Y5.604 Z0.0475
G1 Y5.679 Z0.0096
G1 Y5.704 Z-0.0025
G1 Y5.7379
G1 F30.0 X4.0851 Y5.7971
G1 F300.0 Y5.779
G1 Y5.754 Z0.0029
G1 Y5.654 Z0.0533
G1 Y5.629 Z0.0659
G1 Y5.604 Z0.0781
G1 Y5.529 Z0.11
G1 Y5.504 Z0.1206
G1 Y5.454 Z0.1417
G1 Y5.429 Z0.1507
G1 Y5.404 Z0.1594
G1 Y5.379 Z0.168
G1 Y5.304 Z0.1939
G1 Y5.279 Z0.2015
G1 Y5.254 Z0.2083
G1 Y5.154 Z0.2351
G1 Y5.129 Z0.2416
G1 Y5.104 Z0.2462
G1 Y5.004 Z0.2636
G1 Y4.979 Z0.268
G1 Y4.954 Z0.2722
G1 Y4.854 Z0.2828
G1 Y4.779 Z0.2907
G1 Y4.729 Z0.2926
G1 Y4.704 Z0.2935
G1 Y4.604 Z0.2973
G1 Y4.454
G1 Y4.429 Z0.2974
G1 Y4.229
G1 Y4.154 Z0.2954
G1 Y4.054 Z0.2926
G1 Y4.029 Z0.2913
G1 Y4.004 Z0.289
G1 Y3.954 Z0.2846
G1 Y3.929 Z0.2824
G1 Y3.854 Z0.276
G1 Y3.829 Z0.2729
G1 Y3.729 Z0.2585
G1 Y3.654 Z0.2476
G1 Y3.629 Z0.2433
G1 Y3.579 Z0.2331
G1 Y3.454 Z0.2077
G1 Y3.429 Z0.2021
G1 Y3.404 Z0.1956
G1 Y3.254 Z0.1569
G1 Y3.229 Z0.1503
G1 Y3.029 Z0.0874
G1 Y3.004 Z0.0783
G1 Y2.929 Z0.0505
G1 Y2.904 Z0.0411
G1 Y2.854 Z0.0224
G1 Y2.829 Z0.013
G1 Y2.804 Z-0.0025
G1 Y2.7729
G1 F30.0 X4.1601 Y2.8643
G1 F300.0 Y2.904
G1 Y2.929 Z0.0158
G1 Y3.104 Z0.0808
G1 Y3.129 Z0.0895
G1 Y3.304 Z0.1445
G1 Y3.329 Z0.1522
G1 Y3.354 Z0.1587
G1 Y3.379 Z0.1651
G1 Y3.529 Z0.2043
G1 Y3.554 Z0.2095
G1 Y3.629 Z0.2247
G1 Y3.729 Z0.2451
G1 Y3.754 Z0.2489
G1 Y3.779 Z0.2525
G1 Y3.879 Z0.267
G1 Y3.904 Z0.2707
G1 Y3.929 Z0.2745
G1 Y3.954 Z0.277
G1 Y4.054 Z0.2859
G1 Y4.104 Z0.2903
G1 Y4.129 Z0.2924
G1 Y4.304 Z0.2971
G1 Y4.329
G1 Y4.354
G1 Y4.379 Z0.2973
G1 Y4.454
G1 Y4.479 Z0.2974
G1 Y4.679
G1 Y4.754 Z0.2945
G1 Y4.779 Z0.2936
G1 Y4.854 Z0.2907
G1 Y4.879 Z0.2881
G1 Y4.904 Z0.2855
G1 Y5.029 Z0.2722
G1 Y5.054 Z0.268
G1 Y5.154 Z0.2488
G1 Y5.179 Z0.2439
G1 Y5.204 Z0.2384
G1 Y5.279 Z0.2183
G1 Y5.304 Z0.2116
G1 Y5.329 Z0.2048
G1 Y5.354 Z0.1981
G1 Y5.404 Z0.1809
G1 Y5.429 Z0.1722
G1 Y5.504 Z0.1462
G1 Y5.529 Z0.1363
G1 Y5.554 Z0.1257
G1 Y5.654 Z0.0832
G1 Y5.679 Z0.0718
G1 Y5.704 Z0.0592
G1 Y5.729 Z0.0456
G1 Y5.779 Z0.0182
G1 Y5.804 Z0.0045
G1 Y5.829 Z-0.0025
G1 Y5.8509
G1 F30.0 X4.2351 Y5.9027
G1 F300.0 Y5.879
G1 Y5.854 Z0.0042
G1 Y5.829 Z0.018
G1 Y5.804 Z0.0317
G1 Y5.729 Z0.0728
G1 Y5.704 Z0.0849
G1 Y5.679 Z0.0965
G1 Y5.629 Z0.1196
G1 Y5.604 Z0.1307
G1 Y5.579 Z0.1413
G1 Y5.554 Z0.1504
G1 Y5.454 Z0.1851
G1 Y5.429 Z0.1937
G1 Y5.404 Z0.2014
G1 Y5.329 Z0.2216
G1 Y5.304 Z0.2283
G1 Y5.279 Z0.235
G1 Y5.254 Z0.2415
G1 Y5.204 Z0.2512
G1 Y5.179 Z0.256
G1 Y5.104 Z0.2704
G1 Y5.079 Z0.2739
G1 Y5.054 Z0.2768
G1 Y4.979 Z0.2855
G1 Y4.954 Z0.2882
G1 Y4.929 Z0.2908
G1 Y4.804 Z0.2955
G1 Y4.754 Z0.2974
G1 Y4.554
G1 Y4.529
G1 Y4.454
G1 Y4.429 Z0.2973
G1 Y4.404
G1 Y4.379 Z0.2969
G1 Y4.354 Z0.2962
G1 Y4.329 Z0.2955
G1 Y4.229 Z0.2928
G1 Y4.204 Z0.2916
G1 Y4.104 Z0.2827
G1 Y4.029 Z0.276
G1 Y4.004 Z0.2729
G1 Y3.979 Z0.2691
G1 Y3.954 Z0.2654
G1 Y3.829 Z0.2465
G1 Y3.804 Z0.2417
G1 Y3.679 Z0.2163
G1 Y3.629 Z0.2062
G1 Y3.604 Z0.2001
G1 Y3.429 Z0.1543
G1 Y3.404 Z0.147
G1 Y3.329 Z0.123
G1 Y3.304 Z0.1152
G1 Y3.229 Z0.0916
G1 Y3.204 Z0.0833
G1 Y3.004 Z0.009
G1 Y2.979 Z-0.0025
G1 Y2.9564
G1 F30.0 X4.3101 Y3.0493
G1 F300.0 Y3.079
G1 Y3.104 Z0.0115
G1 Y3.279 Z0.0765
G1 Y3.304 Z0.0859
G1 Y3.329 Z0.0939
G1 Y3.504 Z0.1498
G1 Y3.529 Z0.1566
G1 Y3.704 Z0.2024
G1 Y3.729 Z0.2079
G1 Y3.754 Z0.213
G1 Y3.779 Z0.2181
G1 Y3.879 Z0.2393
G1 Y3.904 Z0.2446
G1 Y3.929 Z0.2487
G1 Y4.004 Z0.26
G1 Y4.029 Z0.2638
G1 Y4.104 Z0.2751
G1 Y4.129 Z0.2773
G1 Y4.154 Z0.2795
G1 Y4.279 Z0.2907
G1 Y4.304 Z0.2925
G1 Y4.429 Z0.2961
G1 Y4.454 Z0.2968
G1 Y4.479 Z0.2974
G1 Y4.504
G1 Y4.529
G1 Y4.604
G1 Y4.629 Z0.2975
G1 Y4.829
G1 Y4.854 Z0.2965
G1 Y4.904 Z0.2946
G1 Y4.929 Z0.2936
G1 Y4.979 Z0.2915
G1 Y5.004 Z0.2899
G1 Y5.104 Z0.2783
G1 Y5.154 Z0.2724
G1 Y5.179 Z0.268
G1 Y5.229 Z0.2584
G1 Y5.304 Z0.2439
G1 Y5.329 Z0.2383
G1 Y5.354 Z0.2316
G1 Y5.379 Z0.2249
G1 Y5.454 Z0.2047
G1 Y5.479 Z0.1979
G1 Y5.504 Z0.1892
G1 Y5.529 Z0.1805
G1 Y5.604 Z0.1522
G1 Y5.629 Z0.1426
G1 Y5.704 Z0.108
G1 Y5.729 Z0.0964
G1 Y5.754 Z0.0848
G1 Y5.779 Z0.0726
G1 Y5.829 Z0.0453
G1 Y5.854 Z0.0315
G1 Y5.904 Z0.004
G1 Y5.929 Z-0.0025
G1 Y5.9524
G1 F30.0 X4.3851 Y6.0003
G1 F300.0 Y5.979
G1 Y5.954 Z0.0037
G1 Y5.879 Z0.0451
G1 Y5.854 Z0.0588
G1 Y5.829 Z0.0725
G1 Y5.804 Z0.0847
G1 Y5.754 Z0.1079
G1 Y5.679 Z0.1426
G1 Y5.654 Z0.1522
G1 Y5.629 Z0.1616
G1 Y5.554 Z0.1899
G1 Y5.529 Z0.1991
G1 Y5.504 Z0.2065
G1 Y5.454 Z0.2211
G1 Y5.429 Z0.2282
G1 Y5.404 Z0.2349
G1 Y5.379 Z0.2415
G1 Y5.279 Z0.2608
G1 Y5.254 Z0.2656
G1 Y5.229 Z0.2704
G1 Y5.204 Z0.2739
G1 Y5.154 Z0.2797
G1 Y5.129 Z0.2827
G1 Y5.079 Z0.2885
G1 Y5.054 Z0.2909
G1 Y5.004 Z0.2931
G1 Y4.904 Z0.2973
G1 Y4.879
G1 Y4.854 Z0.2975
G1 Y4.604
G1 Y4.579 Z0.2974
G1 Y4.554
G1 Y4.529 Z0.2968
G1 Y4.479 Z0.2954
G1 Y4.379 Z0.2925
G1 Y4.354 Z0.2905
G1 Y4.329 Z0.2881
G1 Y4.254 Z0.2809
G1 Y4.229 Z0.2786
G1 Y4.204 Z0.2763
G1 Y4.179 Z0.2735
G1 Y4.054 Z0.2546
G1 Y4.004 Z0.2471
G1 Y3.979 Z0.2423
G1 Y3.929 Z0.2317
G1 Y3.904 Z0.2264
G1 Y3.804 Z0.2053
G1 Y3.779 Z0.1986
G1 Y3.729 Z0.185
G1 Y3.704 Z0.1785
G1 Y3.604 Z0.1523
G1 Y3.579 Z0.1446
G1 Y3.404 Z0.0887
G1 Y3.379 Z0.0797
G1 Y3.354 Z0.0703
G1 Y3.254 Z0.0327
G1 Y3.229 Z0.0233
G1 Y3.204 Z0.014
G1 Y3.179 Z-0.0025
G1 Y3.1429
G1 F30.0 X4.4601 Y3.2377
G1 F300.0 Y3.279
G1 Y3.304 Z0.0171
G1 Y3.404 Z0.0548
G1 Y3.479 Z0.083
G1 Y3.504 Z0.0915
G1 Y3.654 Z0.1394
G1 Y3.679 Z0.1474
G1 Y3.704 Z0.1549
G1 Y3.829 Z0.1889
G1 Y3.879 Z0.2025
G1 Y3.904 Z0.2083
G1 Y3.954 Z0.2189
G1 Y3.979 Z0.2242
G1 Y4.079 Z0.2453
G1 Y4.104 Z0.2492
G1 Y4.154 Z0.2568
G1 Y4.179 Z0.2606
G1 Y4.229 Z0.2687
G1 Y4.254 Z0.2727
G1 Y4.279 Z0.2761
G1 Y4.379 Z0.2856
G1 Y4.429 Z0.2904
G1 Y4.454 Z0.2924
G1 Y4.504 Z0.2939
G1 Y4.604 Z0.2968
G1 Y4.629 Z0.2975
G1 Y4.829
G1 Y4.854 Z0.2973
G1 Y4.954
G1 Y4.979 Z0.2967
G1 Y5.029 Z0.2946
G1 Y5.054 Z0.2936
G1 Y5.104 Z0.2915
G1 Y5.129 Z0.29
G1 Y5.154 Z0.2871
G1 Y5.179 Z0.2842
G1 Y5.279 Z0.2724
G1 Y5.304 Z0.268
G1 Y5.329 Z0.2632
G1 Y5.354 Z0.2583
G1 Y5.404 Z0.2478
G1 Y5.429 Z0.2426
G1 Y5.454 Z0.2358
G1 Y5.529 Z0.2138
G1 Y5.554 Z0.2065
G1 Y5.579 Z0.1991
G1 Y5.604 Z0.1899
G1 Y5.654 Z0.1711
G1 Y5.679 Z0.1616
G1 Y5.704 Z0.1521
G1 Y5.729 Z0.1425
G1 Y5.779 Z0.1194
G1 Y5.854 Z0.0845
G1 Y5.879 Z0.0723
G1 Y5.904 Z0.0586
G1 Y6.004 Z0.0035
G1 Y6.029 Z-0.0025
G1 Y6.0462
G1 F30.0 X4.5351 Y6.0904
G1 F300.0 Y6.079
G1 Y6.054 Z0.0001
G1 Y6.029 Z0.0147
G1 Y5.954 Z0.0583
G1 Y5.929 Z0.0721
G1 Y5.904 Z0.0844
G1 Y5.804 Z0.1309
G1 Y5.779 Z0.1424
G1 Y5.754 Z0.1521
G1 Y5.704 Z0.1711
G1 Y5.679 Z0.1805
G1 Y5.654 Z0.19
G1 Y5.629 Z0.1991
G1 Y5.579 Z0.2139
G1 Y5.554 Z0.2212
G1 Y5.504 Z0.2359
G1 Y5.479 Z0.2426
G1 Y5.454 Z0.2479
G1 Y5.429 Z0.2531
G1 Y5.354 Z0.2689
G1 Y5.329 Z0.2733
G1 Y5.304 Z0.2764
G1 Y5.279 Z0.2796
G1 Y5.254 Z0.2827
G1 Y5.204 Z0.2886
G1 Y5.179 Z0.291
G1 Y5.079 Z0.2952
G1 Y5.029 Z0.2973
G1 Y4.829
G1 Y4.804
G1 Y4.704
G1 Y4.679 Z0.2969
G1 Y4.654 Z0.2961
G1 Y4.629 Z0.2953
G1 Y4.554 Z0.2931
G1 Y4.529 Z0.2924
G1 Y4.504 Z0.2903
G1 Y4.429 Z0.2831
G1 Y4.404 Z0.2807
G1 Y4.354 Z0.2759
G1 Y4.329 Z0.2725
G1 Y4.304 Z0.2685
G1 Y4.279 Z0.2644
G1 Y4.179 Z0.2483
G1 Y4.154 Z0.2436
G1 Y4.129 Z0.238
G1 Y4.104 Z0.2325
G1 Y4.029 Z0.2166
G1 Y4.004 Z0.2113
G1 Y3.979 Z0.206
G1 Y3.954 Z0.1996
G1 Y3.879 Z0.1792
G1 Y3.779 Z0.152
G1 Y3.754 Z0.1438
G1 Y3.629 Z0.1022
G1 Y3.604 Z0.0942
G1 Y3.579 Z0.0863
G1 Y3.554 Z0.0769
G1 Y3.454 Z0.0392
G1 Y3.379 Z0.011
G1 Y3.354 Z-0.0025
G1 Y3.3341
G1 F30.0 X4.6101 Y3.4274
G1 F300.0 Y3.454
G1 Y3.479 Z0.0142
G1 Y3.504 Z0.0236
G1 Y3.554 Z0.0425
G1 Y3.579 Z0.0519
G1 Y3.629 Z0.0715
G1 Y3.654 Z0.0813
G1 Y3.679 Z0.0904
G1 Y3.854 Z0.1486
G1 Y3.879 Z0.1559
G1 Y4.054 Z0.2035
G1 Y4.079 Z0.2093
G1 Y4.179 Z0.232
G1 Y4.204 Z0.2376
G1 Y4.229 Z0.2433
G1 Y4.254 Z0.2481
G1 Y4.304 Z0.2561
G1 Y4.329 Z0.2602
G1 Y4.404 Z0.2723
G1 Y4.429 Z0.2758
G1 Y4.454 Z0.2782
G1 Y4.554 Z0.2878
G1 Y4.579 Z0.2902
G1 Y4.604 Z0.2925
G1 Y4.704 Z0.2957
G1 Y4.729 Z0.2965
G1 Y4.754 Z0.2973
G1 Y4.779
G1 Y4.804
G1 Y5.054
G1 Y5.079 Z0.2972
G1 Y5.104 Z0.2968
G1 Y5.179 Z0.2936
G1 Y5.204 Z0.2925
G1 Y5.229 Z0.2913
G1 Y5.254 Z0.2893
G1 Y5.329 Z0.2797
G1 Y5.354 Z0.2765
G1 Y5.379 Z0.2733
G1 Y5.404 Z0.269
G1 Y5.454 Z0.2585
G1 Y5.479 Z0.2532
G1 Y5.529 Z0.2426
G1 Y5.554 Z0.2359
G1 Y5.579 Z0.2286
G1 Y5.604 Z0.2212
G1 Y5.679 Z0.1991
G1 Y5.704 Z0.19
G1 Y5.729 Z0.1805
G1 Y5.804 Z0.152
G1 Y5.829 Z0.1424
G1 Y5.854 Z0.1304
G1 Y5.929 Z0.0936
G1 Y5.954 Z0.0813
G1 Y5.979 Z0.0676
G1 Y6.054 Z0.024
G1 Y6.079 Z0.0094
G1 Y6.104 Z-0.0025
G1 Y6.1329
G1 F30.0 X4.6851 Y6.1736
G1 F300.0 Y6.154
G1 Y6.129 Z0.004
G1 Y6.079 Z0.0333
G1 Y6.054 Z0.0479
G1 Y6.029 Z0.0624
G1 Y6.004 Z0.0769
G1 Y5.979 Z0.0892
G1 Y5.954 Z0.1016
G1 Y5.879 Z0.1384
G1 Y5.854 Z0.1493
G1 Y5.829 Z0.1594
G1 Y5.754 Z0.1895
G1 Y5.729 Z0.1991
G1 Y5.629 Z0.2286
G1 Y5.604 Z0.236
G1 Y5.579 Z0.2427
G1 Y5.504 Z0.2585
G1 Y5.479 Z0.2638
G1 Y5.454 Z0.269
G1 Y5.429 Z0.2733
G1 Y5.379 Z0.2797
G1 Y5.354 Z0.2829
G1 Y5.304 Z0.2893
G1 Y5.279 Z0.2913
G1 Y5.254 Z0.2925
G1 Y5.154 Z0.2971
G1 Y5.129
G1 Y5.104 Z0.2972
G1 Y5.054
G1 Y5.029 Z0.2973
G1 Y4.829
G1 Y4.804 Z0.2968
G1 Y4.754 Z0.2952
G1 Y4.679 Z0.2928
G1 Y4.654 Z0.2915
G1 Y4.629 Z0.2888
G1 Y4.604 Z0.2862
G1 Y4.529 Z0.2783
G1 Y4.504 Z0.2757
G1 Y4.479 Z0.2721
G1 Y4.379 Z0.2559
G1 Y4.354 Z0.2519
G1 Y4.329 Z0.2479
G1 Y4.304 Z0.243
G1 Y4.229 Z0.226
G1 Y4.154 Z0.209
G1 Y4.129 Z0.203
G1 Y4.104 Z0.1957
G1 Y4.029 Z0.1738
G1 Y4.004 Z0.1666
G1 Y3.954 Z0.1529
G1 Y3.929 Z0.145
G1 Y3.754 Z0.0868
G1 Y3.729 Z0.0771
G1 Y3.704 Z0.0673
G1 Y3.679 Z0.0575
G1 Y3.579 Z0.0183
G1 Y3.554 Z-0.0025
G1 Y3.5178
G1 F30.0 X4.7601 Y3.6055
G1 F300.0 Y3.629
G1 Y3.654 Z0.0141
G1 Y3.729 Z0.0435
G1 Y3.829 Z0.0827
G1 Y3.854 Z0.0916
G1 Y3.929 Z0.1165
G1 Y3.954 Z0.1248
G1 Y4.004 Z0.1427
G1 Y4.029 Z0.1515
G1 Y4.129 Z0.1807
G1 Y4.154 Z0.188
G1 Y4.204 Z0.2026
G1 Y4.229 Z0.2087
G1 Y4.254 Z0.2143
G1 Y4.279 Z0.22
G1 Y4.379 Z0.2427
G1 Y4.404 Z0.2476
G1 Y4.429 Z0.2517
G1 Y4.454 Z0.256
G1 Y4.529 Z0.2693
G1 Y4.554 Z0.2738
G1 Y4.579 Z0.2769
G1 Y4.654 Z0.2848
G1 Y4.704 Z0.2901
G1 Y4.729 Z0.2924
G1 Y4.779 Z0.294
G1 Y4.879 Z0.2972
G1 Y5.079
G1 Y5.104 Z0.2971
G1 Y5.204
G1 Y5.279 Z0.2937
G1 Y5.329 Z0.2914
G1 Y5.354 Z0.2894
G1 Y5.379 Z0.2862
G1 Y5.404 Z0.283
G1 Y5.479 Z0.2734
G1 Y5.504 Z0.2691
G1 Y5.529 Z0.2638
G1 Y5.604 Z0.248
G1 Y5.629 Z0.2427
G1 Y5.654 Z0.2355
G1 Y5.729 Z0.2121
G1 Y5.754 Z0.2043
G1 Y5.779 Z0.196
G1 Y5.854 Z0.1659
G1 Y5.879 Z0.1559
G1 Y5.904 Z0.1458
G1 Y5.929 Z0.1341
G1 Y5.979 Z0.1095
G1 Y6.004 Z0.0972
G1 Y6.029 Z0.0848
G1 Y6.054 Z0.0718
G1 Y6.079 Z0.0572
G1 Y6.104 Z0.0426
G1 Y6.179 Z-0.0013
G1 Y6.204 Z-0.0025
G1 Y6.2128
G1 F30.0 X4.8351 Y6.2503
G1 F300.0 Y6.229
G1 Y6.204 Z0.008
G1 Y6.129 Z0.0519
G1 Y6.104 Z0.0665
G1 Y6.079 Z0.0804
G1 Y6.004 Z0.1174
G1 Y5.979 Z0.1297
G1 Y5.954 Z0.142
G1 Y5.929 Z0.1523
G1 Y5.904 Z0.1624
G1 Y5.879 Z0.1725
G1 Y5.829 Z0.1925
G1 Y5.804 Z0.2016
G1 Y5.779 Z0.2094
G1 Y5.754 Z0.2173
G1 Y5.679 Z0.2407
G1 Y5.654 Z0.2464
G1 Y5.629 Z0.252
G1 Y5.554 Z0.2687
G1 Y5.529 Z0.2733
G1 Y5.504 Z0.2766
G1 Y5.429 Z0.2862
G1 Y5.404 Z0.2894
G1 Y5.379 Z0.2914
G1 Y5.304 Z0.2948
G1 Y5.279 Z0.296
G1 Y5.254 Z0.2972
G1 Y5.054
G1 Y5.029 Z0.2971
G1 Y4.979
G1 Y4.954
G1 Y4.929 Z0.2969
G1 Y4.904 Z0.296
G1 Y4.879 Z0.2952
G1 Y4.804 Z0.2928
G1 Y4.779 Z0.2914
G1 Y4.704 Z0.2835
G1 Y4.679 Z0.2808
G1 Y4.629 Z0.2756
G1 Y4.604 Z0.2715
G1 Y4.579 Z0.267
G1 Y4.554 Z0.2625
G1 Y4.479 Z0.2492
G1 Y4.454 Z0.2443
G1 Y4.429 Z0.238
G1 Y4.379 Z0.2255
G1 Y4.354 Z0.2197
G1 Y4.329 Z0.214
G1 Y4.304 Z0.2084
G1 Y4.279 Z0.2022
G1 Y4.179 Z0.173
G1 Y4.129 Z0.1584
G1 Y4.104 Z0.1511
G1 Y4.054 Z0.1333
G1 Y3.929 Z0.0887
G1 Y3.904 Z0.0787
G1 Y3.879 Z0.0687
G1 Y3.779 Z0.0295
G1 Y3.729 Z0.0099
G1 Y3.704 Z-0.0025
G1 Y3.6906
G1 F30.0 X4.9101 Y3.7733
G1 F300.0 Y3.804
G1 Y3.829 Z0.0155
G1 Y3.854 Z0.0256
G1 Y3.954 Z0.0676
G1 Y3.979 Z0.0781
G1 Y4.004 Z0.0882
G1 Y4.079 Z0.115
G1 Y4.179 Z0.1506
G1 Y4.204 Z0.158
G1 Y4.229 Z0.1653
G1 Y4.304 Z0.1872
G1 Y4.329 Z0.1951
G1 Y4.354 Z0.2031
G1 Y4.379 Z0.2097
G1 Y4.454 Z0.2285
G1 Y4.479 Z0.2347
G1 Y4.504 Z0.241
G1 Y4.529 Z0.2469
G1 Y4.579 Z0.2558
G1 Y4.604 Z0.2602
G1 Y4.679 Z0.2736
G1 Y4.704 Z0.2768
G1 Y4.729 Z0.2795
G1 Y4.804 Z0.2874
G1 Y4.829 Z0.2901
G1 Y4.854 Z0.2925
G1 Y4.954 Z0.296
G1 Y4.979 Z0.2969
G1 Y5.004 Z0.2971
G1 Y5.029 Z0.2972
G1 Y5.079
G1 Y5.104
G1 Y5.304
G1 Y5.329 Z0.296
G1 Y5.404 Z0.2926
G1 Y5.429 Z0.2914
G1 Y5.454 Z0.2892
G1 Y5.529 Z0.279
G1 Y5.554 Z0.2756
G1 Y5.579 Z0.2722
G1 Y5.604 Z0.2668
G1 Y5.654 Z0.2557
G1 Y5.679 Z0.2501
G1 Y5.704 Z0.2445
G1 Y5.729 Z0.238
G1 Y5.779 Z0.2224
G1 Y5.804 Z0.2146
G1 Y5.854 Z0.1989
G1 Y5.879 Z0.1891
G1 Y5.904 Z0.179
G1 Y5.979 Z0.1488
G1 Y6.004 Z0.1377
G1 Y6.029 Z0.1254
G1 Y6.104 Z0.0883
G1 Y6.129 Z0.0759
G1 Y6.154 Z0.0612
G1 Y6.179 Z0.046
G1 Y6.229 Z0.0153
G1 Y6.254 Z-0.0002
G1 Y6.279 Z-0.0025
G1 Y6.2862
G1 F30.0 X4.9851 Y6.3207
G1 F300.0 Y6.304
G1 Y6.279 Z0.0041
G1 Y6.254 Z0.0196
G1 Y6.179 Z0.0658
G1 Y6.154 Z0.0805
G1 Y6.129 Z0.0935
G1 Y6.054 Z0.1325
G1 Y6.029 Z0.1451
G1 Y6.004 Z0.1553
G1 Y5.929 Z0.1856
G1 Y5.904 Z0.1956
G1 Y5.879 Z0.204
G1 Y5.804 Z0.2275
G1 Y5.779 Z0.2353
G1 Y5.754 Z0.2425
G1 Y5.704 Z0.2538
G1 Y5.679 Z0.2594
G1 Y5.629 Z0.2706
G1 Y5.604 Z0.2745
G1 Y5.579 Z0.2779
G1 Y5.554 Z0.2813
G1 Y5.504 Z0.2881
G1 Y5.479 Z0.291
G1 Y5.454 Z0.2922
G1 Y5.354 Z0.2971
G1 Y5.329 Z0.2972
G1 Y5.079
G1 Y5.054
G1 Y5.029 Z0.2969
G1 Y4.979 Z0.2951
G1 Y4.904 Z0.2925
G1 Y4.879 Z0.2901
G1 Y4.854 Z0.2872
G1 Y4.754 Z0.2756
G1 Y4.729 Z0.2713
G1 Y4.629 Z0.2534
G1 Y4.604 Z0.249
G1 Y4.579 Z0.244
G1 Y4.504 Z0.2252
G1 Y4.479 Z0.2189
G1 Y4.429 Z0.2064
G1 Y4.404 Z0.1989
G1 Y4.379 Z0.1908
G1 Y4.354 Z0.1828
G1 Y4.279 Z0.1586
G1 Y4.254 Z0.1504
G1 Y4.229 Z0.1412
G1 Y4.129 Z0.1056
G1 Y4.079 Z0.0877
G1 Y4.054 Z0.0775
G1 Y4.004 Z0.0565
G1 Y3.979 Z0.046
G1 Y3.904 Z0.0145
G1 Y3.879 Z-0.0025
G1 Y3.8536
G1 F30.0 X5.0601 Y3.9317
G1 F300.0 Y3.954
G1 Y3.979 Z0.0139
G1 Y4.029 Z0.035
G1 Y4.129 Z0.077
G1 Y4.154 Z0.0872
G1 Y4.179 Z0.0962
G1 Y4.204 Z0.1059
G1 Y4.279 Z0.1354
G1 Y4.304 Z0.1452
G1 Y4.329 Z0.1544
G1 Y4.404 Z0.1785
G1 Y4.479 Z0.2027
G1 Y4.504 Z0.2094
G1 Y4.529 Z0.2156
G1 Y4.629 Z0.2407
G1 Y4.654 Z0.2466
G1 Y4.679 Z0.2515
G1 Y4.754 Z0.2661
G1 Y4.779 Z0.271
G1 Y4.804 Z0.2756
G1 Y4.879 Z0.2842
G1 Y4.929 Z0.29
G1 Y4.954 Z0.2925
G1 Y5.004 Z0.2942
G1 Y5.079 Z0.2968
G1 Y5.104 Z0.2972
G1 Y5.304
G1 Y5.329
G1 Y5.379
G1 Y5.404 Z0.2967
G1 Y5.454 Z0.2942
G1 Y5.479 Z0.293
G1 Y5.504 Z0.2918
G1 Y5.529 Z0.2903
G1 Y5.579 Z0.2836
G1 Y5.604 Z0.2801
G1 Y5.654 Z0.2733
G1 Y5.679 Z0.2687
G1 Y5.704 Z0.2631
G1 Y5.779 Z0.2462
G1 Y5.804 Z0.2405
G1 Y5.829 Z0.2327
G1 Y5.879 Z0.217
G1 Y5.904 Z0.2088
G1 Y5.929 Z0.2006
G1 Y5.954 Z0.1906
G1 Y6.029 Z0.1588
G1 Y6.054 Z0.1482
G1 Y6.079 Z0.1362
G1 Y6.154 Z0.0973
G1 Y6.179 Z0.0842
G1 Y6.204 Z0.0702
G1 Y6.254 Z0.0394
G1 Y6.279 Z0.0239
G1 Y6.304 Z0.0084
G1 Y6.329 Z-0.0025
G1 Y6.3536
G1 F30.0 X5.1351 Y6.3851
G1 F300.0 Y6.354
G1 Y6.329 Z0.0127
G1 Y6.279 Z0.0437
G1 Y6.254 Z0.0591
G1 Y6.229 Z0.0745
G1 Y6.204 Z0.0879
G1 Y6.179 Z0.101
G1 Y6.154 Z0.114
G1 Y6.104 Z0.14
G1 Y6.079 Z0.1513
G1 Y6.054 Z0.1619
G1 Y6.029 Z0.1726
G1 Y5.979 Z0.1938
G1 Y5.954 Z0.203
G1 Y5.929 Z0.2113
G1 Y5.854 Z0.2361
G1 Y5.829 Z0.2434
G1 Y5.804 Z0.2493
G1 Y5.754 Z0.2611
G1 Y5.729 Z0.2668
G1 Y5.704 Z0.2722
G1 Y5.604 Z0.2858
G1 Y5.579 Z0.2892
G1 Y5.554 Z0.2914
G1 Y5.479 Z0.2951
G1 Y5.454 Z0.2963
G1 Y5.429 Z0.2975
G1 Y5.229
G1 Y5.204 Z0.2972
G1 Y5.154
G1 Y5.129 Z0.2969
G1 Y5.104 Z0.296
G1 Y5.029 Z0.2933
G1 Y5.004 Z0.2924
G1 Y4.979 Z0.2899
G1 Y4.904 Z0.2812
G1 Y4.854 Z0.2755
G1 Y4.829 Z0.2709
G1 Y4.804 Z0.266
G1 Y4.779 Z0.2611
G1 Y4.704 Z0.2465
G1 Y4.679 Z0.2399
G1 Y4.654 Z0.233
G1 Y4.579 Z0.2124
G1 Y4.554 Z0.2061
G1 Y4.529 Z0.1985
G1 Y4.429 Z0.1662
G1 Y4.404 Z0.1582
G1 Y4.379 Z0.1499
G1 Y4.304 Z0.1204
G1 Y4.229 Z0.0909
G1 Y4.204 Z0.0801
G1 Y4.179 Z0.0685
G1 Y4.129 Z0.0453
G1 Y4.104 Z0.0344
G1 Y4.079 Z0.0239
G1 Y4.054 Z0.0134
G1 Y4.029 Z-0.0025
G1 Y4.0076
G1 F30.0 X5.2101 Y4.0814
G1 F300.0 Y4.104
G1 Y4.129 Z0.016
G1 Y4.204 Z0.0508
G1 Y4.229 Z0.0624
G1 Y4.279 Z0.0856
G1 Y4.304 Z0.0955
G1 Y4.329 Z0.1054
G1 Y4.429 Z0.1447
G1 Y4.454 Z0.1539
G1 Y4.479 Z0.162
G1 Y4.504 Z0.1703
G1 Y4.579 Z0.1967
G1 Y4.604 Z0.2053
G1 Y4.679 Z0.2259
G1 Y4.704 Z0.2328
G1 Y4.729 Z0.2396
G1 Y4.754 Z0.2463
G1 Y4.804 Z0.2561
G1 Y4.879 Z0.2707
G1 Y4.904 Z0.2754
G1 Y4.929 Z0.2783
G1 Y5.004 Z0.2869
G1 Y5.029 Z0.29
G1 Y5.054 Z0.2925
G1 Y5.154 Z0.2962
G1 Y5.179 Z0.2972
G1 Y5.204 Z0.2975
G1 Y5.454
G1 Y5.479 Z0.2971
G1 Y5.504 Z0.2959
G1 Y5.604 Z0.291
G1 Y5.629 Z0.288
G1 Y5.704 Z0.2772
G1 Y5.729 Z0.2736
G1 Y5.754 Z0.2689
G1 Y5.829 Z0.2511
G1 Y5.854 Z0.2452
G1 Y5.879 Z0.2386
G1 Y5.929 Z0.222
G1 Y5.954 Z0.2138
G1 Y5.979 Z0.2055
G1 Y6.004 Z0.1969
G1 Y6.054 Z0.1757
G1 Y6.079 Z0.165
G1 Y6.129 Z0.1437
G1 Y6.154 Z0.1308
G1 Y6.179 Z0.1178
G1 Y6.254 Z0.0785
G1 Y6.279 Z0.0635
G1 Y6.304 Z0.048
G1 Y6.379 Z0.0015
G1 Y6.404 Z-0.0025
G1 Y6.4152
G1 F30.0 X5.2851 Y6.4438
G1 F300.0 Y6.429
G1 Y6.404 Z0.0056
G1 Y6.379 Z0.0213
G1 Y6.304 Z0.0678
G1 Y6.279 Z0.0822
G1 Y6.204 Z0.1215
G1 Y6.179 Z0.1345
G1 Y6.154 Z0.1468
G1 Y6.079 Z0.1788
G1 Y6.054 Z0.1894
G1 Y6.029 Z0.1996
G1 Y5.979 Z0.2162
G1 Y5.954 Z0.2245
G1 Y5.929 Z0.2328
G1 Y5.904 Z0.241
G1 Y5.854 Z0.2529
G1 Y5.829 Z0.2588
G1 Y5.779 Z0.2707
G1 Y5.754 Z0.2747
G1 Y5.729 Z0.2784
G1 Y5.654 Z0.2891
G1 Y5.629 Z0.2914
G1 Y5.604 Z0.2927
G1 Y5.529 Z0.2966
G1 Y5.504 Z0.2972
G1 Y5.454
G1 Y5.429 Z0.2975
G1 Y5.229
G1 Y5.179 Z0.2956
G1 Y5.154 Z0.2947
G1 Y5.104 Z0.2928
G1 Y5.079 Z0.2909
G1 Y5.054 Z0.2879
G1 Y4.954 Z0.2756
G1 Y4.929 Z0.2708
G1 Y4.904 Z0.2657
G1 Y4.829 Z0.251
G1 Y4.804 Z0.2461
G1 Y4.779 Z0.2394
G1 Y4.729 Z0.2257
G1 Y4.704 Z0.2188
G1 Y4.654 Z0.2051
G1 Y4.629 Z0.1964
G1 Y4.604 Z0.1876
G1 Y4.579 Z0.1788
G1 Y4.504 Z0.1523
G1 Y4.479 Z0.1418
G1 Y4.429 Z0.1202
G1 Y4.404 Z0.11
G1 Y4.354 Z0.0903
G1 Y4.329 Z0.0795
G1 Y4.254 Z0.0447
G1 Y4.229 Z0.0331
G1 Y4.179 Z0.0099
G1 Y4.154 Z-0.0025
G1 Y4.1491
G1 F30.0 X5.3601 Y4.2121
G1 F300.0 Y4.229
G1 Y4.254 Z0.0154
G1 Y4.279 Z0.027
G1 Y4.329 Z0.0502
G1 Y4.354 Z0.0623
G1 Y4.379 Z0.0751
G1 Y4.404 Z0.0875
G1 Y4.504 Z0.1306
G1 Y4.529 Z0.1414
G1 Y4.554 Z0.152
G1 Y4.604 Z0.1697
G1 Y4.629 Z0.1785
G1 Y4.679 Z0.1961
G1 Y4.704 Z0.2049
G1 Y4.729 Z0.2117
G1 Y4.804 Z0.2323
G1 Y4.829 Z0.2395
G1 Y4.854 Z0.2465
G1 Y4.954 Z0.2672
G1 Y4.979 Z0.2724
G1 Y5.004 Z0.2766
G1 Y5.054 Z0.2827
G1 Y5.079 Z0.2858
G1 Y5.129 Z0.2919
G1 Y5.154 Z0.2931
G1 Y5.179 Z0.294
G1 Y5.254 Z0.2968
G1 Y5.279 Z0.2972
G1 Y5.529
G1 Y5.554 Z0.297
G1 Y5.629 Z0.2931
G1 Y5.654 Z0.2918
G1 Y5.679 Z0.2903
G1 Y5.729 Z0.2831
G1 Y5.754 Z0.2795
G1 Y5.804 Z0.2722
G1 Y5.829 Z0.2666
G1 Y5.854 Z0.2607
G1 Y5.929 Z0.2428
G1 Y5.954 Z0.2353
G1 Y5.979 Z0.227
G1 Y6.054 Z0.2021
G1 Y6.079 Z0.1926
G1 Y6.104 Z0.1819
G1 Y6.179 Z0.1499
G1 Y6.204 Z0.1382
G1 Y6.304 Z0.0837
G1 Y6.329 Z0.0688
G1 Y6.354 Z0.0527
G1 Y6.379 Z0.0368
G1 Y6.404 Z0.0213
G1 Y6.429 Z0.0056
G1 Y6.454 Z-0.0025
G1 Y6.4711
G1 F30.0 X5.4351 Y6.4971
G1 F300.0 Y6.479
G1 Y6.454 Z0.0042
G1 Y6.429 Z0.0204
G1 Y6.354 Z0.0688
G1 Y6.329 Z0.0837
G1 Y6.229 Z0.1382
G1 Y6.204 Z0.1499
G1 Y6.179 Z0.1606
G1 Y6.104 Z0.1941
G1 Y6.079 Z0.2037
G1 Y6.029 Z0.221
G1 Y6.004 Z0.2294
G1 Y5.979 Z0.2377
G1 Y5.954 Z0.2446
G1 Y5.879 Z0.2624
G1 Y5.854 Z0.2684
G1 Y5.829 Z0.2733
G1 Y5.754 Z0.2842
G1 Y5.729 Z0.2878
G1 Y5.704 Z0.2909
G1 Y5.629 Z0.2948
G1 Y5.579 Z0.2974
G1 Y5.379
G1 Y5.354 Z0.2972
G1 Y5.304
G1 Y5.279 Z0.2962
G1 Y5.204 Z0.2934
G1 Y5.179 Z0.2925
G1 Y5.154 Z0.2899
G1 Y5.079 Z0.2806
G1 Y5.054 Z0.2776
G1 Y5.029 Z0.2741
G1 Y4.979 Z0.2637
G1 Y4.954 Z0.2585
G1 Y4.904 Z0.2481
G1 Y4.879 Z0.2418
G1 Y4.854 Z0.2345
G1 Y4.754 Z0.2053
G1 Y4.729 Z0.1961
G1 Y4.704 Z0.187
G1 Y4.629 Z0.1605
G1 Y4.604 Z0.1517
G1 Y4.579 Z0.141
G1 Y4.504 Z0.1087
G1 Y4.454 Z0.0871
G1 Y4.429 Z0.0746
G1 Y4.404 Z0.0619
G1 Y4.379 Z0.0492
G1 Y4.304 Z0.0111
G1 Y4.279 Z-0.0025
G1 Y4.2707
G1 F30.0 X5.5101 Y4.3253
G1 F300.0 Y4.329
G1 Y4.354 Z0.0106
G1 Y4.404 Z0.0361
G1 Y4.429 Z0.0488
G1 Y4.479 Z0.0742
G1 Y4.504 Z0.0868
G1 Y4.529 Z0.0976
G1 Y4.604 Z0.1299
G1 Y4.629 Z0.1409
G1 Y4.654 Z0.1522
G1 Y4.754 Z0.1897
G1 Y4.779 Z0.1991
G1 Y4.804 Z0.2076
G1 Y4.854 Z0.2222
G1 Y4.879 Z0.2295
G1 Y4.929 Z0.2441
G1 Y4.954 Z0.2498
G1 Y4.979 Z0.255
G1 Y5.054 Z0.2706
G1 Y5.079 Z0.2755
G1 Y5.104 Z0.2786
G1 Y5.154 Z0.2847
G1 Y5.179 Z0.2879
G1 Y5.204 Z0.2911
G1 Y5.229 Z0.2929
G1 Y5.304 Z0.2959
G1 Y5.329 Z0.2969
G1 Y5.354 Z0.2974
G1 Y5.604
G1 Y5.629 Z0.2965
G1 Y5.654 Z0.2952
G1 Y5.729 Z0.2913
G1 Y5.754 Z0.2889
G1 Y5.829 Z0.2781
G1 Y5.854 Z0.2744
G1 Y5.879 Z0.2697
G1 Y5.954 Z0.2511
G1 Y5.979 Z0.2449
G1 Y6.004 Z0.2378
G1 Y6.029 Z0.2294
G1 Y6.054 Z0.221
G1 Y6.104 Z0.2037
G1 Y6.129 Z0.1941
G1 Y6.204 Z0.1606
G1 Y6.229 Z0.1495
G1 Y6.254 Z0.1372
G1 Y6.329 Z0.0963
G1 Y6.354 Z0.0826
G1 Y6.379 Z0.0675
G1 Y6.429 Z0.0352
G1 Y6.454 Z0.0191
G1 Y6.479 Z0.0028
G1 Y6.504 Z-0.0025
G1 Y6.5217
G1 F30.0 X5.5851 Y6.545
G1 F300.0 Y6.529
G1 Y6.504 Z0.0014
G1 Y6.454 Z0.0339
G1 Y6.429 Z0.0501
G1 Y6.404 Z0.0662
G1 Y6.379 Z0.0815
G1 Y6.354 Z0.0952
G1 Y6.329 Z0.1089
G1 Y6.279 Z0.1362
G1 Y6.254 Z0.1486
G1 Y6.229 Z0.1599
G1 Y6.204 Z0.171
G1 Y6.154 Z0.1933
G1 Y6.129 Z0.2031
G1 Y6.104 Z0.2118
G1 Y6.029 Z0.2378
G1 Y6.004 Z0.2449
G1 Y5.979 Z0.2511
G1 Y5.904 Z0.2697
G1 Y5.879 Z0.2744
G1 Y5.854 Z0.2781
G1 Y5.829 Z0.2817
G1 Y5.779 Z0.2892
G1 Y5.754 Z0.2915
G1 Y5.679 Z0.2956
G1 Y5.654 Z0.2969
G1 Y5.629 Z0.2972
G1 Y5.604
G1 Y5.579 Z0.2974
G1 Y5.379
G1 Y5.354 Z0.2965
G1 Y5.329 Z0.2956
G1 Y5.304 Z0.2946
G1 Y5.254 Z0.2926
G1 Y5.229 Z0.2901
G1 Y5.204 Z0.2868
G1 Y5.129 Z0.2771
G1 Y5.104 Z0.273
G1 Y5.079 Z0.2675
G1 Y5.054 Z0.262
G1 Y5.029 Z0.2566
G1 Y5.004 Z0.2514
G1 Y4.979 Z0.2463
G1 Y4.954 Z0.2391
G1 Y4.879 Z0.2172
G1 Y4.854 Z0.2099
G1 Y4.829 Z0.2021
G1 Y4.779 Z0.1833
G1 Y4.754 Z0.1739
G1 Y4.704 Z0.1551
G1 Y4.679 Z0.1445
G1 Y4.654 Z0.133
G1 Y4.554 Z0.0872
G1 Y4.529 Z0.0739
G1 Y4.504 Z0.0611
G1 Y4.454 Z0.0356
G1 Y4.429 Z0.0229
G1 Y4.404 Z0.0102
G1 Y4.379 Z-0.0025
G1 Y4.3761
G1 F30.0 X5.6601 Y4.4234
G1 F300.0 Y4.429
G1 Y4.454 Z0.0105
G1 Y4.554 Z0.0646
G1 Y4.579 Z0.0782
G1 Y4.604 Z0.0908
G1 Y4.654 Z0.1137
G1 Y4.729 Z0.1481
G1 Y4.754 Z0.1581
G1 Y4.779 Z0.1675
G1 Y4.854 Z0.1956
G1 Y4.879 Z0.2049
G1 Y4.904 Z0.2122
G1 Y4.929 Z0.2197
G1 Y4.979 Z0.2351
G1 Y5.004 Z0.2428
G1 Y5.029 Z0.2492
G1 Y5.104 Z0.2657
G1 Y5.129 Z0.2712
G1 Y5.154 Z0.276
G1 Y5.204 Z0.2825
G1 Y5.229 Z0.2858
G1 Y5.254 Z0.289
G1 Y5.279 Z0.2923
G1 Y5.329 Z0.2943
G1 Y5.404 Z0.2972
G1 Y5.604
G1 Y5.629 Z0.2969
G1 Y5.679
G1 Y5.704 Z0.2956
G1 Y5.779 Z0.2915
G1 Y5.804 Z0.2892
G1 Y5.879 Z0.2779
G1 Y5.904 Z0.2741
G1 Y5.929 Z0.2694
G1 Y5.979 Z0.257
G1 Y6.004 Z0.2507
G1 Y6.029 Z0.2445
G1 Y6.054 Z0.2372
G1 Y6.104 Z0.2199
G1 Y6.129 Z0.2112
G1 Y6.154 Z0.2025
G1 Y6.179 Z0.1925
G1 Y6.204 Z0.1814
G1 Y6.229 Z0.1702
G1 Y6.279 Z0.1478
G1 Y6.304 Z0.1351
G1 Y6.329 Z0.1215
G1 Y6.354 Z0.1078
G1 Y6.404 Z0.0804
G1 Y6.429 Z0.0649
G1 Y6.454 Z0.0488
G1 Y6.529 Z-0.0001
G1 Y6.554 Z-0.0025
G1 Y6.567
G1 F30.0 X5.7351 Y6.5878
G1 F300.0 Y6.579
G1 Y6.554 Z-0.0015
G1 Y6.479 Z0.0473
G1 Y6.454 Z0.0636
G1 Y6.429 Z0.0792
G1 Y6.354 Z0.1204
G1 Y6.329 Z0.1341
G1 Y6.304 Z0.147
G1 Y6.229 Z0.1806
G1 Y6.204 Z0.1917
G1 Y6.179 Z0.2018
G1 Y6.129 Z0.2193
G1 Y6.104 Z0.228
G1 Y6.079 Z0.2366
G1 Y6.054 Z0.2441
G1 Y6.004 Z0.2566
G1 Y5.979 Z0.2628
G1 Y5.954 Z0.269
G1 Y5.929 Z0.2739
G1 Y5.904 Z0.2777
G1 Y5.879 Z0.2815
G1 Y5.829 Z0.289
G1 Y5.804 Z0.2915
G1 Y5.779 Z0.2928
G1 Y5.704 Z0.2969
G1 Y5.679
G1 Y5.479
G1 Y5.454
G1 Y5.429
G1 Y5.329 Z0.293
G1 Y5.304 Z0.2913
G1 Y5.229 Z0.2815
G1 Y5.204 Z0.2782
G1 Y5.179 Z0.2749
G1 Y5.129 Z0.2639
G1 Y5.104 Z0.2584
G1 Y5.054 Z0.2474
G1 Y5.029 Z0.2403
G1 Y5.004 Z0.2326
G1 Y4.979 Z0.2249
G1 Y4.929 Z0.2094
G1 Y4.904 Z0.2009
G1 Y4.879 Z0.1909
G1 Y4.804 Z0.1611
G1 Y4.779 Z0.1517
G1 Y4.754 Z0.1403
G1 Y4.679 Z0.1059
G1 Y4.654 Z0.0944
G1 Y4.629 Z0.0824
G1 Y4.579 Z0.0554
G1 Y4.554 Z0.0419
G1 Y4.504 Z0.0148
G1 Y4.479 Z-0.0025
G1 Y4.4675
G1 F30.0 X5.8101 Y4.5084
G1 F300.0 Y4.529
G1 Y4.554 Z0.0191
G1 Y4.579 Z0.0326
G1 Y4.654 Z0.0732
G1 Y4.679 Z0.0866
G1 Y4.704 Z0.0986
G1 Y4.779 Z0.135
G1 Y4.804 Z0.1471
G1 Y4.829 Z0.1578
G1 Y4.879 Z0.1777
G1 Y4.904 Z0.1877
G1 Y4.929 Z0.1976
G1 Y4.954 Z0.2069
G1 Y4.979 Z0.2146
G1 Y5.004 Z0.2223
G1 Y5.079 Z0.2456
G1 Y5.104 Z0.2511
G1 Y5.129 Z0.2566
G1 Y5.204 Z0.2732
G1 Y5.229 Z0.2772
G1 Y5.254 Z0.2804
G1 Y5.279 Z0.2837
G1 Y5.304 Z0.2871
G1 Y5.329 Z0.2906
G1 Y5.354 Z0.2928
G1 Y5.404 Z0.2949
G1 Y5.429 Z0.2959
G1 Y5.454 Z0.2969
G1 Y5.479
G1 Y5.504 Z0.297
G1 Y5.704
G1 Y5.729 Z0.2968
G1 Y5.779 Z0.2941
G1 Y5.829 Z0.2914
G1 Y5.854 Z0.2888
G1 Y5.879 Z0.2851
G1 Y5.904 Z0.2813
G1 Y5.954 Z0.2737
G1 Y5.979 Z0.2687
G1 Y6.004 Z0.2624
G1 Y6.079 Z0.2437
G1 Y6.104 Z0.2361
G1 Y6.129 Z0.2274
G1 Y6.204 Z0.2012
G1 Y6.229 Z0.191
G1 Y6.254 Z0.1798
G1 Y6.329 Z0.1461
G1 Y6.354 Z0.1331
G1 Y6.454 Z0.0781
G1 Y6.479 Z0.0621
G1 Y6.554 Z0.0119
G1 Y6.579 Z-0.0025
G1 Y6.603
G1 F30.0 X5.8851 Y6.6165
G1 F300.0 Y6.604
G1 Y6.579 Z0.0043
G1 Y6.554 Z0.0211
G1 Y6.479 Z0.0712
G1 Y6.454 Z0.0863
G1 Y6.429 Z0.1004
G1 Y6.354 Z0.1428
G1 Y6.329 Z0.1544
G1 Y6.254 Z0.1891
G1 Y6.229 Z0.2001
G1 Y6.179 Z0.218
G1 Y6.154 Z0.2268
G1 Y6.129 Z0.2355
G1 Y6.104 Z0.2433
G1 Y6.004 Z0.2683
G1 Y5.979 Z0.2735
G1 Y5.904 Z0.2848
G1 Y5.879 Z0.2886
G1 Y5.854 Z0.2913
G1 Y5.779 Z0.2954
G1 Y5.754 Z0.2968
G1 Y5.729 Z0.2971
G1 Y5.529
G1 Y5.504 Z0.297
G1 Y5.479
G1 Y5.429 Z0.2949
G1 Y5.404 Z0.2939
G1 Y5.379 Z0.2928
G1 Y5.354 Z0.2907
G1 Y5.304 Z0.2839
G1 Y5.254 Z0.2771
G1 Y5.229 Z0.2726
G1 Y5.204 Z0.2669
G1 Y5.179 Z0.2611
G1 Y5.129 Z0.2495
G1 Y5.104 Z0.243
G1 Y5.004 Z0.2121
G1 Y4.979 Z0.2043
G1 Y4.904 Z0.1745
G1 Y4.879 Z0.1645
G1 Y4.854 Z0.1546
G1 Y4.829 Z0.1432
G1 Y4.779 Z0.1189
G1 Y4.729 Z0.0946
G1 Y4.704 Z0.0818
G1 Y4.679 Z0.0675
G1 Y4.579 Z0.0102
G1 Y4.554 Z-0.0025
G1 Y4.5464
G1 F30.0 X5.9601 Y4.5816
G1 F300.0 Y4.604
G1 Y4.629 Z0.0199
G1 Y4.654 Z0.0342
G1 Y4.679 Z0.0485
G1 Y4.729 Z0.0772
G1 Y4.754 Z0.0906
G1 Y4.779 Z0.1028
G1 Y4.854 Z0.1392
G1 Y4.879 Z0.1513
G1 Y4.904 Z0.1613
G1 Y4.954 Z0.1812
G1 Y4.979 Z0.1916
G1 Y5.004 Z0.2021
G1 Y5.029 Z0.2107
G1 Y5.079 Z0.227
G1 Y5.129 Z0.2432
G1 Y5.154 Z0.2498
G1 Y5.179 Z0.2555
G1 Y5.204 Z0.2613
G1 Y5.254 Z0.2729
G1 Y5.279 Z0.2772
G1 Y5.304 Z0.2806
G1 Y5.379 Z0.2909
G1 Y5.404 Z0.2929
G1 Y5.429 Z0.2939
G1 Y5.504 Z0.2971
G1 Y5.529
G1 Y5.554 Z0.2973
G1 Y5.754
G1 Y5.779 Z0.2967
G1 Y5.879 Z0.2912
G1 Y5.904 Z0.2884
G1 Y5.979 Z0.2766
G1 Y6.004 Z0.2727
G1 Y6.029 Z0.2668
G1 Y6.104 Z0.2475
G1 Y6.129 Z0.2411
G1 Y6.154 Z0.2321
G1 Y6.204 Z0.2141
G1 Y6.229 Z0.2051
G1 Y6.254 Z0.1955
G1 Y6.329 Z0.1609
G1 Y6.354 Z0.1493
G1 Y6.379 Z0.1364
G1 Y6.429 Z0.1082
G1 Y6.454 Z0.094
G1 Y6.479 Z0.0798
G1 Y6.504 Z0.0637
G1 Y6.554 Z0.0302
G1 Y6.579 Z0.0134
G1 Y6.604 Z-0.0025
G1 Y6.63
G1 F30.0 X6.0351 Y6.6435
G1 F300.0 Y6.629
G1 Y6.604 Z0.0056
G1 Y6.554 Z0.0393
G1 Y6.504 Z0.0728
G1 Y6.479 Z0.0876
G1 Y6.454 Z0.1018
G1 Y6.429 Z0.116
G1 Y6.404 Z0.1301
G1 Y6.379 Z0.1441
G1 Y6.329 Z0.1673
G1 Y6.304 Z0.1789
G1 Y6.279 Z0.1904
G1 Y6.254 Z0.2011
G1 Y6.229 Z0.2102
G1 Y6.204 Z0.2192
G1 Y6.154 Z0.2372
G1 Y6.129 Z0.2447
G1 Y6.104 Z0.2512
G1 Y6.029 Z0.2705
G1 Y6.004 Z0.275
G1 Y5.979 Z0.2789
G1 Y5.904 Z0.2906
G1 Y5.879 Z0.2921
G1 Y5.804 Z0.2963
G1 Y5.779 Z0.2973
G1 Y5.529
G1 Y5.504 Z0.2962
G1 Y5.429 Z0.293
G1 Y5.404 Z0.2911
G1 Y5.379 Z0.2876
G1 Y5.304 Z0.2773
G1 Y5.279 Z0.2731
G1 Y5.204 Z0.2558
G1 Y5.179 Z0.25
G1 Y5.154 Z0.2436
G1 Y5.079 Z0.2192
G1 Y5.054 Z0.2111
G1 Y5.029 Z0.2025
G1 Y4.979 Z0.1816
G1 Y4.954 Z0.1711
G1 Y4.929 Z0.1607
G1 Y4.904 Z0.15
G1 Y4.854 Z0.1245
G1 Y4.804 Z0.0989
G1 Y4.779 Z0.0867
G1 Y4.754 Z0.0725
G1 Y4.679 Z0.0295
G1 Y4.654 Z0.0152
G1 Y4.629 Z-0.0025
G1 Y4.614
G1 F30.0 X6.1101 Y4.6437
G1 F300.0 Y4.654
G1 Y4.679 Z0.0115
G1 Y4.729 Z0.0416
G1 Y4.754 Z0.0567
G1 Y4.779 Z0.0717
G1 Y4.804 Z0.0867
G1 Y4.854 Z0.1122
G1 Y4.929 Z0.1504
G1 Y4.954 Z0.1611
G1 Y5.054 Z0.2029
G1 Y5.079 Z0.2114
G1 Y5.129 Z0.2276
G1 Y5.154 Z0.2359
G1 Y5.179 Z0.2443
G1 Y5.204 Z0.2507
G1 Y5.279 Z0.2687
G1 Y5.304 Z0.2747
G1 Y5.329 Z0.2784
G1 Y5.379 Z0.2855
G1 Y5.404 Z0.289
G1 Y5.429 Z0.2924
G1 Y5.504 Z0.2956
G1 Y5.529 Z0.2967
G1 Y5.554 Z0.2973
G1 Y5.754
G1 Y5.779 Z0.2971
G1 Y5.804
G1 Y5.854 Z0.2943
G1 Y5.879 Z0.2929
G1 Y5.904 Z0.2915
G1 Y5.929 Z0.289
G1 Y5.979 Z0.2811
G1 Y6.004 Z0.2772
G1 Y6.029 Z0.2733
G1 Y6.054 Z0.2677
G1 Y6.079 Z0.2613
G1 Y6.104 Z0.2548
G1 Y6.154 Z0.2419
G1 Y6.179 Z0.2332
G1 Y6.204 Z0.2243
G1 Y6.229 Z0.2152
G1 Y6.254 Z0.2062
G1 Y6.279 Z0.1969
G1 Y6.304 Z0.1853
G1 Y6.329 Z0.1737
G1 Y6.379 Z0.1505
G1 Y6.404 Z0.1379
G1 Y6.429 Z0.1238
G1 Y6.454 Z0.1096
G1 Y6.504 Z0.0811
G1 Y6.529 Z0.0652
G1 Y6.554 Z0.0485
G1 Y6.629 Z-0.0021
G1 Y6.654 Z-0.0025
G1 Y6.657
G1 F30.0 X6.1851 Y6.6705
G1 F300.0 Y6.654
G1 Y6.629 Z0.007
G1 Y6.554 Z0.0576
G1 Y6.529 Z0.0744
G1 Y6.504 Z0.0889
G1 Y6.454 Z0.1174
G1 Y6.429 Z0.1316
G1 Y6.404 Z0.1453
G1 Y6.329 Z0.1802
G1 Y6.304 Z0.1918
G1 Y6.279 Z0.2022
G1 Y6.204 Z0.2293
G1 Y6.179 Z0.2383
G1 Y6.154 Z0.2455
G1 Y6.104 Z0.2585
G1 Y6.079 Z0.265
G1 Y6.054 Z0.2714
G1 Y6.029 Z0.2755
G1 Y5.979 Z0.2834
G1 Y5.954 Z0.2873
G1 Y5.929 Z0.2909
G1 Y5.879 Z0.2937
G1 Y5.854 Z0.2951
G1 Y5.829 Z0.2965
G1 Y5.804 Z0.2974
G1 Y5.604
G1 Y5.579 Z0.2971
G1 Y5.554
G1 Y5.504 Z0.295
G1 Y5.479 Z0.2939
G1 Y5.454 Z0.2928
G1 Y5.429 Z0.2905
G1 Y5.404 Z0.287
G1 Y5.379 Z0.2834
G1 Y5.329 Z0.2763
G1 Y5.304 Z0.2712
G1 Y5.279 Z0.2652
G1 Y5.254 Z0.2592
G1 Y5.204 Z0.2472
G1 Y5.179 Z0.2393
G1 Y5.154 Z0.2309
G1 Y5.079 Z0.2056
G1 Y5.054 Z0.1951
G1 Y4.954 Z0.1517
G1 Y4.929 Z0.1385
G1 Y4.904 Z0.1254
G1 Y4.829 Z0.0871
G1 Y4.804 Z0.0723
G1 Y4.729 Z0.0272
G1 Y4.704 Z0.0121
G1 Y4.679 Z-0.0025
G1 Y4.6696
G1 F30.0 X6.2601 Y4.6918
G1 F300.0 Y4.704
G1 Y4.729 Z0.0137
G1 Y4.804 Z0.0606
G1 Y4.829 Z0.0762
G1 Y4.854 Z0.091
G1 Y4.929 Z0.1307
G1 Y4.954 Z0.144
G1 Y4.979 Z0.1561
G1 Y5.029 Z0.1778
G1 Y5.054 Z0.1887
G1 Y5.079 Z0.1995
G1 Y5.104 Z0.2091
G1 Y5.129 Z0.2175
G1 Y5.154 Z0.2259
G1 Y5.204 Z0.2428
G1 Y5.229 Z0.2497
G1 Y5.254 Z0.2557
G1 Y5.279 Z0.2617
G1 Y5.329 Z0.2737
G1 Y5.354 Z0.2778
G1 Y5.379 Z0.2814
G1 Y5.454 Z0.292
G1 Y5.479 Z0.2933
G1 Y5.504 Z0.2944
G1 Y5.554 Z0.2965
G1 Y5.579 Z0.2974
G1 Y5.829
G1 Y5.854 Z0.2959
G1 Y5.929 Z0.2917
G1 Y5.954 Z0.2895
G1 Y5.979 Z0.2856
G1 Y6.054 Z0.2738
G1 Y6.079 Z0.2686
G1 Y6.179 Z0.2427
G1 Y6.204 Z0.2344
G1 Y6.304 Z0.1982
G1 Y6.329 Z0.1866
G1 Y6.404 Z0.1517
G1 Y6.429 Z0.1394
G1 Y6.454 Z0.1251
G1 Y6.479 Z0.1109
G1 Y6.529 Z0.0821
G1 Y6.554 Z0.0661
G1 Y6.629 Z0.015
G1 Y6.654 Z-0.0021
G1 Y6.679 Z-0.0025
G1 Y6.6799
G1 F30.0 X6.3351 Y6.6839
G1 F300.0 Y6.679
G1 Y6.654 Z0.0007
G1 Y6.629 Z0.0178
G1 Y6.554 Z0.0689
G1 Y6.529 Z0.0845
G1 Y6.504 Z0.099
G1 Y6.429 Z0.1421
G1 Y6.404 Z0.1542
G1 Y6.329 Z0.1895
G1 Y6.304 Z0.2006
G1 Y6.279 Z0.2098
G1 Y6.204 Z0.2372
G1 Y6.179 Z0.2449
G1 Y6.079 Z0.2712
G1 Y6.054 Z0.2754
G1 Y5.979 Z0.2874
G1 Y5.954 Z0.2909
G1 Y5.854 Z0.2967
G1 Y5.829 Z0.297
G1 Y5.804 Z0.2974
G1 Y5.604
G1 Y5.579 Z0.297
G1 Y5.554 Z0.2959
G1 Y5.479 Z0.2927
G1 Y5.454 Z0.2899
G1 Y5.379 Z0.2793
G1 Y5.354 Z0.2757
G1 Y5.329 Z0.2702
G1 Y5.254 Z0.2522
G1 Y5.229 Z0.2462
G1 Y5.204 Z0.2379
G1 Y5.154 Z0.221
G1 Y5.129 Z0.2125
G1 Y5.104 Z0.204
G1 Y5.029 Z0.1714
G1 Y5.004 Z0.1606
G1 Y4.979 Z0.1494
G1 Y4.904 Z0.1096
G1 Y4.879 Z0.0964
G1 Y4.854 Z0.0826
G1 Y4.804 Z0.0514
G1 Y4.779 Z0.0357
G1 Y4.754 Z0.0201
G1 Y4.729 Z-0.0025
G1 Y4.7104
G1 F30.0 X6.4101 Y4.7256
G1 F300.0 Y4.729
G1 Y4.754 Z0.0109
G1 Y4.779 Z0.0265
G1 Y4.854 Z0.0734
G1 Y4.879 Z0.0886
G1 Y4.979 Z0.1416
G1 Y5.004 Z0.1542
G1 Y5.029 Z0.165
G1 Y5.054 Z0.1759
G1 Y5.104 Z0.198
G1 Y5.129 Z0.2081
G1 Y5.204 Z0.2339
G1 Y5.229 Z0.2425
G1 Y5.254 Z0.2496
G1 Y5.329 Z0.268
G1 Y5.354 Z0.2741
G1 Y5.379 Z0.2781
G1 Y5.454 Z0.289
G1 Y5.479 Z0.2924
G1 Y5.554 Z0.2957
G1 Y5.579 Z0.2968
G1 Y5.604 Z0.297
G1 Y5.629 Z0.2973
G1 Y5.829
G1 Y5.854 Z0.297
G1 Y5.929 Z0.2927
G1 Y5.954 Z0.2912
G1 Y5.979 Z0.2882
G1 Y6.029 Z0.2802
G1 Y6.054 Z0.2762
G1 Y6.079 Z0.2722
G1 Y6.104 Z0.2658
G1 Y6.154 Z0.2527
G1 Y6.179 Z0.2461
G1 Y6.204 Z0.2389
G1 Y6.254 Z0.2206
G1 Y6.279 Z0.2114
G1 Y6.304 Z0.2022
G1 Y6.329 Z0.1916
G1 Y6.379 Z0.168
G1 Y6.404 Z0.1562
G1 Y6.429 Z0.1444
G1 Y6.454 Z0.1302
G1 Y6.504 Z0.1014
G1 Y6.529 Z0.087
G1 Y6.554 Z0.0718
G1 Y6.604 Z0.0377
G1 Y6.629 Z0.0206
G1 Y6.654 Z0.0034
G1 Y6.679 Z-0.0025
G1 Y6.6879
G1 F30.0 X6.4851 Y6.6919
G1 F300.0 Y6.679
G1 Y6.654 Z0.0062
G1 Y6.629 Z0.0234
G1 Y6.604 Z0.0405
G1 Y6.554 Z0.0746
G1 Y6.529 Z0.0894
G1 Y6.504 Z0.1039
G1 Y6.479 Z0.1183
G1 Y6.454 Z0.1327
G1 Y6.429 Z0.1464
G1 Y6.379 Z0.1701
G1 Y6.354 Z0.1819
G1 Y6.329 Z0.1937
G1 Y6.304 Z0.2039
G1 Y6.279 Z0.2131
G1 Y6.254 Z0.2223
G1 Y6.204 Z0.2406
G1 Y6.179 Z0.2473
G1 Y6.154 Z0.2539
G1 Y6.129 Z0.2605
G1 Y6.104 Z0.2671
G1 Y6.079 Z0.273
G1 Y6.029 Z0.281
G1 Y5.979 Z0.289
G1 Y5.954 Z0.2915
G1 Y5.929 Z0.293
G1 Y5.904 Z0.2944
G1 Y5.854 Z0.2973
G1 Y5.829 Z0.2974
G1 Y5.629
G1 Y5.604 Z0.2973
G1 Y5.579 Z0.2967
G1 Y5.479 Z0.2923
G1 Y5.454 Z0.2888
G1 Y5.379 Z0.2779
G1 Y5.354 Z0.2738
G1 Y5.329 Z0.2667
G1 Y5.304 Z0.2606
G1 Y5.254 Z0.2483
G1 Y5.229 Z0.2407
G1 Y5.204 Z0.2321
G1 Y5.179 Z0.2235
G1 Y5.129 Z0.2063
G1 Y5.104 Z0.1957
G1 Y5.079 Z0.1846
G1 Y5.004 Z0.1514
G1 Y4.979 Z0.1379
G1 Y4.904 Z0.0973
G1 Y4.879 Z0.0834
G1 Y4.854 Z0.0674
G1 Y4.779 Z0.0195
G1 Y4.754 Z-0.0025
G1 Y4.7368
G1 F30.0 X6.5601 Y4.7389
G1 F300.0 Y4.754
G1 Y4.779 Z0.0188
G1 Y4.879 Z0.0827
G1 Y4.904 Z0.0967
G1 Y5.004 Z0.1509
G1 Y5.029 Z0.1621
G1 Y5.104 Z0.1953
G1 Y5.129 Z0.206
G1 Y5.154 Z0.2146
G1 Y5.229 Z0.2405
G1 Y5.254 Z0.2482
G1 Y5.279 Z0.2543
G1 Y5.354 Z0.2727
G1 Y5.379 Z0.2773
G1 Y5.404 Z0.2809
G1 Y5.479 Z0.2918
G1 Y5.504 Z0.2932
G1 Y5.529 Z0.2943
G1 Y5.579 Z0.2965
G1 Y5.604 Z0.2974
G1 Y5.854
G1 Y5.879 Z0.2961
G1 Y5.904 Z0.2947
G1 Y5.954 Z0.2918
G1 Y5.979 Z0.2897
G1 Y6.004 Z0.2858
G1 Y6.029 Z0.2817
G1 Y6.079 Z0.2737
G1 Y6.104 Z0.2683
G1 Y6.129 Z0.2617
G1 Y6.204 Z0.2419
G1 Y6.229 Z0.2331
G1 Y6.254 Z0.2239
G1 Y6.304 Z0.2055
G1 Y6.329 Z0.1958
G1 Y6.354 Z0.184
G1 Y6.379 Z0.1722
G1 Y6.429 Z0.1485
G1 Y6.454 Z0.1352
G1 Y6.479 Z0.1208
G1 Y6.554 Z0.0773
G1 Y6.579 Z0.0604
G1 Y6.604 Z0.0433
G1 Y6.654 Z0.0089
G1 Y6.679 Z-0.0025
G1 Y6.6959
G1 F30.0 X6.6351 Y6.6999
G1 F300.0 Y6.679
G1 Y6.654 Z0.0117
G1 Y6.579 Z0.0632
G1 Y6.554 Z0.0797
G1 Y6.479 Z0.1232
G1 Y6.454 Z0.1377
G1 Y6.429 Z0.1505
G1 Y6.354 Z0.1861
G1 Y6.329 Z0.1979
G1 Y6.304 Z0.2071
G1 Y6.229 Z0.2348
G1 Y6.204 Z0.2431
G1 Y6.129 Z0.263
G1 Y6.104 Z0.2696
G1 Y6.079 Z0.2745
G1 Y6.004 Z0.2865
G1 Y5.979 Z0.2905
G1 Y5.954 Z0.2921
G1 Y5.879 Z0.2964
G1 Y5.854 Z0.2974
G1 Y5.829
G1 Y5.629
G1 Y5.604
G1 Y5.554 Z0.2952
G1 Y5.504 Z0.293
G1 Y5.479 Z0.2911
G1 Y5.454 Z0.2875
G1 Y5.429 Z0.2839
G1 Y5.379 Z0.2766
G1 Y5.354 Z0.2716
G1 Y5.329 Z0.2654
G1 Y5.304 Z0.2593
G1 Y5.254 Z0.2471
G1 Y5.229 Z0.2389
G1 Y5.204 Z0.2303
G1 Y5.179 Z0.2217
G1 Y5.154 Z0.2131
G1 Y5.129 Z0.2044
G1 Y5.079 Z0.1823
G1 Y5.054 Z0.1712
G1 Y5.029 Z0.1601
G1 Y5.004 Z0.1485
G1 Y4.954 Z0.1214
G1 Y4.904 Z0.0943
G1 Y4.879 Z0.0798
G1 Y4.829 Z0.0479
G1 Y4.804 Z0.0319
G1 Y4.779 Z0.0159
G1 Y4.754 Z-0.0025
G1 Y4.7452
G1 F30.0 X6.7101 Y4.7472
G1 F300.0 Y4.754
G1 Y4.779 Z0.0131
G1 Y4.854 Z0.061
G1 Y4.879 Z0.077
G1 Y4.904 Z0.0919
G1 Y5.004 Z0.1461
G1 Y5.029 Z0.1581
G1 Y5.104 Z0.1914
G1 Y5.129 Z0.2025
G1 Y5.154 Z0.2116
G1 Y5.229 Z0.2374
G1 Y5.254 Z0.246
G1 Y5.354 Z0.2705
G1 Y5.379 Z0.276
G1 Y5.454 Z0.2868
G1 Y5.479 Z0.2904
G1 Y5.504 Z0.2928
G1 Y5.604 Z0.2972
G1 Y5.629 Z0.2974
G1 Y5.829
G1 Y5.854 Z0.2972
G1 Y5.879 Z0.2964
G1 Y5.954 Z0.2921
G1 Y5.979 Z0.2906
G1 Y6.079 Z0.2746
G1 Y6.104 Z0.2698
G1 Y6.204 Z0.2435
G1 Y6.229 Z0.2354
G1 Y6.304 Z0.2079
G1 Y6.329 Z0.1987
G1 Y6.354 Z0.1871
G1 Y6.429 Z0.1519
G1 Y6.454 Z0.1394
G1 Y6.554 Z0.0819
G1 Y6.579 Z0.0659
G1 Y6.604 Z0.0488
G1 Y6.654 Z0.0144
G1 Y6.679 Z-0.0025
G1 Y6.7039
G1 F30.0 X6.7851 Y6.6999
G1 F300.0 Y6.679
G1 Y6.654 Z0.0117
G1 Y6.579 Z0.0632
G1 Y6.554 Z0.0797
G1 Y6.479 Z0.1232
G1 Y6.454 Z0.1377
G1 Y6.429 Z0.1505
G1 Y6.354 Z0.1861
G1 Y6.329 Z0.1979
G1 Y6.304 Z0.2071
G1 Y6.229 Z0.2348
G1 Y6.204 Z0.2431
G1 Y6.129 Z0.263
G1 Y6.104 Z0.2696
G1 Y6.079 Z0.2745
G1 Y6.004 Z0.2865
G1 Y5.979 Z0.2905
G1 Y5.954 Z0.2921
G1 Y5.879 Z0.2964
G1 Y5.854 Z0.2974
G1 Y5.829
G1 Y5.629
G1 Y5.604
G1 Y5.554 Z0.2952
G1 Y5.504 Z0.293
G1 Y5.479 Z0.2911
G1 Y5.454 Z0.2875
G1 Y5.429 Z0.2839
G1 Y5.379 Z0.2766
G1 Y5.354 Z0.2716
G1 Y5.329 Z0.2654
G1 Y5.304 Z0.2593
G1 Y5.254 Z0.2471
G1 Y5.229 Z0.2389
G1 Y5.204 Z0.2303
G1 Y5.179 Z0.2217
G1 Y5.154 Z0.2131
G1 Y5.129 Z0.2044
G1 Y5.079 Z0.1823
G1 Y5.054 Z0.1712
G1 Y5.029 Z0.1601
G1 Y5.004 Z0.1485
G1 Y4.954 Z0.1214
G1 Y4.904 Z0.0943
G1 Y4.879 Z0.0798
G1 Y4.829 Z0.0479
G1 Y4.804 Z0.0319
G1 Y4.779 Z0.0159
G1 Y4.754 Z-0.0025
G1 Y4.7452
G1 F30.0 X6.8601 Y4.7389
G1 F300.0 Y4.754
G1 Y4.779 Z0.0188
G1 Y4.879 Z0.0827
G1 Y4.904 Z0.0967
G1 Y5.004 Z0.1509
G1 Y5.029 Z0.1621
G1 Y5.104 Z0.1953
G1 Y5.129 Z0.206
G1 Y5.154 Z0.2146
G1 Y5.229 Z0.2405
G1 Y5.254 Z0.2482
G1 Y5.279 Z0.2543
G1 Y5.354 Z0.2727
G1 Y5.379 Z0.2773
G1 Y5.404 Z0.2809
G1 Y5.479 Z0.2918
G1 Y5.504 Z0.2932
G1 Y5.529 Z0.2943
G1 Y5.579 Z0.2965
G1 Y5.604 Z0.2974
G1 Y5.854
G1 Y5.879 Z0.2961
G1 Y5.904 Z0.2947
G1 Y5.954 Z0.2918
G1 Y5.979 Z0.2897
G1 Y6.004 Z0.2858
G1 Y6.029 Z0.2817
G1 Y6.079 Z0.2737
G1 Y6.104 Z0.2683
G1 Y6.129 Z0.2617
G1 Y6.204 Z0.2419
G1 Y6.229 Z0.2331
G1 Y6.254 Z0.2239
G1 Y6.304 Z0.2055
G1 Y6.329 Z0.1958
G1 Y6.354 Z0.184
G1 Y6.379 Z0.1722
G1 Y6.429 Z0.1485
G1 Y6.454 Z0.1352
G1 Y6.479 Z0.1208
G1 Y6.554 Z0.0773
G1 Y6.579 Z0.0604
G1 Y6.604 Z0.0433
G1 Y6.654 Z0.0089
G1 Y6.679 Z-0.0025
G1 Y6.6959
G1 F30.0 X6.9351 Y6.6919
G1 F300.0 Y6.679
G1 Y6.654 Z0.0062
G1 Y6.629 Z0.0234
G1 Y6.604 Z0.0405
G1 Y6.554 Z0.0746
G1 Y6.529 Z0.0894
G1 Y6.504 Z0.1039
G1 Y6.479 Z0.1183
G1 Y6.454 Z0.1327
G1 Y6.429 Z0.1464
G1 Y6.379 Z0.1701
G1 Y6.354 Z0.1819
G1 Y6.329 Z0.1937
G1 Y6.304 Z0.2039
G1 Y6.279 Z0.2131
G1 Y6.254 Z0.2223
G1 Y6.204 Z0.2406
G1 Y6.179 Z0.2473
G1 Y6.154 Z0.2539
G1 Y6.129 Z0.2605
G1 Y6.104 Z0.2671
G1 Y6.079 Z0.273
G1 Y6.029 Z0.281
G1 Y5.979 Z0.289
G1 Y5.954 Z0.2915
G1 Y5.929 Z0.293
G1 Y5.904 Z0.2944
G1 Y5.854 Z0.2973
G1 Y5.829 Z0.2974
G1 Y5.629
G1 Y5.604 Z0.2973
G1 Y5.579 Z0.2967
G1 Y5.479 Z0.2923
G1 Y5.454 Z0.2888
G1 Y5.379 Z0.2779
G1 Y5.354 Z0.2738
G1 Y5.329 Z0.2667
G1 Y5.304 Z0.2606
G1 Y5.254 Z0.2483
G1 Y5.229 Z0.2407
G1 Y5.204 Z0.2321
G1 Y5.179 Z0.2235
G1 Y5.129 Z0.2063
G1 Y5.104 Z0.1957
G1 Y5.079 Z0.1846
G1 Y5.004 Z0.1514
G1 Y4.979 Z0.1379
G1 Y4.904 Z0.0973
G1 Y4.879 Z0.0834
G1 Y4.854 Z0.0674
G1 Y4.779 Z0.0195
G1 Y4.754 Z-0.0025
G1 Y4.7324
G1 F30.0 X7.0101 Y4.7194
G1 F300.0 Y4.729
G1 Y4.754 Z0.0109
G1 Y4.779 Z0.0265
G1 Y4.854 Z0.0734
G1 Y4.879 Z0.0886
G1 Y4.979 Z0.1416
G1 Y5.004 Z0.1542
G1 Y5.029 Z0.165
G1 Y5.054 Z0.1759
G1 Y5.104 Z0.198
G1 Y5.129 Z0.2081
G1 Y5.204 Z0.2339
G1 Y5.229 Z0.2425
G1 Y5.254 Z0.2496
G1 Y5.329 Z0.268
G1 Y5.354 Z0.2741
G1 Y5.379 Z0.2781
G1 Y5.454 Z0.289
G1 Y5.479 Z0.2924
G1 Y5.554 Z0.2957
G1 Y5.579 Z0.2968
G1 Y5.604 Z0.297
G1 Y5.629 Z0.2973
G1 Y5.829
G1 Y5.854 Z0.297
G1 Y5.929 Z0.2927
G1 Y5.954 Z0.2912
G1 Y5.979 Z0.2882
G1 Y6.029 Z0.2802
G1 Y6.054 Z0.2762
G1 Y6.079 Z0.2722
G1 Y6.104 Z0.2658
G1 Y6.154 Z0.2527
G1 Y6.179 Z0.2461
G1 Y6.204 Z0.2389
G1 Y6.254 Z0.2206
G1 Y6.279 Z0.2114
G1 Y6.304 Z0.2022
G1 Y6.329 Z0.1916
G1 Y6.379 Z0.168
G1 Y6.404 Z0.1562
G1 Y6.429 Z0.1444
G1 Y6.454 Z0.1302
G1 Y6.504 Z0.1014
G1 Y6.529 Z0.087
G1 Y6.554 Z0.0718
G1 Y6.604 Z0.0377
G1 Y6.629 Z0.0206
G1 Y6.654 Z0.0034
G1 Y6.679 Z-0.0025
G1 Y6.6879
G1 F30.0 X7.0851 Y6.6839
G1 F300.0 Y6.679
G1 Y6.654 Z0.0007
G1 Y6.629 Z0.0178
G1 Y6.554 Z0.0689
G1 Y6.529 Z0.0845
G1 Y6.504 Z0.099
G1 Y6.429 Z0.1421
G1 Y6.404 Z0.1542
G1 Y6.329 Z0.1895
G1 Y6.304 Z0.2006
G1 Y6.279 Z0.2098
G1 Y6.204 Z0.2372
G1 Y6.179 Z0.2449
G1 Y6.079 Z0.2712
G1 Y6.054 Z0.2754
G1 Y5.979 Z0.2874
G1 Y5.954 Z0.2909
G1 Y5.854 Z0.2967
G1 Y5.829 Z0.297
G1 Y5.804 Z0.2974
G1 Y5.604
G1 Y5.579 Z0.297
G1 Y5.554 Z0.2959
G1 Y5.479 Z0.2927
G1 Y5.454 Z0.2899
G1 Y5.379 Z0.2793
G1 Y5.354 Z0.2757
G1 Y5.329 Z0.2702
G1 Y5.254 Z0.2522
G1 Y5.229 Z0.2462
G1 Y5.204 Z0.2379
G1 Y5.154 Z0.221
G1 Y5.129 Z0.2125
G1 Y5.104 Z0.204
G1 Y5.029 Z0.1714
G1 Y5.004 Z0.1606
G1 Y4.979 Z0.1494
G1 Y4.904 Z0.1096
G1 Y4.879 Z0.0964
G1 Y4.854 Z0.0826
G1 Y4.804 Z0.0514
G1 Y4.779 Z0.0357
G1 Y4.754 Z0.0201
G1 Y4.729 Z-0.0025
G1 Y4.7036
G1 F30.0 X7.1601 Y4.6849
G1 F300.0 Y4.704
G1 Y4.729 Z0.0137
G1 Y4.804 Z0.0606
G1 Y4.829 Z0.0762
G1 Y4.854 Z0.091
G1 Y4.929 Z0.1307
G1 Y4.954 Z0.144
G1 Y4.979 Z0.1561
G1 Y5.029 Z0.1778
G1 Y5.054 Z0.1887
G1 Y5.079 Z0.1995
G1 Y5.104 Z0.2091
G1 Y5.129 Z0.2175
G1 Y5.154 Z0.2259
G1 Y5.204 Z0.2428
G1 Y5.229 Z0.2497
G1 Y5.254 Z0.2557
G1 Y5.279 Z0.2617
G1 Y5.329 Z0.2737
G1 Y5.354 Z0.2778
G1 Y5.379 Z0.2814
G1 Y5.454 Z0.292
G1 Y5.479 Z0.2933
G1 Y5.504 Z0.2944
G1 Y5.554 Z0.2965
G1 Y5.579 Z0.2974
G1 Y5.829
G1 Y5.854 Z0.2959
G1 Y5.929 Z0.2917
G1 Y5.954 Z0.2895
G1 Y5.979 Z0.2856
G1 Y6.054 Z0.2738
G1 Y6.079 Z0.2686
G1 Y6.179 Z0.2427
G1 Y6.204 Z0.2344
G1 Y6.304 Z0.1982
G1 Y6.329 Z0.1866
G1 Y6.404 Z0.1517
G1 Y6.429 Z0.1394
G1 Y6.454 Z0.1251
G1 Y6.479 Z0.1109
G1 Y6.529 Z0.0821
G1 Y6.554 Z0.0661
G1 Y6.629 Z0.015
G1 Y6.654 Z-0.0021
G1 Y6.679 Z-0.0025
G1 Y6.6799
G1 F30.0 X7.2351 Y6.6705
G1 F300.0 Y6.654
G1 Y6.629 Z0.007
G1 Y6.554 Z0.0576
G1 Y6.529 Z0.0744
G1 Y6.504 Z0.0889
G1 Y6.454 Z0.1174
G1 Y6.429 Z0.1316
G1 Y6.404 Z0.1453
G1 Y6.329 Z0.1802
G1 Y6.304 Z0.1918
G1 Y6.279 Z0.2022
G1 Y6.204 Z0.2293
G1 Y6.179 Z0.2383
G1 Y6.154 Z0.2455
G1 Y6.104 Z0.2585
G1 Y6.079 Z0.265
G1 Y6.054 Z0.2714
G1 Y6.029 Z0.2755
G1 Y5.979 Z0.2834
G1 Y5.954 Z0.2873
G1 Y5.929 Z0.2909
G1 Y5.879 Z0.2937
G1 Y5.854 Z0.2951
G1 Y5.829 Z0.2965
G1 Y5.804 Z0.2974
G1 Y5.604
G1 Y5.579 Z0.2971
G1 Y5.554
G1 Y5.504 Z0.295
G1 Y5.479 Z0.2939
G1 Y5.454 Z0.2928
G1 Y5.429 Z0.2905
G1 Y5.404 Z0.287
G1 Y5.379 Z0.2834
G1 Y5.329 Z0.2763
G1 Y5.304 Z0.2712
G1 Y5.279 Z0.2652
G1 Y5.254 Z0.2592
G1 Y5.204 Z0.2472
G1 Y5.179 Z0.2393
G1 Y5.154 Z0.2309
G1 Y5.079 Z0.2056
G1 Y5.054 Z0.1951
G1 Y4.954 Z0.1517
G1 Y4.929 Z0.1385
G1 Y4.904 Z0.1254
G1 Y4.854 Z0.0999
G1 Y4.829 Z0.0871
G1 Y4.804 Z0.0723
G1 Y4.729 Z0.0272
G1 Y4.704 Z0.0121
G1 Y4.679 Z-0.0025
G1 Y4.6634
G1 F30.0 X7.3101 Y4.6389
G1 F300.0 Y4.654
G1 Y4.679 Z0.0115
G1 Y4.729 Z0.0416
G1 Y4.754 Z0.0567
G1 Y4.779 Z0.0717
G1 Y4.804 Z0.0867
G1 Y4.854 Z0.1122
G1 Y4.929 Z0.1504
G1 Y4.954 Z0.1611
G1 Y5.054 Z0.2029
G1 Y5.079 Z0.2114
G1 Y5.129 Z0.2276
G1 Y5.154 Z0.2359
G1 Y5.179 Z0.2443
G1 Y5.204 Z0.2507
G1 Y5.279 Z0.2687
G1 Y5.304 Z0.2747
G1 Y5.329 Z0.2784
G1 Y5.379 Z0.2855
G1 Y5.404 Z0.289
G1 Y5.429 Z0.2924
G1 Y5.504 Z0.2956
G1 Y5.529 Z0.2967
G1 Y5.554 Z0.2973
G1 Y5.754
G1 Y5.779 Z0.2971
G1 Y5.804
G1 Y5.854 Z0.2943
G1 Y5.879 Z0.2929
G1 Y5.904 Z0.2915
G1 Y5.929 Z0.289
G1 Y5.979 Z0.2811
G1 Y6.004 Z0.2772
G1 Y6.029 Z0.2733
G1 Y6.054 Z0.2677
G1 Y6.079 Z0.2613
G1 Y6.104 Z0.2548
G1 Y6.154 Z0.2419
G1 Y6.179 Z0.2332
G1 Y6.204 Z0.2243
G1 Y6.229 Z0.2152
G1 Y6.254 Z0.2062
G1 Y6.279 Z0.1969
G1 Y6.304 Z0.1853
G1 Y6.329 Z0.1737
G1 Y6.379 Z0.1505
G1 Y6.404 Z0.1379
G1 Y6.429 Z0.1238
G1 Y6.454 Z0.1096
G1 Y6.504 Z0.0811
G1 Y6.529 Z0.0652
G1 Y6.554 Z0.0485
G1 Y6.629 Z-0.0021
G1 Y6.654 Z-0.0025
G1 Y6.657
G1 F30.0 X7.3851 Y6.6435
G1 F300.0 Y6.629
G1 Y6.604 Z0.0056
G1 Y6.554 Z0.0393
G1 Y6.504 Z0.0728
G1 Y6.479 Z0.0876
G1 Y6.454 Z0.1018
G1 Y6.429 Z0.116
G1 Y6.404 Z0.1301
G1 Y6.379 Z0.1441
G1 Y6.329 Z0.1673
G1 Y6.304 Z0.1789
G1 Y6.279 Z0.1904
G1 Y6.254 Z0.2011
G1 Y6.229 Z0.2102
G1 Y6.204 Z0.2192
G1 Y6.154 Z0.2372
G1 Y6.129 Z0.2447
G1 Y6.104 Z0.2512
G1 Y6.079 Z0.2576
G1 Y6.029 Z0.2705
G1 Y6.004 Z0.275
G1 Y5.979 Z0.2789
G1 Y5.904 Z0.2906
G1 Y5.879 Z0.2921
G1 Y5.804 Z0.2963
G1 Y5.779 Z0.2973
G1 Y5.529
G1 Y5.504 Z0.2962
G1 Y5.429 Z0.293
G1 Y5.404 Z0.2911
G1 Y5.379 Z0.2876
G1 Y5.304 Z0.2773
G1 Y5.279 Z0.2731
G1 Y5.204 Z0.2558
G1 Y5.179 Z0.25
G1 Y5.154 Z0.2436
G1 Y5.079 Z0.2192
G1 Y5.054 Z0.2111
G1 Y5.029 Z0.2025
G1 Y4.979 Z0.1816
G1 Y4.954 Z0.1711
G1 Y4.929 Z0.1607
G1 Y4.904 Z0.15
G1 Y4.854 Z0.1245
G1 Y4.804 Z0.0989
G1 Y4.779 Z0.0867
G1 Y4.754 Z0.0725
G1 Y4.679 Z0.0295
G1 Y4.654 Z0.0152
G1 Y4.629 Z-0.0025
G1 Y4.6113
G1 F30.0 X7.4601 Y4.5805
G1 F300.0 Y4.604
G1 Y4.629 Z0.0199
G1 Y4.654 Z0.0342
G1 Y4.679 Z0.0485
G1 Y4.729 Z0.0772
G1 Y4.754 Z0.0906
G1 Y4.779 Z0.1028
G1 Y4.854 Z0.1392
G1 Y4.879 Z0.1513
G1 Y4.904 Z0.1613
G1 Y4.954 Z0.1812
G1 Y4.979 Z0.1916
G1 Y5.004 Z0.2021
G1 Y5.029 Z0.2107
G1 Y5.079 Z0.227
G1 Y5.129 Z0.2432
G1 Y5.154 Z0.2498
G1 Y5.179 Z0.2555
G1 Y5.204 Z0.2613
G1 Y5.254 Z0.2729
G1 Y5.279 Z0.2772
G1 Y5.304 Z0.2806
G1 Y5.379 Z0.2909
G1 Y5.404 Z0.2929
G1 Y5.429 Z0.2939
G1 Y5.504 Z0.2971
G1 Y5.529
G1 Y5.554 Z0.2973
G1 Y5.754
G1 Y5.779 Z0.2967
G1 Y5.879 Z0.2912
G1 Y5.904 Z0.2884
G1 Y5.979 Z0.2766
G1 Y6.004 Z0.2727
G1 Y6.029 Z0.2668
G1 Y6.104 Z0.2475
G1 Y6.129 Z0.2411
G1 Y6.154 Z0.2321
G1 Y6.204 Z0.2141
G1 Y6.229 Z0.2051
G1 Y6.254 Z0.1955
G1 Y6.329 Z0.1609
G1 Y6.354 Z0.1493
G1 Y6.379 Z0.1364
G1 Y6.429 Z0.1082
G1 Y6.454 Z0.094
G1 Y6.479 Z0.0798
G1 Y6.504 Z0.0637
G1 Y6.554 Z0.0302
G1 Y6.579 Z0.0134
G1 Y6.604 Z-0.0025
G1 Y6.63
G1 F30.0 X7.5351 Y6.6165
G1 F300.0 Y6.604
G1 Y6.579 Z0.0043
G1 Y6.554 Z0.0211
G1 Y6.479 Z0.0712
G1 Y6.454 Z0.0863
G1 Y6.429 Z0.1004
G1 Y6.354 Z0.1428
G1 Y6.329 Z0.1544
G1 Y6.254 Z0.1891
G1 Y6.229 Z0.2001
G1 Y6.179 Z0.218
G1 Y6.154 Z0.2268
G1 Y6.129 Z0.2355
G1 Y6.104 Z0.2433
G1 Y6.004 Z0.2683
G1 Y5.979 Z0.2735
G1 Y5.904 Z0.2848
G1 Y5.879 Z0.2886
G1 Y5.854 Z0.2913
G1 Y5.779 Z0.2954
G1 Y5.754 Z0.2968
G1 Y5.729 Z0.2971
G1 Y5.529
G1 Y5.504 Z0.297
G1 Y5.479
G1 Y5.429 Z0.2949
G1 Y5.404 Z0.2939
G1 Y5.379 Z0.2928
G1 Y5.354 Z0.2907
G1 Y5.304 Z0.2839
G1 Y5.254 Z0.2771
G1 Y5.229 Z0.2726
G1 Y5.204 Z0.2669
G1 Y5.179 Z0.2611
G1 Y5.129 Z0.2495
G1 Y5.104 Z0.243
G1 Y5.004 Z0.2121
G1 Y4.979 Z0.2043
G1 Y4.904 Z0.1745
G1 Y4.879 Z0.1645
G1 Y4.854 Z0.1546
G1 Y4.829 Z0.1432
G1 Y4.779 Z0.1189
G1 Y4.729 Z0.0946
G1 Y4.704 Z0.0818
G1 Y4.679 Z0.0675
G1 Y4.579 Z0.0102
G1 Y4.554 Z-0.0025
G1 Y4.5463
G1 F30.0 X7.6101 Y4.5086
G1 F300.0 Y4.529
G1 Y4.554 Z0.0191
G1 Y4.579 Z0.0326
G1 Y4.654 Z0.0732
G1 Y4.679 Z0.0866
G1 Y4.704 Z0.0986
G1 Y4.779 Z0.135
G1 Y4.804 Z0.1471
G1 Y4.829 Z0.1578
G1 Y4.879 Z0.1777
G1 Y4.904 Z0.1877
G1 Y4.929 Z0.1976
G1 Y4.954 Z0.2069
G1 Y4.979 Z0.2146
G1 Y5.004 Z0.2223
G1 Y5.079 Z0.2456
G1 Y5.104 Z0.2511
G1 Y5.129 Z0.2566
G1 Y5.204 Z0.2732
G1 Y5.229 Z0.2772
G1 Y5.254 Z0.2804
G1 Y5.279 Z0.2837
G1 Y5.304 Z0.2871
G1 Y5.329 Z0.2906
G1 Y5.354 Z0.2928
G1 Y5.404 Z0.2949
G1 Y5.429 Z0.2959
G1 Y5.454 Z0.2969
G1 Y5.479
G1 Y5.504 Z0.297
G1 Y5.704
G1 Y5.729 Z0.2968
G1 Y5.779 Z0.2941
G1 Y5.829 Z0.2914
G1 Y5.854 Z0.2888
G1 Y5.879 Z0.2851
G1 Y5.904 Z0.2813
G1 Y5.954 Z0.2737
G1 Y5.979 Z0.2687
G1 Y6.004 Z0.2624
G1 Y6.079 Z0.2437
G1 Y6.104 Z0.2361
G1 Y6.129 Z0.2274
G1 Y6.204 Z0.2012
G1 Y6.229 Z0.191
G1 Y6.254 Z0.1798
G1 Y6.329 Z0.1461
G1 Y6.354 Z0.1331
G1 Y6.454 Z0.0781
G1 Y6.479 Z0.0621
G1 Y6.554 Z0.0119
G1 Y6.579 Z-0.0025
G1 Y6.603
G1 F30.0 X7.6851 Y6.5874
G1 F300.0 Y6.579
G1 Y6.554 Z-0.0015
G1 Y6.479 Z0.0473
G1 Y6.454 Z0.0636
G1 Y6.429 Z0.0792
G1 Y6.354 Z0.1204
G1 Y6.329 Z0.1341
G1 Y6.304 Z0.147
G1 Y6.229 Z0.1806
G1 Y6.204 Z0.1917
G1 Y6.179 Z0.2018
G1 Y6.129 Z0.2193
G1 Y6.104 Z0.228
G1 Y6.079 Z0.2366
G1 Y6.054 Z0.2441
G1 Y6.004 Z0.2566
G1 Y5.979 Z0.2628
G1 Y5.954 Z0.269
G1 Y5.929 Z0.2739
G1 Y5.904 Z0.2777
G1 Y5.879 Z0.2815
G1 Y5.829 Z0.289
G1 Y5.804 Z0.2915
G1 Y5.779 Z0.2928
G1 Y5.704 Z0.2969
G1 Y5.679
G1 Y5.479
G1 Y5.454
G1 Y5.429
G1 Y5.329 Z0.293
G1 Y5.304 Z0.2913
G1 Y5.229 Z0.2815
G1 Y5.204 Z0.2782
G1 Y5.179 Z0.2749
G1 Y5.129 Z0.2639
G1 Y5.104 Z0.2584
G1 Y5.054 Z0.2474
G1 Y5.029 Z0.2403
G1 Y5.004 Z0.2326
G1 Y4.979 Z0.2249
G1 Y4.929 Z0.2094
G1 Y4.904 Z0.2009
G1 Y4.879 Z0.1909
G1 Y4.804 Z0.1611
G1 Y4.779 Z0.1517
G1 Y4.754 Z0.1403
G1 Y4.679 Z0.1059
G1 Y4.654 Z0.0944
G1 Y4.629 Z0.0824
G1 Y4.579 Z0.0554
G1 Y4.554 Z0.0419
G1 Y4.504 Z0.0148
G1 Y4.479 Z-0.0025
G1 Y4.467
G1 F30.0 X7.7601 Y4.4215
G1 F300.0 Y4.429
G1 Y4.454 Z0.0105
G1 Y4.554 Z0.0646
G1 Y4.579 Z0.0782
G1 Y4.604 Z0.0908
G1 Y4.654 Z0.1137
G1 Y4.729 Z0.1481
G1 Y4.754 Z0.1581
G1 Y4.779 Z0.1675
G1 Y4.854 Z0.1956
G1 Y4.879 Z0.2049
G1 Y4.904 Z0.2122
G1 Y4.929 Z0.2197
G1 Y4.979 Z0.2351
G1 Y5.004 Z0.2428
G1 Y5.029 Z0.2492
G1 Y5.104 Z0.2657
G1 Y5.129 Z0.2712
G1 Y5.154 Z0.276
G1 Y5.204 Z0.2825
G1 Y5.229 Z0.2858
G1 Y5.254 Z0.289
G1 Y5.279 Z0.2923
G1 Y5.329 Z0.2943
G1 Y5.404 Z0.2972
G1 Y5.604
G1 Y5.629 Z0.2969
G1 Y5.679
G1 Y5.704 Z0.2956
G1 Y5.779 Z0.2915
G1 Y5.804 Z0.2892
G1 Y5.879 Z0.2779
G1 Y5.904 Z0.2741
G1 Y5.929 Z0.2694
G1 Y5.979 Z0.257
G1 Y6.004 Z0.2507
G1 Y6.029 Z0.2445
G1 Y6.054 Z0.2372
G1 Y6.104 Z0.2199
G1 Y6.129 Z0.2112
G1 Y6.154 Z0.2025
G1 Y6.179 Z0.1925
G1 Y6.204 Z0.1814
G1 Y6.229 Z0.1702
G1 Y6.279 Z0.1478
G1 Y6.304 Z0.1351
G1 Y6.329 Z0.1215
G1 Y6.354 Z0.1078
G1 Y6.404 Z0.0804
G1 Y6.429 Z0.0649
G1 Y6.454 Z0.0488
G1 Y6.529 Z-0.0001
G1 Y6.554 Z-0.0025
G1 Y6.5646
G1 F30.0 X7.8351 Y6.5417
G1 F300.0 Y6.529
G1 Y6.504 Z0.0014
G1 Y6.454 Z0.0339
G1 Y6.429 Z0.0501
G1 Y6.404 Z0.0662
G1 Y6.379 Z0.0815
G1 Y6.354 Z0.0952
G1 Y6.329 Z0.1089
G1 Y6.279 Z0.1362
G1 Y6.254 Z0.1486
G1 Y6.229 Z0.1599
G1 Y6.204 Z0.171
G1 Y6.154 Z0.1933
G1 Y6.129 Z0.2031
G1 Y6.104 Z0.2118
G1 Y6.029 Z0.2378
G1 Y6.004 Z0.2449
G1 Y5.979 Z0.2511
G1 Y5.904 Z0.2697
G1 Y5.879 Z0.2744
G1 Y5.854 Z0.2781
G1 Y5.829 Z0.2817
G1 Y5.779 Z0.2892
G1 Y5.754 Z0.2915
G1 Y5.679 Z0.2956
G1 Y5.654 Z0.2969
G1 Y5.629 Z0.2972
G1 Y5.604
G1 Y5.579 Z0.2974
G1 Y5.379
G1 Y5.354 Z0.2965
G1 Y5.329 Z0.2956
G1 Y5.304 Z0.2946
G1 Y5.254 Z0.2926
G1 Y5.229 Z0.2901
G1 Y5.204 Z0.2868
G1 Y5.129 Z0.2771
G1 Y5.104 Z0.273
G1 Y5.079 Z0.2675
G1 Y5.054 Z0.262
G1 Y5.029 Z0.2566
G1 Y5.004 Z0.2514
G1 Y4.979 Z0.2463
G1 Y4.954 Z0.2391
G1 Y4.879 Z0.2172
G1 Y4.854 Z0.2099
G1 Y4.829 Z0.2021
G1 Y4.779 Z0.1833
G1 Y4.754 Z0.1739
G1 Y4.704 Z0.1551
G1 Y4.679 Z0.1445
G1 Y4.654 Z0.133
G1 Y4.554 Z0.0872
G1 Y4.529 Z0.0739
G1 Y4.504 Z0.0611
G1 Y4.454 Z0.0356
G1 Y4.429 Z0.0229
G1 Y4.404 Z0.0102
G1 Y4.379 Z-0.0025
G1 Y4.3731
G1 F30.0 X7.9101 Y4.3218
G1 F300.0 Y4.329
G1 Y4.354 Z0.0106
G1 Y4.404 Z0.0361
G1 Y4.429 Z0.0488
G1 Y4.479 Z0.0742
G1 Y4.504 Z0.0868
G1 Y4.529 Z0.0976
G1 Y4.604 Z0.1299
G1 Y4.629 Z0.1409
G1 Y4.654 Z0.1522
G1 Y4.754 Z0.1897
G1 Y4.779 Z0.1991
G1 Y4.804 Z0.2076
G1 Y4.854 Z0.2222
G1 Y4.879 Z0.2295
G1 Y4.929 Z0.2441
G1 Y4.954 Z0.2498
G1 Y4.979 Z0.255
G1 Y5.054 Z0.2706
G1 Y5.079 Z0.2755
G1 Y5.104 Z0.2786
G1 Y5.154 Z0.2847
G1 Y5.179 Z0.2879
G1 Y5.204 Z0.2911
G1 Y5.229 Z0.2929
G1 Y5.304 Z0.2959
G1 Y5.329 Z0.2969
G1 Y5.354 Z0.2974
G1 Y5.604
G1 Y5.629 Z0.2965
G1 Y5.654 Z0.2952
G1 Y5.729 Z0.2913
G1 Y5.754 Z0.2889
G1 Y5.829 Z0.2781
G1 Y5.854 Z0.2744
G1 Y5.879 Z0.2697
G1 Y5.954 Z0.2511
G1 Y5.979 Z0.2449
G1 Y6.004 Z0.2378
G1 Y6.029 Z0.2294
G1 Y6.054 Z0.221
G1 Y6.104 Z0.2037
G1 Y6.129 Z0.1941
G1 Y6.204 Z0.1606
G1 Y6.229 Z0.1495
G1 Y6.254 Z0.1372
G1 Y6.329 Z0.0963
G1 Y6.354 Z0.0826
G1 Y6.379 Z0.0675
G1 Y6.429 Z0.0352
G1 Y6.454 Z0.0191
G1 Y6.479 Z0.0028
G1 Y6.504 Z-0.0025
G1 Y6.5189
G1 F30.0 X7.9851 Y6.4961
G1 F300.0 Y6.479
G1 Y6.454 Z0.0042
G1 Y6.429 Z0.0204
G1 Y6.354 Z0.0688
G1 Y6.329 Z0.0837
G1 Y6.229 Z0.1382
G1 Y6.204 Z0.1499
G1 Y6.179 Z0.1606
G1 Y6.104 Z0.1941
G1 Y6.079 Z0.2037
G1 Y6.029 Z0.221
G1 Y6.004 Z0.2294
G1 Y5.979 Z0.2377
G1 Y5.954 Z0.2446
G1 Y5.879 Z0.2624
G1 Y5.854 Z0.2684
G1 Y5.829 Z0.2733
G1 Y5.754 Z0.2842
G1 Y5.729 Z0.2878
G1 Y5.704 Z0.2909
G1 Y5.629 Z0.2948
G1 Y5.579 Z0.2974
G1 Y5.379
G1 Y5.354 Z0.2972
G1 Y5.304
G1 Y5.279 Z0.2962
G1 Y5.204 Z0.2934
G1 Y5.179 Z0.2925
G1 Y5.154 Z0.2899
G1 Y5.079 Z0.2806
G1 Y5.054 Z0.2776
G1 Y5.029 Z0.2741
G1 Y4.979 Z0.2637
G1 Y4.954 Z0.2585
G1 Y4.904 Z0.2481
G1 Y4.879 Z0.2418
G1 Y4.854 Z0.2345
G1 Y4.754 Z0.2053
G1 Y4.729 Z0.1961
G1 Y4.704 Z0.187
G1 Y4.629 Z0.1605
G1 Y4.604 Z0.1517
G1 Y4.579 Z0.141
G1 Y4.504 Z0.1087
G1 Y4.454 Z0.0871
G1 Y4.429 Z0.0746
G1 Y4.404 Z0.0619
G1 Y4.379 Z0.0492
G1 Y4.304 Z0.0111
G1 Y4.279 Z-0.0025
G1 Y4.2671
G1 F30.0 X8.0601 Y4.209
G1 F300.0 Y4.229
G1 Y4.254 Z0.0154
G1 Y4.279 Z0.027
G1 Y4.329 Z0.0502
G1 Y4.354 Z0.0623
G1 Y4.379 Z0.0751
G1 Y4.404 Z0.0875
G1 Y4.504 Z0.1306
G1 Y4.529 Z0.1414
G1 Y4.554 Z0.152
G1 Y4.604 Z0.1697
G1 Y4.629 Z0.1785
G1 Y4.679 Z0.1961
G1 Y4.704 Z0.2049
G1 Y4.729 Z0.2117
G1 Y4.804 Z0.2323
G1 Y4.829 Z0.2395
G1 Y4.854 Z0.2465
G1 Y4.954 Z0.2672
G1 Y4.979 Z0.2724
G1 Y5.004 Z0.2766
G1 Y5.054 Z0.2827
G1 Y5.079 Z0.2858
G1 Y5.129 Z0.2919
G1 Y5.154 Z0.2931
G1 Y5.179 Z0.294
G1 Y5.254 Z0.2968
G1 Y5.279 Z0.2972
G1 Y5.529
G1 Y5.554 Z0.297
G1 Y5.629 Z0.2931
G1 Y5.654 Z0.2918
G1 Y5.679 Z0.2903
G1 Y5.729 Z0.2831
G1 Y5.754 Z0.2795
G1 Y5.804 Z0.2722
G1 Y5.829 Z0.2666
G1 Y5.854 Z0.2607
G1 Y5.929 Z0.2428
G1 Y5.954 Z0.2353
G1 Y5.979 Z0.227
G1 Y6.054 Z0.2021
G1 Y6.079 Z0.1926
G1 Y6.104 Z0.1819
G1 Y6.179 Z0.1499
G1 Y6.204 Z0.1382
G1 Y6.304 Z0.0837
G1 Y6.329 Z0.0688
G1 Y6.354 Z0.0527
G1 Y6.379 Z0.0368
G1 Y6.404 Z0.0213
G1 Y6.429 Z0.0056
G1 Y6.454 Z-0.0025
G1 Y6.4733
G1 F30.0 X8.1351 Y6.4492
G1 F300.0 Y6.429
G1 Y6.404 Z0.0056
G1 Y6.379 Z0.0213
G1 Y6.304 Z0.0678
G1 Y6.279 Z0.0822
G1 Y6.204 Z0.1215
G1 Y6.179 Z0.1345
G1 Y6.154 Z0.1468
G1 Y6.079 Z0.1788
G1 Y6.054 Z0.1894
G1 Y6.029 Z0.1996
G1 Y5.979 Z0.2162
G1 Y5.954 Z0.2245
G1 Y5.929 Z0.2328
G1 Y5.904 Z0.241
G1 Y5.854 Z0.2529
G1 Y5.829 Z0.2588
G1 Y5.779 Z0.2707
G1 Y5.754 Z0.2747
G1 Y5.729 Z0.2784
G1 Y5.654 Z0.2891
G1 Y5.629 Z0.2914
G1 Y5.604 Z0.2927
G1 Y5.529 Z0.2966
G1 Y5.504 Z0.2972
G1 Y5.454
G1 Y5.429 Z0.2975
G1 Y5.229
G1 Y5.179 Z0.2956
G1 Y5.154 Z0.2947
G1 Y5.104 Z0.2928
G1 Y5.079 Z0.2909
G1 Y5.054 Z0.2879
G1 Y4.954 Z0.2756
G1 Y4.929 Z0.2708
G1 Y4.904 Z0.2657
G1 Y4.829 Z0.251
G1 Y4.804 Z0.2461
G1 Y4.779 Z0.2394
G1 Y4.729 Z0.2257
G1 Y4.704 Z0.2188
G1 Y4.654 Z0.2051
G1 Y4.629 Z0.1964
G1 Y4.604 Z0.1876
G1 Y4.579 Z0.1788
G1 Y4.504 Z0.1523
G1 Y4.479 Z0.1418
G1 Y4.429 Z0.1202
G1 Y4.404 Z0.11
G1 Y4.354 Z0.0903
G1 Y4.329 Z0.0795
G1 Y4.254 Z0.0447
G1 Y4.229 Z0.0331
G1 Y4.179 Z0.0099
G1 Y4.154 Z-0.0025
G1 Y4.1471
G1 F30.0 X8.2101 Y4.0811
G1 F300.0 Y4.104
G1 Y4.129 Z0.016
G1 Y4.204 Z0.0508
G1 Y4.229 Z0.0624
G1 Y4.279 Z0.0856
G1 Y4.304 Z0.0955
G1 Y4.329 Z0.1054
G1 Y4.429 Z0.1447
G1 Y4.454 Z0.1539
G1 Y4.479 Z0.162
G1 Y4.504 Z0.1703
G1 Y4.579 Z0.1967
G1 Y4.604 Z0.2053
G1 Y4.679 Z0.2259
G1 Y4.704 Z0.2328
G1 Y4.729 Z0.2396
G1 Y4.754 Z0.2463
G1 Y4.804 Z0.2561
G1 Y4.879 Z0.2707
G1 Y4.904 Z0.2754
G1 Y4.929 Z0.2783
G1 Y5.004 Z0.2869
G1 Y5.029 Z0.29
G1 Y5.054 Z0.2925
G1 Y5.154 Z0.2962
G1 Y5.179 Z0.2972
G1 Y5.204 Z0.2975
G1 Y5.454
G1 Y5.479 Z0.2971
G1 Y5.504 Z0.2959
G1 Y5.604 Z0.291
G1 Y5.629 Z0.288
G1 Y5.704 Z0.2772
G1 Y5.729 Z0.2736
G1 Y5.754 Z0.2689
G1 Y5.829 Z0.2511
G1 Y5.854 Z0.2452
G1 Y5.879 Z0.2386
G1 Y5.929 Z0.222
G1 Y5.954 Z0.2138
G1 Y5.979 Z0.2055
G1 Y6.004 Z0.1969
G1 Y6.054 Z0.1757
G1 Y6.079 Z0.165
G1 Y6.129 Z0.1437
G1 Y6.154 Z0.1308
G1 Y6.179 Z0.1178
G1 Y6.254 Z0.0785
G1 Y6.279 Z0.0635
G1 Y6.304 Z0.048
G1 Y6.379 Z0.0015
G1 Y6.404 Z-0.0025
G1 Y6.4203
G1 F30.0 X8.2851 Y6.39
G1 F300.0 Y6.354
G1 Y6.329 Z0.0127
G1 Y6.279 Z0.0437
G1 Y6.254 Z0.0591
G1 Y6.229 Z0.0745
G1 Y6.204 Z0.0879
G1 Y6.179 Z0.101
G1 Y6.154 Z0.114
G1 Y6.104 Z0.14
G1 Y6.079 Z0.1513
G1 Y6.054 Z0.1619
G1 Y6.029 Z0.1726
G1 Y5.979 Z0.1938
G1 Y5.954 Z0.203
G1 Y5.929 Z0.2113
G1 Y5.854 Z0.2361
G1 Y5.829 Z0.2434
G1 Y5.804 Z0.2493
G1 Y5.754 Z0.2611
G1 Y5.729 Z0.2668
G1 Y5.704 Z0.2722
G1 Y5.604 Z0.2858
G1 Y5.579 Z0.2892
G1 Y5.554 Z0.2914
G1 Y5.479 Z0.2951
G1 Y5.454 Z0.2963
G1 Y5.429 Z0.2975
G1 Y5.229
G1 Y5.204 Z0.2972
G1 Y5.154
G1 Y5.129 Z0.2969
G1 Y5.104 Z0.296
G1 Y5.029 Z0.2933
G1 Y5.004 Z0.2924
G1 Y4.979 Z0.2899
G1 Y4.904 Z0.2812
G1 Y4.854 Z0.2755
G1 Y4.829 Z0.2709
G1 Y4.804 Z0.266
G1 Y4.779 Z0.2611
G1 Y4.704 Z0.2465
G1 Y4.679 Z0.2399
G1 Y4.654 Z0.233
G1 Y4.579 Z0.2124
G1 Y4.554 Z0.2061
G1 Y4.529 Z0.1985
G1 Y4.429 Z0.1662
G1 Y4.404 Z0.1582
G1 Y4.379 Z0.1499
G1 Y4.304 Z0.1204
G1 Y4.229 Z0.0909
G1 Y4.204 Z0.0801
G1 Y4.179 Z0.0685
G1 Y4.129 Z0.0453
G1 Y4.104 Z0.0344
G1 Y4.079 Z0.0239
G1 Y4.054 Z0.0134
G1 Y4.029 Z-0.0025
G1 Y4.0108
G1 F30.0 X8.3601 Y3.9356
G1 F300.0 Y3.954
G1 Y3.979 Z0.0139
G1 Y4.029 Z0.035
G1 Y4.129 Z0.077
G1 Y4.154 Z0.0872
G1 Y4.179 Z0.0962
G1 Y4.204 Z0.1059
G1 Y4.279 Z0.1354
G1 Y4.304 Z0.1452
G1 Y4.329 Z0.1544
G1 Y4.404 Z0.1785
G1 Y4.479 Z0.2027
G1 Y4.504 Z0.2094
G1 Y4.529 Z0.2156
G1 Y4.629 Z0.2407
G1 Y4.654 Z0.2466
G1 Y4.679 Z0.2515
G1 Y4.754 Z0.2661
G1 Y4.779 Z0.271
G1 Y4.804 Z0.2756
G1 Y4.879 Z0.2842
G1 Y4.929 Z0.29
G1 Y4.954 Z0.2925
G1 Y5.004 Z0.2942
G1 Y5.079 Z0.2968
G1 Y5.104 Z0.2972
G1 Y5.304
G1 Y5.329
G1 Y5.379
G1 Y5.404 Z0.2967
G1 Y5.454 Z0.2942
G1 Y5.479 Z0.293
G1 Y5.504 Z0.2918
G1 Y5.529 Z0.2903
G1 Y5.579 Z0.2836
G1 Y5.604 Z0.2801
G1 Y5.654 Z0.2733
G1 Y5.679 Z0.2687
G1 Y5.704 Z0.2631
G1 Y5.779 Z0.2462
G1 Y5.804 Z0.2405
G1 Y5.829 Z0.2327
G1 Y5.879 Z0.217
G1 Y5.904 Z0.2088
G1 Y5.929 Z0.2006
G1 Y5.954 Z0.1906
G1 Y6.029 Z0.1588
G1 Y6.054 Z0.1482
G1 Y6.079 Z0.1362
G1 Y6.154 Z0.0973
G1 Y6.179 Z0.0842
G1 Y6.204 Z0.0702
G1 Y6.254 Z0.0394
G1 Y6.279 Z0.0239
G1 Y6.304 Z0.0084
G1 Y6.329 Z-0.0025
G1 Y6.3583
G1 F30.0 X8.4351 Y6.3251
