%
O0000
    N10 (MACH3 MILL - )
N20 (AUTHOR - {SCOTT SHAFER}) G0 ( second comment )
N30 (GROUP - TOOLPATH GROUP #1)
N40 (SYSTEM- ONECNC-XR2 MILL ADVANTAGE - VERSION 8.12)
N50 (NOTES - NONE)
N60 G0 G40 G49 G50 G80 G94
N70 (.1875 INCH 3/16 HSS END MILL ) ( )
N80 T4 M06 G43 H4
N90 S3411.0 F25.0 M3 M07
N100 G4 P3
N110 G00 X14.9375 Y1.4106 Z0.1
N120 Z0.05
N130 G01 X14.9358 Y1.3786 Z0.0466 F25.0
N140 X14.9376 Y1.3149 Z0.0399
N150 X14.9445 Y1.2515 Z0.0332
N160 X14.9564 Y1.1889 Z0.0265
N170 X14.9734 Y1.1275 Z0.0198
N180 X15.0049 Y1.0575 Z0.0118
N190 X15.0484 Y0.9943 Z0.0037
N200 X15.1023 Y0.9398 Z-0.0044
N210 X15.1652 Y0.8957 Z-0.0124
N220 X15.2348 Y0.8636 Z-0.0205
N230 X15.309 Y0.8443 Z-0.0285
N240 X15.3096
N250 X15.3101
N260 X15.3106
N270 X15.3111
N280 X15.3116
N290 X15.3121 Y0.8437
N300 X15.3812 Y0.8329 Z-0.0362
N310 X15.4511 Y0.8279 Z-0.0436
N320 X15.521 Y0.8289 Z-0.0509
N330 X15.5907 Y0.8357 Z-0.0583
N340 X15.6595 Y0.8485 Z-0.0656
N350 X15.727 Y0.867 Z-0.073
N360 X15.7772 Y0.8886 Z-0.0787
N370 X15.8244 Y0.9161 Z-0.0845
N380 X15.8681 Y0.9489 Z-0.0902
N390 X15.9075 Y0.9868 Z-0.096
N400 X15.9422 Y1.029 Z-0.1017
N410 X15.9716 Y1.0751 Z-0.1075
N420 X15.9907 Y1.125 Z-0.1131
N430 X16.0061 Y1.1762 Z-0.1187
N440 X16.0176 Y1.2284 Z-0.1243
N450 X16.0252 Y1.2813 Z-0.1299
N460 X16.0288 Y1.3346 Z-0.1356
N470 X16.0285 Y1.3881 Z-0.1412
N480 Y1.3892 Z-0.1413
N490 Y1.3904 Z-0.1414
N500 Y1.3916 Z-0.1415
N510 Y1.3927 Z-0.1417
N520 Y1.3939 Z-0.1418
N530 Y1.3951 Z-0.1419
N540 Y1.4324 Z-0.1458
N550 X16.0257 Y1.4697 Z-0.1498
N560 X16.0206 Y1.5067 Z-0.1537
N570 X16.0129 Y1.5432 Z-0.1576
N580 X16.0028 Y1.5791 Z-0.1615
N590 X15.9902 Y1.6143 Z-0.1655
N600 X15.9644 Y1.6626 Z-0.1712
N610 X15.9323 Y1.707 Z-0.177
N620 X15.8944 Y1.7466 Z-0.1827
N630 X15.8515 Y1.7806 Z-0.1885
N640 X15.8044 Y1.8086 Z-0.1942
N650 X15.7539 Y1.8298 Z-0.2
N660 X15.7528 Y1.8321
N670 X15.7032 Y1.6737
N680 G02 X15.774 Y1.6404 I-0.2085 J-0.5347
N690 X15.8954 Y1.5145 I-0.1426 J-0.259
N700 X15.8975 Y1.51 I-0.082 J-0.0413
N710 X15.9282 Y1.3633 I-0.3348 J-0.1466
N720 X15.9265 Y1.3279 I-0.3655 J0.
N730 X15.7966 Y1.093 I-0.3039 J0.0147
N740 X15.7932 Y1.0908 I-0.0525 J0.0753
N750 X15.7109 Y1.053 I-0.1808 J0.2853
N760 X15.7106 Y1.0529 I-0.0268 J0.0878
N770 X15.5152 Y1.0242 I-0.1953 J0.6498
N780 X15.504 Y1.0243 I0. J0.6786
N790 X15.4724 Y1.0236 I-0.0316 J0.7607
N800 X15.2779 Y1.0489 I0. J0.7614
N810 X15.2769 Y1.0492 I0.0235 J0.0888
N820 X15.0392 Y1.3379 I0.0864 J0.3134
N830 X15.0372 Y1.3736 I0.3169 J0.0357
N840 X15.177 Y1.6375 I0.3189 J0.
N850 X15.1812 Y1.6402 I0.0516 J-0.076
N860 X15.1955 Y1.6484 I0.2005 J-0.3335
N870 G01 X15.1604 Y1.811
N880 G03 X15.0225 Y1.6965 I0.215 J-0.3991
N890 X14.9465 Y1.5092 I0.3306 J-0.2432
N900 G02 X14.946 Y1.5057 I-0.0909 J0.0125
N910 G03 X14.934 Y1.3683 I0.7786 J-0.1374
N920 X14.9717 Y1.1269 I0.7906 J0.
N930 X15.3087 Y0.8425 I0.4079 J0.1414
N940 G02 X15.3117 Y0.8419 I-0.0151 J-0.0906
N950 G03 X15.4747 Y0.8257 I0.163 J0.8121
N960 X15.7276 Y0.8653 I0. J0.8283
N970 X15.9732 Y1.0743 I-0.1566 J0.4329
N980 X16.031 Y1.357 I-0.6628 J0.2826
N990 X16.0303 Y1.3881 I-0.7206 J0.
N1000 G02 X16.0302 Y1.3921 I0.0917 J0.004
N1010 X16.0302 Y1.395 I0.0918 J0.
N1020 G03 X16.0305 Y1.4125 I-0.55 J0.0175
N1030 X15.9919 Y1.615 I-0.5503 J0.
N1040 X15.7528 Y1.8321 I-0.3683 J-0.1654
N1050 G00 Z0.1
N1060 X15.4885 Y2.9641
N1070 Z0.05
N1080 G01 X15.4473 Y2.9418 Z0.0451
N1090 X15.4016 Y2.9063 Z0.039
N1100 X15.3623 Y2.8637 Z0.0329
N1110 X15.3376 Y2.8231 Z0.0279
N1120 X15.3171 Y2.7803 Z0.0229
N1130 X15.301 Y2.7355 Z0.0179
N1140 X15.2895 Y2.6894 Z0.0129
N1150 X15.2827 Y2.6424 Z0.0079
N1160 X15.2806 Y2.595 Z0.0029
N1170 Y2.5938 Z0.0028
N1180 Y2.5926 Z0.0027
N1190 Y2.5914 Z0.0026
N1200 Y2.5901 Z0.0024
N1210 Y2.5889 Z0.0023
N1220 Y2.5877 Z0.0022
N1230 X15.2793 Y2.5398 Z-0.0029
N1240 X15.2831 Y2.492 Z-0.0079
N1250 X15.2915 Y2.4447 Z-0.0129
N1260 X15.3045 Y2.3986 Z-0.018
N1270 X15.3221 Y2.3539 Z-0.023
N1280 X15.344 Y2.3113 Z-0.0281
N1290 X15.3808 Y2.2621 Z-0.0345
N1300 X15.4255 Y2.22 Z-0.041
N1310 X15.4769 Y2.1863 Z-0.0474
N1320 X15.5333 Y2.162 Z-0.0539
N1330 X15.5931 Y2.1479 Z-0.0603
N1340 X15.6544 Y2.1443 Z-0.0668
N1350 X15.655
N1360 X15.6557
N1370 X15.6563
N1380 X15.6569
N1390 X15.6575
N1400 X15.6581
N1410 X15.7238 Y2.1495 Z-0.0741
N1420 X15.7875 Y2.1666 Z-0.0811
N1430 X15.8469 Y2.1951 Z-0.088
N1440 X15.9002 Y2.2338 Z-0.0949
N1450 X15.9456 Y2.2816 Z-0.1018
N1460 X15.9815 Y2.3369 Z-0.1088
N1470 X16.0067 Y2.3978 Z-0.1157
N1480 X16.0204 Y2.4623 Z-0.1226
N1490 Y2.463
N1500 Y2.4637
N1510 Y2.4644
N1520 X16.0208 Y2.4651
N1530 X16.0209 Y2.4658
N1540 X15.999 Y2.7624
N1550 X16.021 Y2.4665
N1560 X16.0272 Y2.516 Z-0.1283
N1570 X16.0294 Y2.5659 Z-0.1336
N1580 X16.0277 Y2.6157 Z-0.1388
N1590 X16.022 Y2.6653 Z-0.144
N1600 X16.0124 Y2.7143 Z-0.1493
N1610 X15.999 Y2.7624 Z-0.1545
N1620 X15.9742 Y2.818 Z-0.1609
N1630 X15.9402 Y2.8684 Z-0.1673
N1640 X15.8978 Y2.9122 Z-0.1737
N1650 X15.8485 Y2.9479 Z-0.1801
N1660 X15.7937 Y2.9745 Z-0.1865
N1670 X15.7352 Y2.9911 Z-0.1929
N1680 X15.6746 Y2.9973 Z-0.1993
N1690 X15.6735 Z-0.1994
N1700 X15.6725 Z-0.1995
N1710 X15.6714 Z-0.1997
N1720 X15.6703 Z-0.1998
N1730 X15.6693 Z-0.1999
N1740 X15.6682 Z-0.2
N1750 X15.6398 Y2.656
N1760 G03 X15.6391 Y2.6561 I-0.0007 J-0.0083
N1770 X15.6368 Y2.6558 I0. J-0.0084
N1780 X15.6233 Y2.5979 I0.117 J-0.0578
N1790 X15.6233 Y2.5971 I0.1305 J0.
N1800 G02 X15.6233 Y2.5944 I-0.436 J-0.0027
N1810 X15.6222 Y2.5634 I-0.436 J0.
N1820 G03 X15.6219 Y2.5534 I0.1414 J-0.0101
N1830 X15.6369 Y2.4899 I0.1417 J0.
N1840 X15.6445 Y2.4869 I0.0076 J0.0079
N1850 X15.6448 Y2.4869 I0. J0.011
N1860 G02 X15.657 Y2.487 I0.0122 J-0.4359
N1870 X15.6623 Y2.487 I0. J-0.436
N1880 G03 X15.6625 Y2.487 I0.0002 J0.0177
N1890 X15.6801 Y2.5026 I0. J0.0177
N1900 G02 X15.6828 Y2.5223 I0.433 J-0.0513
N1910 G03 X15.6867 Y2.569 I-0.2834 J0.0467
N1920 X15.6745 Y2.6518 I-0.2873 J0.
N1930 X15.6697 Y2.6546 I-0.0048 J-0.0028
N1940 G02 X15.6398 Y2.656 I0.0062 J0.436
N1950 G01 X15.6455 Y2.7246
N1960 G03 X15.6391 Y2.7249 I-0.0064 J-0.077
N1970 X15.5832 Y2.701 I0. J-0.0772
N1980 X15.5545 Y2.5979 I0.1707 J-0.1031
N1990 X15.5545 Y2.5967 I0.1994 J0.
N2000 G02 X15.5545 Y2.5944 I-0.3672 J-0.0023
N2010 X15.5536 Y2.5683 I-0.3672 J0.
N2020 G03 X15.553 Y2.5534 I0.2101 J-0.015
N2030 X15.5787 Y2.4526 I0.2106 J0.
N2040 X15.6445 Y2.418 I0.0658 J0.0453
N2050 X15.6467 Y2.418 I0. J0.0799
N2060 G02 X15.657 Y2.4182 I0.0103 J-0.3671
N2070 X15.6614 Y2.4182 I0. J-0.3672
N2080 G03 X15.6625 Y2.4182 I0.001 J0.0866
N2090 X15.7484 Y2.4945 I0. J0.0866
N2100 G02 X15.7508 Y2.5111 I0.3646 J-0.0432
N2110 G03 X15.7555 Y2.569 I-0.3514 J0.058
N2120 X15.7393 Y2.6751 I-0.3561 J0.
N2130 X15.6707 Y2.7234 I-0.0697 J-0.0261
N2140 G02 X15.6455 Y2.7246 I0.0052 J0.3672
N2150 G01 X15.6569 Y2.8619
N2160 G03 X15.6391 Y2.8626 I-0.0178 J-0.2142
N2170 X15.4724 Y2.7833 I0. J-0.2149
N2180 X15.4168 Y2.5979 I0.2815 J-0.1854
N2190 X15.4168 Y2.5958 I0.3371 J0.
N2200 G02 X15.4168 Y2.5944 I-0.2295 J-0.0014
N2210 X15.4162 Y2.5781 I-0.2295 J0.
N2220 G03 X15.4153 Y2.5534 I0.3474 J-0.0247
N2230 X15.4608 Y2.3813 I0.3483 J0.
N2240 X15.6445 Y2.2803 I0.1837 J0.1166
N2250 X15.6506 Y2.2804 I0. J0.2176
N2260 G02 X15.657 Y2.2805 I0.0064 J-0.2294
N2270 X15.6598 Y2.2805 I0. J-0.2295
N2280 G03 X15.6625 Y2.2805 I0.0027 J0.2243
N2290 X15.8852 Y2.4783 I0. J0.2243
N2300 G02 X15.8866 Y2.4886 I0.2279 J-0.027
N2310 G03 X15.8932 Y2.569 I-0.4872 J0.0804
N2320 X15.8698 Y2.7192 I-0.4938 J0.
N2330 X15.6727 Y2.8611 I-0.2002 J-0.0702
N2340 G02 X15.6569 Y2.8619 I0.0033 J0.2295
N2350 G01 X15.6683 Y2.9991
N2360 G03 X15.6391 Y3.0003 I-0.0293 J-0.3514
N2370 X15.3611 Y2.8646 I0. J-0.3526
N2380 X15.2791 Y2.5979 I0.3928 J-0.2667
N2390 X15.2791 Y2.5949 I0.4748 J0.
N2400 G02 X15.2791 Y2.5944 I-0.0918 J-0.0006
N2410 X15.2789 Y2.5879 I-0.0918 J0.
N2420 G03 X15.2776 Y2.5534 I0.4848 J-0.0345
N2430 X15.3427 Y2.3105 I0.486 J0.
N2440 X15.6445 Y2.1426 I0.3018 J0.1874
N2450 X15.6545 Y2.1428 I0. J0.3553
N2460 G02 X15.657 Y2.1428 I0.0026 J-0.0918
N2470 X15.6581 Y2.1428 I0. J-0.0918
N2480 G03 X15.6625 Y2.1428 I0.0043 J0.3619
N2490 X16.0219 Y2.4621 I0. J0.362
N2500 G02 X16.0225 Y2.4662 I0.0912 J-0.0108
N2510 G03 X16.0309 Y2.569 I-0.6231 J0.1028
N2520 X16.0004 Y2.7628 I-0.6315 J0.
N2530 X15.6746 Y2.9988 I-0.3308 J-0.1138
N2540 G02 X15.6683 Y2.9991 I0.0013 J0.0918
N2550 G00 Z0.1
N2560 X15.4748 Y4.1126
N2570 Z0.05
N2580 G01 X15.4726 Y4.1116 Z0.0497
N2590 X15.4219 Y4.0783 Z0.0434
N2600 X15.3779 Y4.0366 Z0.037
N2610 X15.3419 Y3.9878 Z0.0306
N2620 X15.315 Y3.9334 Z0.0242
N2630 X15.2985 Y3.8789 Z0.0183
N2640 X15.2871 Y3.8231 Z0.0123
N2650 X15.2807 Y3.7666 Z0.0063
N2660 X15.2795 Y3.7096 Z0.0003
N2670 X15.2834 Y3.6528 Z-0.0057
N2680 X15.2926 Y3.5966 Z-0.0117
N2690 Y3.5962
N2700 Y3.5958
N2710 Y3.5954
N2720 Y3.595
N2730 Y3.5945
N2740 Y3.5941
N2750 X15.3098 Y3.5329 Z-0.0186
N2760 X15.3371 Y3.4756 Z-0.0253
N2770 X15.374 Y3.424 Z-0.0319
N2780 X15.4194 Y3.3797 Z-0.0386
N2790 X15.472 Y3.3441 Z-0.0453
N2800 X15.5299 Y3.3182 Z-0.0519
N2810 X15.5915 Y3.303 Z-0.0586
N2820 X15.6549 Y3.2989 Z-0.0653
N2830 X15.6557
N2840 X15.6564
N2850 X15.6572
N2860 X15.658
N2870 X15.6588
N2880 X15.9934 Y3.5204
N2890 X15.6595 Y3.2988
N2900 X15.7203 Y3.3025 Z-0.0722
N2910 X15.7795 Y3.3168 Z-0.0786
N2920 X15.8354 Y3.3411 Z-0.085
N2930 X15.8861 Y3.3748 Z-0.0914
N2940 X15.9302 Y3.4168 Z-0.0978
N2950 X15.9663 Y3.4658 Z-0.1042
N2960 X15.9933 Y3.5204 Z-0.1106
N2970 X16.0103 Y3.5745 Z-0.1166
N2980 X16.0221 Y3.63 Z-0.1225
N2990 X16.0286 Y3.6863 Z-0.1285
N3000 X16.0298 Y3.743 Z-0.1344
N3010 X16.0257 Y3.7996 Z-0.1404
N3020 X16.0162 Y3.8555 Z-0.1464
N3030 X16.0161 Y3.8561
N3040 X16.0159 Y3.8567
N3050 X16.0158 Y3.8574
N3060 X16.0157 Y3.858
N3070 X16.0156 Y3.8586
N3080 X16.0155 Y3.8593
N3090 X15.999 Y3.9204 Z-0.1534
N3100 X15.9719 Y3.9776 Z-0.1601
N3110 X15.9351 Y4.0292 Z-0.1667
N3120 X15.8897 Y4.0733 Z-0.1734
N3130 X15.8372 Y4.1087 Z-0.18
N3140 X15.7792 Y4.1341 Z-0.1867
N3150 X15.7176 Y4.1488 Z-0.1933
N3160 X15.6544 Y4.1524 Z-0.2
N3170 X15.6659 Y3.8098
N3180 G02 X15.6513 Y3.8096 I-0.0146 J0.4358
N3190 X15.6355 Y3.8099 I0. J0.436
N3200 G03 X15.635 Y3.8098 I0. J-0.001
N3210 X15.622 Y3.7249 I0.2708 J-0.0849
N3220 X15.628 Y3.6668 I0.2838 J0.
N3230 G02 X15.6303 Y3.6551 I-0.4268 J-0.0892
N3240 G03 X15.6466 Y3.6415 I0.0163 J0.0029
N3250 X15.647 Y3.6415 I0. J0.0166
N3260 G02 X15.657 Y3.6416 I0.01 J-0.4359
N3270 X15.6687 Y3.6415 I0. J-0.436
N3280 G03 X15.6689 Y3.6415 I0.0001 J0.0055
N3290 X15.6735 Y3.644 I0. J0.0055
N3300 X15.6873 Y3.7273 I-0.2452 J0.0833
N3310 X15.6813 Y3.7825 I-0.259 J0.
N3320 G02 X15.6779 Y3.8001 I0.426 J0.0929
N3330 G03 X15.6663 Y3.8098 I-0.0116 J-0.002
N3340 X15.6659 Y3.8098 I0. J-0.0118
N3350 G01 X15.6636 Y3.8786
N3360 G02 X15.6513 Y3.8784 I-0.0123 J0.367
N3370 X15.638 Y3.8787 I0. J0.3672
N3380 G03 X15.6354 Y3.8787 I-0.0025 J-0.0698
N3390 X15.5715 Y3.8372 I0. J-0.0699
N3400 X15.5532 Y3.7249 I0.3343 J-0.1123
N3410 X15.5606 Y3.6527 I0.3526 J0.
N3420 G02 X15.5626 Y3.6429 I-0.3594 J-0.0752
N3430 G03 X15.6466 Y3.5726 I0.0841 J0.0152
N3440 X15.6486 Y3.5727 I0. J0.0854
N3450 G02 X15.657 Y3.5728 I0.0084 J-0.3671
N3460 X15.6669 Y3.5726 I0. J-0.3672
N3470 G03 X15.6689 Y3.5726 I0.002 J0.0744
N3480 X15.7374 Y3.6179 I0. J0.0744
N3490 X15.7561 Y3.7273 I-0.3091 J0.1094
N3500 X15.7486 Y3.7971 I-0.3278 J0.
N3510 G02 X15.7457 Y3.812 I0.3588 J0.0782
N3520 G03 X15.6663 Y3.8787 I-0.0794 J-0.0139
N3530 X15.6636 Y3.8786 I0. J-0.0806
N3540 G01 X15.659 Y4.0163
N3550 G02 X15.6513 Y4.0161 I-0.0077 J0.2294
N3560 X15.643 Y4.0163 I0. J0.2295
N3570 G03 X15.6354 Y4.0164 I-0.0075 J-0.2074
N3580 X15.4427 Y3.8859 I0. J-0.2076
N3590 X15.4155 Y3.7249 I0.4631 J-0.1611
N3600 X15.4259 Y3.6245 I0.4903 J0.
N3610 G02 X15.4271 Y3.6184 I-0.2246 J-0.047
N3620 G03 X15.6466 Y3.4349 I0.2196 J0.0397
N3630 X15.6517 Y3.435 I0. J0.2231
N3640 G02 X15.657 Y3.4351 I0.0053 J-0.2294
N3650 X15.6632 Y3.435 I0. J-0.2295
N3660 G03 X15.6689 Y3.4349 I0.0057 J0.212
N3670 X15.866 Y3.5687 I0. J0.2121
N3680 X15.8938 Y3.7273 I-0.4377 J0.1586
N3690 X15.8832 Y3.8265 I-0.4655 J0.
N3700 G02 X15.8813 Y3.8358 I0.2242 J0.0489
N3710 G03 X15.6663 Y4.0164 I-0.2151 J-0.0377
N3720 X15.659 Y4.0163 I0. J-0.2183
N3730 G01 X15.6544 Y4.1539
N3740 G02 X15.6513 Y4.1538 I-0.0031 J0.0917
N3750 X15.648 Y4.1539 I0. J0.0918
N3760 G03 X15.6354 Y4.1541 I-0.0125 J-0.3451
N3770 X15.3136 Y3.9339 I0. J-0.3453
N3780 X15.2778 Y3.7249 I0.5922 J-0.2091
N3790 X15.2911 Y3.5963 I0.628 J0.
N3800 G02 X15.2916 Y3.5939 I-0.0899 J-0.0188
N3810 G03 X15.6466 Y3.2972 I0.3551 J0.0642
N3820 X15.6549 Y3.2973 I0. J0.3608
N3830 G02 X15.657 Y3.2974 I0.0021 J-0.0918
N3840 X15.6595 Y3.2973 I0. J-0.0918
N3850 G03 X15.6689 Y3.2972 I0.0094 J0.3497
N3860 X15.9948 Y3.5199 I0. J0.3498
N3870 X16.0315 Y3.7273 I-0.5665 J0.2074
N3880 X16.0177 Y3.8558 I-0.6032 J0.
N3890 G02 X16.017 Y3.8595 I0.0897 J0.0196
N3900 G03 X15.6663 Y4.1541 I-0.3507 J-0.0615
N3910 X15.6544 Y4.1539 I0. J-0.356
N3920 G00 Z0.1
N3930 X14.9547 Y4.5798
N3940 Z0.05
N3950 G01 Y4.5 Z0.0416
N3960 X16.0108 Z-0.0694
N3970 Y4.6592 Z-0.0861
N3980 X15.8699 Z-0.1009
N3990 X15.8576 Y4.66 Z-0.1022
N4000 X15.8456 Y4.6625 Z-0.1035
N4010 X15.8339 Y4.6665 Z-0.1048
N4020 X15.823 Y4.6721 Z-0.1061
N4030 X15.8128 Y4.679 Z-0.1074
N4040 X15.8037 Y4.6873 Z-0.1087
N4050 X15.6802 Y4.8149 Z-0.1273
N4060 X15.6695 Y4.8282 Z-0.1291
N4070 X15.6615 Y4.8433 Z-0.1309
N4080 X15.6564 Y4.8595 Z-0.1327
N4090 X15.6543 Y4.8765 Z-0.1345
N4100 X15.6554 Y4.8935 Z-0.1363
N4110 X15.6597 Y4.91 Z-0.1381
N4120 X15.6669 Y4.9255 Z-0.1399
N4130 X15.6768 Y4.9393 Z-0.1417
N4140 X15.6891 Y4.9512 Z-0.1435
N4150 X15.7034 Y4.9605 Z-0.1453
N4160 X16.0108 Y5.123 Z-0.1818
N4170 Y5.296 Z-0.2
N4180 X16.0112 Y5.2967
N4190 X15.5668 Y5.0343
N4200 G02 X15.5202 Y5.0216 I-0.0467 J0.079
N4210 X15.4541 Y5.0496 I0. J0.0918
N4220 G01 X15.2978 Y5.2113
N4230 Y5.0522
N4240 X15.5579 Y4.8198
N4250 G02 X15.5885 Y4.7514 I-0.0612 J-0.0685
N4260 X15.4967 Y4.6596 I-0.0918 J0.
N4270 G01 X14.9543
N4280 Y4.4997
N4290 X16.0112
N4300 Y4.6596
N4310 X15.8699
N4320 G02 X15.8039 Y4.6875 I0. J0.0918
N4330 G01 X15.6805 Y4.8152
N4340 G02 X15.6547 Y4.879 I0.066 J0.0638
N4350 X15.7036 Y4.9602 I0.0918 J0.
N4360 G01 X16.0112 Y5.1228
N4370 Y5.2967
N4380 G00 Z0.1
N4390 X15.2982 Y9.7213
N4400 Z0.05
N4410 G01 Y9.6707 Z0.0447
N4420 X15.5582 Y9.4384 Z0.008
N4430 X15.5698 Y9.4259 Z0.0062
N4440 X15.5789 Y9.4115 Z0.0044
N4450 X15.5852 Y9.3956 Z0.0027
N4460 X15.5885 Y9.3788 Z0.0009
N4470 X15.5886 Y9.3618 Z-0.0009
N4480 X15.5855 Y9.3449 Z-0.0027
N4490 X15.5795 Y9.329 Z-0.0045
N4500 X15.5705 Y9.3144 Z-0.0063
N4510 X15.5591 Y9.3018 Z-0.0081
N4520 X15.5455 Y9.2914 Z-0.0099
N4530 X15.5302 Y9.2838 Z-0.0117
N4540 X15.5138 Y9.2791 Z-0.0135
N4550 X15.4967 Y9.2775 Z-0.0153
N4560 X14.9547 Z-0.0723
N4570 Y9.1184 Z-0.089
N4580 X16.0108 Z-0.2
N4590 X16.0112 Y9.118
N4600 Y9.2779
N4610 X15.8699
N4620 G02 X15.8039 Y9.3059 I0. J0.0918
N4630 G01 X15.6805 Y9.4335
N4640 G02 X15.6547 Y9.4973 I0.066 J0.0638
N4650 X15.7036 Y9.5785 I0.0918 J0.
N4660 G01 X16.0112 Y9.7411
N4670 Y9.915
N4680 X15.5668 Y9.6526
N4690 G02 X15.5202 Y9.6399 I-0.0467 J0.079
N4700 X15.4541 Y9.6679 I0. J0.0918
N4710 G01 X15.2978 Y9.8296
N4720 Y9.6705
N4730 X15.5579 Y9.4382
N4740 G02 X15.5885 Y9.3697 I-0.0612 J-0.0685
N4750 X15.4967 Y9.2779 I-0.0918 J0.
N4760 G01 X14.9543
N4770 Y9.118
N4780 X16.0112
N4790 G00 Z0.1
N4800 X15.832 Y7.9608
N4810 Z0.05
N4820 G01 X15.8469 Y7.968 Z0.0483
N4830 X15.9002 Y8.0067 Z0.0413
N4840 X15.9456 Y8.0545 Z0.0344
N4850 X15.9815 Y8.1098 Z0.0275
N4860 X16.0067 Y8.1707 Z0.0206
N4870 X16.0204 Y8.2352 Z0.0136
N4880 Y8.2359
N4890 Y8.2366
N4900 Y8.2373
N4910 X16.0208 Y8.238
N4920 X16.0209 Y8.2387
N4930 X15.999 Y8.5353
N4940 X16.021 Y8.2394
N4950 X16.0272 Y8.2889 Z0.0079
N4960 X16.0294 Y8.3388 Z0.0027
N4970 X16.0277 Y8.3886 Z-0.0026
N4980 X16.022 Y8.4382 Z-0.0078
N4990 X16.0124 Y8.4872 Z-0.013
N5000 X15.999 Y8.5353 Z-0.0183
N5010 X15.9742 Y8.5909 Z-0.0247
N5020 X15.9402 Y8.6413 Z-0.0311
N5030 X15.8978 Y8.6851 Z-0.0375
N5040 X15.8485 Y8.7208 Z-0.0439
N5050 X15.7937 Y8.7474 Z-0.0503
N5060 X15.7352 Y8.764 Z-0.0567
N5070 X15.6746 Y8.7702 Z-0.0631
N5080 X15.6735 Z-0.0632
N5090 X15.6725 Z-0.0633
N5100 X15.6714 Z-0.0634
N5110 X15.6703 Z-0.0635
N5120 X15.6693 Z-0.0636
N5130 X15.6682 Z-0.0638
N5140 X15.6103 Z-0.0699
N5150 X15.5531 Y8.761 Z-0.0759
N5160 X15.4983 Y8.7422 Z-0.082
N5170 X15.4473 Y8.7147 Z-0.0881
N5180 X15.4016 Y8.6792 Z-0.0942
N5190 X15.3623 Y8.6366 Z-0.1003
N5200 X15.3376 Y8.596 Z-0.1053
N5210 X15.3171 Y8.5532 Z-0.1103
N5220 X15.301 Y8.5084 Z-0.1153
N5230 X15.2895 Y8.4623 Z-0.1203
N5240 X15.2827 Y8.4153 Z-0.1253
N5250 X15.2806 Y8.3679 Z-0.1303
N5260 Y8.3667 Z-0.1304
N5270 Y8.3655 Z-0.1305
N5280 Y8.3643 Z-0.1306
N5290 Y8.3631 Z-0.1308
N5300 Y8.3618 Z-0.1309
N5310 Y8.3607 Z-0.131
N5320 X15.2793 Y8.3127 Z-0.1361
N5330 X15.2831 Y8.2649 Z-0.1411
N5340 X15.2915 Y8.2176 Z-0.1461
N5350 X15.3045 Y8.1715 Z-0.1512
N5360 X15.3221 Y8.1268 Z-0.1562
N5370 X15.344 Y8.0842 Z-0.1613
N5380 X15.3808 Y8.035 Z-0.1677
N5390 X15.4255 Y7.9929 Z-0.1742
N5400 X15.4769 Y7.9592 Z-0.1806
N5410 X15.5333 Y7.9349 Z-0.1871
N5420 X15.5931 Y7.9208 Z-0.1935
N5430 X15.6544 Y7.9172 Z-0.2
N5440 X15.6448 Y8.2598
N5450 G02 X15.657 Y8.2599 I0.0122 J-0.4359
N5460 X15.6623 Y8.2599 I0. J-0.436
N5470 G03 X15.6625 Y8.2599 I0.0002 J0.0177
N5480 X15.6801 Y8.2755 I0. J0.0177
N5490 G02 X15.6828 Y8.2952 I0.433 J-0.0513
N5500 G03 X15.6867 Y8.3419 I-0.2834 J0.0467
N5510 X15.6745 Y8.4247 I-0.2873 J0.
N5520 X15.6697 Y8.4275 I-0.0048 J-0.0028
N5530 G02 X15.6398 Y8.4289 I0.0062 J0.436
N5540 G03 X15.6391 Y8.429 I-0.0007 J-0.0083
N5550 X15.6368 Y8.4287 I0. J-0.0084
N5560 X15.6233 Y8.3708 I0.117 J-0.0578
N5570 X15.6233 Y8.37 I0.1305 J0.
N5580 G02 X15.6233 Y8.3673 I-0.436 J-0.0027
N5590 X15.6222 Y8.3363 I-0.436 J0.
N5600 G03 X15.6219 Y8.3263 I0.1414 J-0.0101
N5610 X15.6369 Y8.2628 I0.1417 J0.
N5620 X15.6445 Y8.2598 I0.0076 J0.0079
N5630 X15.6448 Y8.2598 I0. J0.011
N5640 G01 X15.6467 Y8.1909
N5650 G02 X15.657 Y8.1911 I0.0103 J-0.3671
N5660 X15.6614 Y8.1911 I0. J-0.3672
N5670 G03 X15.6625 Y8.1911 I0.001 J0.0866
N5680 X15.7484 Y8.2674 I0. J0.0866
N5690 G02 X15.7508 Y8.284 I0.3646 J-0.0432
N5700 G03 X15.7555 Y8.3419 I-0.3514 J0.058
N5710 X15.7393 Y8.448 I-0.3561 J0.
N5720 X15.6707 Y8.4963 I-0.0697 J-0.0261
N5730 G02 X15.6455 Y8.4975 I0.0052 J0.3672
N5740 G03 X15.6391 Y8.4978 I-0.0064 J-0.077
N5750 X15.5832 Y8.4739 I0. J-0.0772
N5760 X15.5545 Y8.3708 I0.1707 J-0.1031
N5770 X15.5545 Y8.3696 I0.1994 J0.
N5780 G02 X15.5545 Y8.3673 I-0.3672 J-0.0023
N5790 X15.5536 Y8.3412 I-0.3672 J0.
N5800 G03 X15.553 Y8.3263 I0.2101 J-0.015
N5810 X15.5787 Y8.2255 I0.2106 J0.
N5820 X15.6445 Y8.1909 I0.0658 J0.0453
N5830 X15.6467 Y8.1909 I0. J0.0799
N5840 G01 X15.6506 Y8.0533
N5850 G02 X15.657 Y8.0534 I0.0064 J-0.2294
N5860 X15.6598 Y8.0534 I0. J-0.2295
N5870 G03 X15.6625 Y8.0534 I0.0027 J0.2243
N5880 X15.8852 Y8.2512 I0. J0.2243
N5890 G02 X15.8866 Y8.2615 I0.2279 J-0.027
N5900 G03 X15.8932 Y8.3419 I-0.4872 J0.0804
N5910 X15.8698 Y8.4921 I-0.4938 J0.
N5920 X15.6727 Y8.634 I-0.2002 J-0.0702
N5930 G02 X15.6569 Y8.6348 I0.0033 J0.2295
N5940 G03 X15.6391 Y8.6355 I-0.0178 J-0.2142
N5950 X15.4724 Y8.5562 I0. J-0.2149
N5960 X15.4168 Y8.3708 I0.2815 J-0.1854
N5970 X15.4168 Y8.3687 I0.3371 J0.
N5980 G02 X15.4168 Y8.3673 I-0.2295 J-0.0014
N5990 X15.4162 Y8.351 I-0.2295 J0.
N6000 G03 X15.4153 Y8.3263 I0.3474 J-0.0247
N6010 X15.4608 Y8.1542 I0.3483 J0.
N6020 X15.6445 Y8.0532 I0.1837 J0.1166
N6030 X15.6506 Y8.0533 I0. J0.2176
N6040 G01 X15.6545 Y7.9157
N6050 G02 X15.657 Y7.9157 I0.0026 J-0.0918
N6060 X15.6581 Y7.9157 I0. J-0.0918
N6070 G03 X15.6625 Y7.9157 I0.0043 J0.3619
N6080 X16.0219 Y8.235 I0. J0.362
N6090 G02 X16.0225 Y8.2391 I0.0912 J-0.0108
N6100 G03 X16.0309 Y8.3419 I-0.6231 J0.1028
N6110 X16.0004 Y8.5357 I-0.6315 J0.
N6120 X15.6746 Y8.7717 I-0.3308 J-0.1138
N6130 G02 X15.6683 Y8.772 I0.0013 J0.0918
N6140 G03 X15.6391 Y8.7732 I-0.0293 J-0.3514
N6150 X15.3611 Y8.6375 I0. J-0.3526
N6160 X15.2791 Y8.3708 I0.3928 J-0.2667
N6170 X15.2791 Y8.3678 I0.4748 J0.
N6180 G02 X15.2791 Y8.3673 I-0.0918 J-0.0006
N6190 X15.2789 Y8.3608 I-0.0918 J0.
N6200 G03 X15.2776 Y8.3263 I0.4848 J-0.0345
N6210 X15.3427 Y8.0834 I0.486 J0.
N6220 X15.6445 Y7.9155 I0.3018 J0.1874
N6230 X15.6545 Y7.9157 I0. J0.3553
N6240 G00 Z0.1
N6250 X15.832 Y6.8062
N6260 Z0.05
N6270 G01 X15.8469 Y6.8134 Z0.0483
N6280 X15.9002 Y6.8521 Z0.0413
N6290 X15.9456 Y6.9 Z0.0344
N6300 X15.9815 Y6.9552 Z0.0275
N6310 X16.0067 Y7.0161 Z0.0206
N6320 X16.0204 Y7.0806 Z0.0136
N6330 Y7.0813
N6340 Y7.082
N6350 Y7.0827
N6360 X16.0208 Y7.0834
N6370 X16.0209 Y7.0841
N6380 X15.999 Y7.3807
N6390 X16.021 Y7.0848
N6400 X16.0272 Y7.1343 Z0.0079
N6410 X16.0294 Y7.1842 Z0.0027
N6420 X16.0277 Y7.2341 Z-0.0026
N6430 X16.022 Y7.2836 Z-0.0078
N6440 X16.0124 Y7.3326 Z-0.013
N6450 X15.999 Y7.3807 Z-0.0183
N6460 X15.9742 Y7.4363 Z-0.0247
N6470 X15.9402 Y7.4867 Z-0.0311
N6480 X15.8978 Y7.5305 Z-0.0375
N6490 X15.8485 Y7.5662 Z-0.0439
N6500 X15.7937 Y7.5928 Z-0.0503
N6510 X15.7352 Y7.6094 Z-0.0567
N6520 X15.6746 Y7.6156 Z-0.0631
N6530 X15.6735 Z-0.0632
N6540 X15.6725 Z-0.0633
N6550 X15.6714 Z-0.0634
N6560 X15.6703 Z-0.0635
N6570 X15.6693 Z-0.0636
N6580 X15.6682 Z-0.0638
N6590 X15.6103 Z-0.0699
N6600 X15.5531 Y7.6064 Z-0.0759
N6610 X15.4983 Y7.5877 Z-0.082
N6620 X15.4473 Y7.5601 Z-0.0881
N6630 X15.4016 Y7.5246 Z-0.0942
N6640 X15.3623 Y7.482 Z-0.1003
N6650 X15.3376 Y7.4414 Z-0.1053
N6660 X15.3171 Y7.3986 Z-0.1103
N6670 X15.301 Y7.3539 Z-0.1153
N6680 X15.2895 Y7.3078 Z-0.1203
N6690 X15.2827 Y7.2607 Z-0.1253
N6700 X15.2806 Y7.2133 Z-0.1303
N6710 Y7.2121 Z-0.1304
N6720 Y7.2109 Z-0.1305
N6730 Y7.2097 Z-0.1306
N6740 Y7.2085 Z-0.1308
N6750 Y7.2073 Z-0.1309
N6760 Y7.2061 Z-0.131
N6770 X15.2793 Y7.1581 Z-0.1361
N6780 X15.2831 Y7.1103 Z-0.1411
N6790 X15.2915 Y7.0631 Z-0.1461
N6800 X15.3045 Y7.0169 Z-0.1512
N6810 X15.3221 Y6.9723 Z-0.1562
N6820 X15.344 Y6.9296 Z-0.1613
N6830 X15.3808 Y6.8804 Z-0.1677
N6840 X15.4255 Y6.8383 Z-0.1742
N6850 X15.4769 Y6.8047 Z-0.1806
N6860 X15.5333 Y6.7804 Z-0.1871
N6870 X15.5931 Y6.7662 Z-0.1935
N6880 X15.6544 Y6.7626 Z-0.2
N6890 X15.6448 Y7.1052
N6900 G02 X15.657 Y7.1054 I0.0122 J-0.4359
N6910 X15.6623 Y7.1053 I0. J-0.436
N6920 G03 X15.6625 Y7.1053 I0.0002 J0.0177
N6930 X15.6801 Y7.121 I0. J0.0177
N6940 G02 X15.6828 Y7.1406 I0.433 J-0.0513
N6950 G03 X15.6867 Y7.1873 I-0.2834 J0.0467
N6960 X15.6745 Y7.2701 I-0.2873 J0.
N6970 X15.6697 Y7.2729 I-0.0048 J-0.0028
N6980 G02 X15.6398 Y7.2743 I0.0062 J0.436
N6990 G03 X15.6391 Y7.2744 I-0.0007 J-0.0083
N7000 X15.6368 Y7.2741 I0. J-0.0084
N7010 X15.6233 Y7.2162 I0.117 J-0.0578
N7020 X15.6233 Y7.2154 I0.1305 J0.
N7030 G02 X15.6233 Y7.2127 I-0.436 J-0.0027
N7040 X15.6222 Y7.1817 I-0.436 J0.
N7050 G03 X15.6219 Y7.1717 I0.1414 J-0.0101
N7060 X15.6369 Y7.1083 I0.1417 J0.
N7070 X15.6445 Y7.1052 I0.0076 J0.0079
N7080 X15.6448 Y7.1052 I0. J0.011
N7090 G01 X15.6467 Y7.0364
N7100 G02 X15.657 Y7.0365 I0.0103 J-0.3671
N7110 X15.6614 Y7.0365 I0. J-0.3672
N7120 G03 X15.6625 Y7.0365 I0.001 J0.0866
N7130 X15.7484 Y7.1129 I0. J0.0866
N7140 G02 X15.7508 Y7.1294 I0.3646 J-0.0432
N7150 G03 X15.7555 Y7.1873 I-0.3514 J0.058
N7160 X15.7393 Y7.2935 I-0.3561 J0.
N7170 X15.6707 Y7.3417 I-0.0697 J-0.0261
N7180 G02 X15.6455 Y7.343 I0.0052 J0.3672
N7190 G03 X15.6391 Y7.3432 I-0.0064 J-0.077
N7200 X15.5832 Y7.3193 I0. J-0.0772
N7210 X15.5545 Y7.2162 I0.1707 J-0.1031
N7220 X15.5545 Y7.215 I0.1994 J0.
N7230 G02 X15.5545 Y7.2127 I-0.3672 J-0.0023
N7240 X15.5536 Y7.1866 I-0.3672 J0.
N7250 G03 X15.553 Y7.1717 I0.2101 J-0.015
N7260 X15.5787 Y7.071 I0.2106 J0.
N7270 X15.6445 Y7.0363 I0.0658 J0.0453
N7280 X15.6467 Y7.0364 I0. J0.0799
N7290 G01 X15.6506 Y6.8987
N7300 G02 X15.657 Y6.8988 I0.0064 J-0.2294
N7310 X15.6598 Y6.8988 I0. J-0.2295
N7320 G03 X15.6625 Y6.8988 I0.0027 J0.2243
N7330 X15.8852 Y7.0966 I0. J0.2243
N7340 G02 X15.8866 Y7.107 I0.2279 J-0.027
N7350 G03 X15.8932 Y7.1873 I-0.4872 J0.0804
N7360 X15.8698 Y7.3375 I-0.4938 J0.
N7370 X15.6727 Y7.4794 I-0.2002 J-0.0702
N7380 G02 X15.6569 Y7.4802 I0.0033 J0.2295
N7390 G03 X15.6391 Y7.4809 I-0.0178 J-0.2142
N7400 X15.4724 Y7.4017 I0. J-0.2149
N7410 X15.4168 Y7.2162 I0.2815 J-0.1854
N7420 X15.4168 Y7.2141 I0.3371 J0.
N7430 G02 X15.4168 Y7.2127 I-0.2295 J-0.0014
N7440 X15.4162 Y7.1964 I-0.2295 J0.
N7450 G03 X15.4153 Y7.1717 I0.3474 J-0.0247
N7460 X15.4608 Y6.9996 I0.3483 J0.
N7470 X15.6445 Y6.8986 I0.1837 J0.1166
N7480 X15.6506 Y6.8987 I0. J0.2176
N7490 G01 X15.6545 Y6.7611
N7500 G02 X15.657 Y6.7611 I0.0026 J-0.0918
N7510 X15.6581 Y6.7611 I0. J-0.0918
N7520 G03 X15.6625 Y6.7611 I0.0043 J0.3619
N7530 X16.0219 Y7.0804 I0. J0.362
N7540 G02 X16.0225 Y7.0846 I0.0912 J-0.0108
N7550 G03 X16.0309 Y7.1873 I-0.6231 J0.1028
N7560 X16.0004 Y7.3812 I-0.6315 J0.
N7570 X15.6746 Y7.6171 I-0.3308 J-0.1138
N7580 G02 X15.6683 Y7.6174 I0.0013 J0.0918
N7590 G03 X15.6391 Y7.6186 I-0.0293 J-0.3514
N7600 X15.3611 Y7.4829 I0. J-0.3526
N7610 X15.2791 Y7.2162 I0.3928 J-0.2667
N7620 X15.2791 Y7.2133 I0.4748 J0.
N7630 G02 X15.2791 Y7.2127 I-0.0918 J-0.0006
N7640 X15.2789 Y7.2062 I-0.0918 J0.
N7650 G03 X15.2776 Y7.1717 I0.4848 J-0.0345
N7660 X15.3427 Y6.9288 I0.486 J0.
N7670 X15.6445 Y6.7609 I0.3018 J0.1874
N7680 X15.6545 Y6.7611 I0. J0.3553
N7690 G00 Z0.1
N7700 X16.01 Y5.7842
N7710 Z0.05
N7720 G01 Y5.7879 Z0.0496
N7730 X15.9718 Z0.0456
N7740 X15.9555 Y5.7894 Z0.0439
N7750 X15.9397 Y5.7936 Z0.0422
N7760 X15.925 Y5.8006 Z0.0404
N7770 X15.9116 Y5.81 Z0.0387
N7780 X15.9002 Y5.8216 Z0.037
N7790 X15.8909 Y5.835 Z0.0353
N7800 X15.8841 Y5.8499 Z0.0336
N7810 X15.88 Y5.8657 Z0.0319
N7820 X15.8788 Y5.882 Z0.0301
N7830 X15.8804 Y5.8982 Z0.0284
N7840 X15.8849 Y5.9139 Z0.0267
N7850 X15.892 Y5.9286 Z0.025
N7860 X15.9016 Y5.9419 Z0.0233
N7870 X15.9133 Y5.9532 Z0.0216
N7880 X15.9237 Y5.9618 Z0.0201
N7890 X15.9339 Y5.9707 Z0.0187
N7900 X15.9438 Y5.9798 Z0.0173
N7910 X15.9536 Y5.9892 Z0.0159
N7920 X15.9631 Y5.9988 Z0.0145
N7930 X15.9723 Y6.0087 Z0.013
N7940 X15.9724 Y6.0088
N7950 X15.9725 Y6.0089
N7960 X15.9727 Y6.009
N7970 X15.9781 Y6.0152 Z0.0121
N7980 X15.9833 Y6.0215 Z0.0113
N7990 X15.9882 Y6.028 Z0.0104
N8000 X15.9929 Y6.0348 Z0.0095
N8010 X15.9973 Y6.0417 Z0.0087
N8020 X16.0015 Y6.0488 Z0.0078
N8030 X16.0193 Y6.0952 Z0.0026
N8040 X16.0286 Y6.1441 Z-0.0026
N8050 X16.029 Y6.1939 Z-0.0079
N8060 X16.0206 Y6.243 Z-0.0131
N8070 X16.0035 Y6.2897 Z-0.0183
N8080 X15.9784 Y6.3327 Z-0.0236
N8090 X15.9565 Y6.3567 Z-0.027
N8100 X15.9322 Y6.3784 Z-0.0304
N8110 X15.9059 Y6.3974 Z-0.0338
N8120 X15.8777 Y6.4137 Z-0.0372
N8130 X15.8481 Y6.4271 Z-0.0407
N8140 X15.8172 Y6.4373 Z-0.0441
N8150 X15.8171
N8160 X15.817
N8170 X15.8168
N8180 X15.8167
N8190 X15.8166
N8200 X15.4734 Y6.4383
N8210 X15.8164 Y6.4375
N8220 X15.7601 Y6.4509 Z-0.0502
N8230 X15.7028 Y6.459 Z-0.0563
N8240 X15.6449 Y6.4618 Z-0.0624
N8250 X15.5871 Y6.4593 Z-0.0685
N8260 X15.5298 Y6.4514 Z-0.0746
N8270 X15.4734 Y6.4383 Z-0.0807
N8280 X15.4289 Y6.4207 Z-0.0857
N8290 X15.3883 Y6.3956 Z-0.0907
N8300 X15.3526 Y6.3638 Z-0.0957
N8310 X15.3231 Y6.3262 Z-0.1008
N8320 X15.3006 Y6.284 Z-0.1058
N8330 X15.2858 Y6.2386 Z-0.1108
N8340 X15.2791 Y6.1912 Z-0.1158
N8350 X15.2809 Y6.1435 Z-0.1209
N8360 Y6.1427
N8370 Y6.1418
N8380 Y6.141
N8390 Y6.1402
N8400 Y6.1394
N8410 Y6.1385
N8420 X15.2855 Y6.1077 Z-0.1247
N8430 X15.2934 Y6.0776 Z-0.1279
N8440 X15.3049 Y6.0487 Z-0.1312
N8450 X15.3199 Y6.0214 Z-0.1345
N8460 X15.3382 Y5.9962 Z-0.1377
N8470 X15.3594 Y5.9734 Z-0.141
N8480 X15.3706 Y5.9607 Z-0.1428
N8490 X15.3794 Y5.946 Z-0.1446
N8500 X15.3853 Y5.9301 Z-0.1464
N8510 X15.3881 Y5.9133 Z-0.1482
N8520 X15.3879 Y5.8963 Z-0.15
N8530 X15.3846 Y5.8796 Z-0.1517
N8540 X15.3783 Y5.8638 Z-0.1535
N8550 X15.3692 Y5.8494 Z-0.1553
N8560 X15.3577 Y5.8369 Z-0.1571
N8570 X15.3441 Y5.8267 Z-0.1589
N8580 X15.3288 Y5.8192 Z-0.1607
N8590 X15.3124 Y5.8145 Z-0.1625
N8600 X15.2955 Y5.813 Z-0.1643
N8610 X14.9555 Z-0.2
N8620 X14.9591 Y5.8141
N8630 X15.2955
N8640 G03 X15.3873 Y5.9059 I0. J0.0918
N8650 X15.3759 Y5.9501 I-0.0918 J0.
N8660 G01 X15.6389 Y6.0359
N8670 G02 X15.7409 Y6.1665 I0.3329 J-0.155
N8680 G03 X15.7475 Y6.1719 I-0.1687 J0.2087
N8690 X15.7441 Y6.173 I-0.0154 J-0.0423
N8700 G02 X15.7409 Y6.1739 I0.0979 J0.3539
N8710 G03 X15.6435 Y6.1876 I-0.0973 J-0.3396
N8720 X15.5532 Y6.1759 I0. J-0.3533
N8730 G02 X15.5542 Y6.1665 I-0.3646 J-0.0439
N8740 X15.6389 Y6.0359 I-0.2587 J-0.2606
N8750 G01 X15.4946 Y5.7919
N8760 X15.7602
N8770 G02 X15.7423 Y5.8809 I0.2116 J0.089
N8780 X15.8275 Y6.0594 I0.2295 J0.
N8790 G03 X15.8716 Y6.1009 I-0.2553 J0.3158
N8800 G02 X15.8725 Y6.1018 I0.1692 J-0.155
N8810 G03 X15.8806 Y6.1124 I-0.0506 J0.0469
N8820 X15.8934 Y6.1714 I-0.1289 J0.059
N8830 X15.8698 Y6.2497 I-0.1417 J0.
N8840 X15.7808 Y6.3057 I-0.1377 J-0.12
N8850 G02 X15.7788 Y6.3063 I0.0612 J0.2212
N8860 G03 X15.6435 Y6.3253 I-0.1353 J-0.472
N8870 X15.5115 Y6.3072 I0. J-0.491
N8880 X15.4153 Y6.1772 I0.0397 J-0.13
N8890 X15.4164 Y6.1604 I0.1359 J0.
N8900 G02 X15.4176 Y6.1482 I-0.2277 J-0.0284
N8910 G03 X15.4533 Y6.0726 I0.1151 J0.0082
N8920 G02 X15.525 Y5.9059 I-0.1578 J-0.1666
N8930 X15.4946 Y5.7919 I-0.2295 J0.
N8940 G01 X14.9543 Y5.8141
N8950 Y5.6542
N8960 X16.0112
N8970 Y5.7891
N8980 X15.9718
N8990 G02 X15.88 Y5.8809 I0. J0.0918
N9000 X15.914 Y5.9523 I0.0918 J0.
N9010 G03 X15.9732 Y6.0079 I-0.3419 J0.4229
N9020 G02 X15.9735 Y6.0082 I0.0677 J-0.062
N9030 G03 X16.0025 Y6.0482 I-0.1516 J0.1404
N9040 X16.0311 Y6.1714 I-0.2508 J0.1232
N9050 X15.9793 Y6.3334 I-0.2794 J0.
N9060 X15.8175 Y6.4384 I-0.2472 J-0.2037
N9070 G02 X15.8167 Y6.4387 I0.0245 J0.0885
N9080 G03 X15.6435 Y6.463 I-0.1732 J-0.6044
N9090 X15.473 Y6.4395 I0. J-0.6287
N9100 X15.2776 Y6.1772 I0.0782 J-0.2622
N9110 X15.2797 Y6.1433 I0.2736 J0.
N9120 G02 X15.2802 Y6.1385 I-0.0911 J-0.0114
N9130 G03 X15.3586 Y5.9726 I0.2524 J0.0179
N9140 G02 X15.3873 Y5.9059 I-0.0631 J-0.0666
N9150 X15.2955 Y5.8141 I-0.0918 J0.
N9160 G01 X14.9543
N9170 G00 Z0.1
N9180 X13.1105 Y6.6935
N9190 Z0.05
N9200 G01 X13.0938 Y6.7139 Z0.0472
N9210 X13.0657 Y6.7637 Z0.0412
N9220 X13.0467 Y6.8176 Z0.0352
N9230 X13.0374 Y6.874 Z0.0292
N9240 X13.0361 Y6.932 Z0.0231
N9250 X13.0453 Y6.9892 Z0.017
N9260 X13.0647 Y7.0439 Z0.0109
N9270 X13.0936 Y7.0942 Z0.0048
N9280 X13.1311 Y7.1384 Z-0.0013
N9290 X13.176 Y7.1752 Z-0.0074
N9300 X13.1767 Y7.1757
N9310 X13.1774 Y7.1762
N9320 X13.1781 Y7.1766
N9330 X13.1788 Y7.1771
N9340 X13.1796 Y7.1775
N9350 X13.1803 Y7.178
N9360 X13.1825 Y7.1793 Z-0.0082
N9370 X13.1847 Y7.1806 Z-0.0084
N9380 X13.1869 Y7.1818 Z-0.0087
N9390 X13.1891 Y7.1831 Z-0.009
N9400 X13.1913 Y7.1843 Z-0.0092
N9410 X13.1935 Y7.1856 Z-0.0095
N9420 X13.1591 Y7.3445 Z-0.0266
N9430 X13.1337 Y7.3295 Z-0.0297
N9440 X13.1093 Y7.3129 Z-0.0328
N9450 X13.086 Y7.2947 Z-0.0359
N9460 X13.064 Y7.2751 Z-0.039
N9470 X13.0433 Y7.254 Z-0.0421
N9480 X13.024 Y7.2317 Z-0.0452
N9490 X13.0051 Y7.2036 Z-0.0488
N9500 X12.9885 Y7.174 Z-0.0523
N9510 X12.9745 Y7.1431 Z-0.0559
N9520 X12.9631 Y7.1112 Z-0.0595
N9530 X12.9543 Y7.0785 Z-0.063
N9540 X12.9483 Y7.0452 Z-0.0666
N9550 Y7.0446
N9560 Y7.044
N9570 Y7.0434
N9580 Y7.0428
N9590 Y7.0422
N9600 X12.9478 Y7.0416
N9610 X12.9392 Y6.9785 Z-0.0737
N9620 X12.9358 Y6.9148 Z-0.0804
N9630 X12.9376 Y6.8511 Z-0.0871
N9640 X12.9445 Y6.7878 Z-0.0938
N9650 X12.9564 Y6.7252 Z-0.1005
N9660 X12.9734 Y6.6637 Z-0.1072
N9670 X13.0049 Y6.5938 Z-0.1152
N9680 X13.0484 Y6.5305 Z-0.1233
N9690 X13.1023 Y6.476 Z-0.1313
N9700 X13.1652 Y6.432 Z-0.1394
N9710 X13.2348 Y6.3998 Z-0.1475
N9720 X13.309 Y6.3805 Z-0.1555
N9730 X13.3096
N9740 X13.3101
N9750 X13.3106
N9760 X13.3111
N9770 X13.3116
N9780 X13.3121 Y6.38
N9790 X13.3812 Y6.3691 Z-0.1632
N9800 X13.4511 Y6.3642 Z-0.1706
N9810 X13.521 Y6.3651 Z-0.1779
N9820 X13.5907 Y6.372 Z-0.1853
N9830 X13.6595 Y6.3847 Z-0.1926
N9840 X13.727 Y6.4033 Z-0.2
N9850 X13.7276 Y6.4015
N9860 G03 X13.9732 Y6.6106 I-0.1566 J0.4329
N9870 X14.031 Y6.8932 I-0.6628 J0.2826
N9880 X14.0303 Y6.9244 I-0.7206 J0.
N9890 G02 X14.0302 Y6.9284 I0.0917 J0.004
N9900 X14.0302 Y6.9313 I0.0918 J0.
N9910 G03 X14.0305 Y6.9488 I-0.55 J0.0175
N9920 X13.9919 Y7.1513 I-0.5503 J0.
N9930 X13.7528 Y7.3684 I-0.3683 J-0.1654
N9940 G01 X13.7032 Y7.21
N9950 G02 X13.774 Y7.1766 I-0.2085 J-0.5347
N9960 X13.8954 Y7.0507 I-0.1426 J-0.259
N9970 X13.8975 Y7.0462 I-0.082 J-0.0413
N9980 X13.9282 Y6.8996 I-0.3348 J-0.1466
N9990 X13.9265 Y6.8642 I-0.3655 J0.
N10000 X13.7966 Y6.6293 I-0.3039 J0.0147
N10010 X13.7932 Y6.6271 I-0.0525 J0.0753
N10020 X13.7109 Y6.5893 I-0.1808 J0.2853
N10030 X13.7106 Y6.5892 I-0.0268 J0.0878
N10040 X13.5152 Y6.5605 I-0.1953 J0.6498
N10050 X13.504 Y6.5605 I0. J0.6786
N10060 X13.4724 Y6.5599 I-0.0316 J0.7607
N10070 X13.2779 Y6.5852 I0. J0.7614
N10080 X13.2769 Y6.5854 I0.0235 J0.0888
N10090 X13.0392 Y6.8742 I0.0864 J0.3134
N10100 X13.0372 Y6.9099 I0.3169 J0.0357
N10110 X13.177 Y7.1737 I0.3189 J0.
N10120 X13.1812 Y7.1764 I0.0516 J-0.076
N10130 X13.1955 Y7.1846 I0.2005 J-0.3335
N10140 G01 X13.1604 Y7.3472
N10150 G03 X13.0225 Y7.2328 I0.215 J-0.3991
N10160 X12.9465 Y7.0454 I0.3306 J-0.2432
N10170 G02 X12.946 Y7.042 I-0.0909 J0.0125
N10180 G03 X12.934 Y6.9045 I0.7786 J-0.1374
N10190 X12.9717 Y6.6632 I0.7906 J0.
N10200 X13.3087 Y6.3787 I0.4079 J0.1414
N10210 G02 X13.3117 Y6.3782 I-0.0151 J-0.0906
N10220 G03 X13.4747 Y6.362 I0.163 J0.8121
N10230 X13.7276 Y6.4015 I0. J0.8283
N10240 G00 Z0.1
N10250 X13.3221 Y5.9779
N10260 Z0.05
N10270 G01 X12.9547 Z0.0114
N10280 Y5.7997 Z-0.0073
N10290 X13.5501 Z-0.0699
N10300 X13.5668 Y5.7981 Z-0.0717
N10310 X13.5829 Y5.7936 Z-0.0734
N10320 X13.5979 Y5.7863 Z-0.0752
N10330 X13.6113 Y5.7764 Z-0.077
N10340 X13.6228 Y5.7642 Z-0.0787
N10350 X13.6318 Y5.7502 Z-0.0805
N10360 X13.6382 Y5.7347 Z-0.0822
N10370 X13.6417 Y5.7184 Z-0.084
N10380 X13.6421 Y5.7016 Z-0.0857
N10390 X13.6396 Y5.6851 Z-0.0875
N10400 X13.6341 Y5.6693 Z-0.0893
N10410 X13.6258 Y5.6548 Z-0.091
N10420 X13.615 Y5.642 Z-0.0928
N10430 X13.6021 Y5.6314 Z-0.0945
N10440 X12.9547 Y5.1887 Z-0.177
N10450 Y4.9695 Z-0.2
N10460 X13.7735 Y5.7602
N10470 X13.8735 Y5.8286
N10480 Y5.8406
N10490 X13.7371
N10500 G02 X13.7735 Y5.7602 I-0.187 J-0.1331
N10510 G01 X13.092 Y5.1068
N10520 X13.2321
N10530 G02 X13.1957 Y5.1872 I0.187 J0.1331
N10540 G01 X13.092 Y5.1163
N10550 Y5.1068
N10560 X12.9543 Y4.9691
N10570 X14.0112
N10580 Y5.1481
N10590 X13.4191
N10600 G02 X13.3273 Y5.2399 I0. J0.0918
N10610 X13.3673 Y5.3157 I0.0918 J0.
N10620 G01 X14.0112 Y5.7559
N10630 Y5.9783
N10640 X12.9543
N10650 Y5.7993
N10660 X13.5501
N10670 G02 X13.6419 Y5.7075 I0. J-0.0918
N10680 X13.6019 Y5.6317 I-0.0918 J0.
N10690 G01 X12.9543 Y5.1889
N10700 Y4.9691
N10710 G00 Z0.1
N10720 X13.8668 Y4.3129
N10730 Z0.05
N10740 G01 X13.8823 Y4.2912 Z0.0472
N10750 X13.897 Y4.2653 Z0.0441
N10760 X13.8974 Y4.2645
N10770 X13.8977 Y4.2638
N10780 X13.8981 Y4.263
N10790 X13.8984 Y4.2622
N10800 X13.8988 Y4.2615
N10810 X13.8991 Y4.2607
N10820 X13.9104 Y4.2316 Z0.0403
N10830 X13.9192 Y4.2017 Z0.037
N10840 X13.9254 Y4.1711 Z0.0337
N10850 X13.929 Y4.1401 Z0.0304
N10860 X13.93 Y4.1089 Z0.0271
N10870 X13.9283 Y4.0778 Z0.0239
N10880 X13.9225 Y4.0316 Z0.019
N10890 X13.9098 Y3.9868 Z0.0141
N10900 X13.8904 Y3.9445 Z0.0092
N10910 X13.8648 Y3.9056 Z0.0043
N10920 X13.8337 Y3.871 Z-0.0006
N10930 X13.7976 Y3.8416 Z-0.0055
N10940 X13.7971 Y3.8412
N10950 X13.7965 Y3.8408
N10960 X13.7959 Y3.8404
N10970 X13.7953 Y3.84
N10980 X13.7948 Y3.8396
N10990 X13.7942 Y3.8393
N11000 X13.7812 Y3.8314 Z-0.0075
N11010 X13.7678 Y3.8241 Z-0.0091
N11020 X13.7541 Y3.8175 Z-0.0107
N11030 X13.7401 Y3.8115 Z-0.0123
N11040 X13.7259 Y3.806 Z-0.0139
N11050 X13.7114 Y3.8013 Z-0.0155
N11060 X13.7113
N11070 X13.7112
N11080 X13.7111
N11090 X13.6773 Y3.792 Z-0.0192
N11100 X13.6432 Y3.7845 Z-0.0229
N11110 X13.6087 Y3.7788 Z-0.0266
N11120 X13.5739 Y3.7749 Z-0.0303
N11130 X13.539 Y3.7728 Z-0.0339
N11140 X13.504 Y3.7725 Z-0.0376
N11150 X13.4659 Y3.7719 Z-0.0416
N11160 X13.4278 Y3.7731 Z-0.0456
N11170 X13.3898 Y3.7763 Z-0.0496
N11180 X13.352 Y3.7814 Z-0.0536
N11190 X13.3145 Y3.7883 Z-0.0577
N11200 X13.2774 Y3.7972 Z-0.0617
N11210 X13.2773
N11220 X13.2771
N11230 X13.2769
N11240 X13.2768
N11250 X13.2766
N11260 X13.2765
N11270 X13.2229 Y3.8174 Z-0.0678
N11280 X13.1736 Y3.8464 Z-0.0738
N11290 X13.1301 Y3.8835 Z-0.0798
N11300 X13.0938 Y3.9276 Z-0.0858
N11310 X13.0657 Y3.9774 Z-0.0918
N11320 X13.0467 Y4.0313 Z-0.0978
N11330 X13.0374 Y4.0877 Z-0.1038
N11340 X13.0361 Y4.1457 Z-0.1099
N11350 X13.0453 Y4.203 Z-0.116
N11360 X13.0647 Y4.2576 Z-0.1221
N11370 X13.0936 Y4.3079 Z-0.1282
N11380 X13.1311 Y4.3522 Z-0.1343
N11390 X13.176 Y4.389 Z-0.1404
N11400 X13.1767 Y4.3894
N11410 X13.1774 Y4.3899
N11420 X13.1781 Y4.3904
N11430 X13.1788 Y4.3908
N11440 X13.1796 Y4.3913
N11450 X13.1803 Y4.3917
N11460 X13.1825 Y4.393 Z-0.1412
N11470 X13.1847 Y4.3943 Z-0.1415
N11480 X13.1869 Y4.3956 Z-0.1417
N11490 X13.1891 Y4.3968 Z-0.142
N11500 X13.1913 Y4.3981 Z-0.1423
N11510 X13.1935 Y4.3993 Z-0.1425
N11520 X13.1591 Y4.5582 Z-0.1596
N11530 X13.1337 Y4.5433 Z-0.1627
N11540 X13.1093 Y4.5266 Z-0.1658
N11550 X13.086 Y4.5085 Z-0.1689
N11560 X13.064 Y4.4888 Z-0.1721
N11570 X13.0433 Y4.4678 Z-0.1752
N11580 X13.024 Y4.4454 Z-0.1783
N11590 X13.0051 Y4.4173 Z-0.1818
N11600 X12.9885 Y4.3877 Z-0.1854
N11610 X12.9745 Y4.3569 Z-0.1889
N11620 X12.9631 Y4.325 Z-0.1925
N11630 X12.9543 Y4.2923 Z-0.1961
N11640 X12.9483 Y4.2589 Z-0.1996
N11650 Y4.2583
N11660 Y4.2577
N11670 Y4.2571
N11680 Y4.2566
N11690 Y4.256
N11700 X12.9478 Y4.2554
N11710 X12.946 Y4.2557
N11720 G03 X12.934 Y4.1183 I0.7786 J-0.1374
N11730 X12.9717 Y3.8769 I0.7906 J0.
N11740 X13.3087 Y3.5925 I0.4079 J0.1414
N11750 G02 X13.3117 Y3.5919 I-0.0151 J-0.0906
N11760 G03 X13.4747 Y3.5757 I0.163 J0.8121
N11770 X13.7276 Y3.6153 I0. J0.8283
N11780 X13.9732 Y3.8243 I-0.1566 J0.4329
N11790 X14.031 Y4.107 I-0.6628 J0.2826
N11800 X14.0303 Y4.1381 I-0.7206 J0.
N11810 G02 X14.0302 Y4.1421 I0.0917 J0.004
N11820 X14.0302 Y4.145 I0.0918 J0.
N11830 G03 X14.0305 Y4.1625 I-0.55 J0.0175
N11840 X13.9919 Y4.365 I-0.5503 J0.
N11850 X13.7528 Y4.5821 I-0.3683 J-0.1654
N11860 G01 X13.7032 Y4.4237
N11870 G02 X13.774 Y4.3904 I-0.2085 J-0.5347
N11880 X13.8954 Y4.2645 I-0.1426 J-0.259
N11890 X13.8975 Y4.26 I-0.082 J-0.0413
N11900 X13.9282 Y4.1133 I-0.3348 J-0.1466
N11910 X13.9265 Y4.0779 I-0.3655 J0.
N11920 X13.7966 Y3.843 I-0.3039 J0.0147
N11930 X13.7932 Y3.8408 I-0.0525 J0.0753
N11940 X13.7109 Y3.803 I-0.1808 J0.2853
N11950 X13.7106 Y3.8029 I-0.0268 J0.0878
N11960 X13.5152 Y3.7742 I-0.1953 J0.6498
N11970 X13.504 Y3.7743 I0. J0.6786
N11980 X13.4724 Y3.7736 I-0.0316 J0.7607
N11990 X13.2779 Y3.7989 I0. J0.7614
N12000 X13.2769 Y3.7992 I0.0235 J0.0888
N12010 X13.0392 Y4.0879 I0.0864 J0.3134
N12020 X13.0372 Y4.1236 I0.3169 J0.0357
N12030 X13.177 Y4.3875 I0.3189 J0.
N12040 X13.1812 Y4.3902 I0.0516 J-0.076
N12050 X13.1955 Y4.3984 I0.2005 J-0.3335
N12060 G01 X13.1604 Y4.561
N12070 G03 X13.0225 Y4.4465 I0.215 J-0.3991
N12080 X12.9465 Y4.2592 I0.3306 J-0.2432
N12090 G02 X12.946 Y4.2557 I-0.0909 J0.0125
N12100 G00 Z0.1
N12110 X3.8174 Y4.5445
N12120 Z0.05
N12130 G01 X3.7997 Y4.5549 Z0.0478
N12140 X3.7993 Y4.5551
N12150 X3.7989 Y4.5553
N12160 X3.7985 Y4.5555
N12170 X3.7981 Y4.5557
N12180 X3.7977 Y4.5559
N12190 X3.7974 Y4.5561
N12200 X3.7972
N12210 X3.797
N12220 X3.7968
N12230 X3.7966
N12240 X3.7964
N12250 X3.7963
N12260 X3.7623 Y4.3993 Z0.0305
N12270 X3.7792 Y4.3892 Z0.0284
N12280 X3.7954 Y4.3779 Z0.0264
N12290 X3.8109 Y4.3655 Z0.0243
N12300 X3.8254 Y4.3522 Z0.0222
N12310 X3.839 Y4.3378 Z0.0201
N12320 X3.8516 Y4.3226 Z0.0181
N12330 X3.8517 Y4.3224
N12340 X3.8519 Y4.3222
N12350 X3.852 Y4.322
N12360 X3.8522 Y4.3219
N12370 X3.8523 Y4.3217
N12380 X3.8524 Y4.3215
N12390 X3.8859 Y4.2668 Z0.0112
N12400 X3.9085 Y4.2069 Z0.0044
N12410 X3.9195 Y4.1437 Z-0.0023
N12420 X3.9185 Y4.0797 Z-0.009
N12430 X3.9055 Y4.0169 Z-0.0158
N12440 X3.8811 Y3.9577 Z-0.0225
N12450 X3.8808 Y3.9572
N12460 X3.8805 Y3.9567
N12470 X3.8803 Y3.9562
N12480 X3.88 Y3.9557
N12490 X3.8797 Y3.9552
N12500 X3.6382 Y3.7871
N12510 X3.8794 Y3.9547
N12520 X3.8511 Y3.9128 Z-0.0282
N12530 X3.8169 Y3.8756 Z-0.0335
N12540 X3.7776 Y3.8438 Z-0.0388
N12550 X3.7341 Y3.8181 Z-0.0441
N12560 X3.6873 Y3.7991 Z-0.0494
N12570 X3.6382 Y3.7871 Z-0.0547
N12580 X3.5734 Y3.7777 Z-0.0616
N12590 X3.5082 Y3.7729 Z-0.0685
N12600 X3.4428 Y3.7727 Z-0.0754
N12610 X3.3775 Y3.7773 Z-0.0822
N12620 X3.3128 Y3.7865 Z-0.0891
N12630 X3.2488 Y3.8003 Z-0.096
N12640 X3.2486
N12650 X3.2483
N12660 X3.2481
N12670 X3.2478
N12680 X3.2475
N12690 X3.2473
N12700 X3.2006 Y3.8177 Z-0.1014
N12710 X3.1575 Y3.8422 Z-0.1066
N12720 X3.1191 Y3.8737 Z-0.1118
N12730 X3.0866 Y3.9112 Z-0.117
N12740 X3.0607 Y3.9536 Z-0.1222
N12750 X3.0424 Y3.9997 Z-0.1274
N12760 Y3.9999
N12770 Y4.0001
N12780 Y4.0004
N12790 Y4.0006
N12800 Y4.0008
N12810 X3.0347 Y4.192
N12820 X3.042 Y4.001
N12830 X3.0343 Y4.0323 Z-0.131
N12840 X3.0293 Y4.064 Z-0.1344
N12850 X3.0267 Y4.0961 Z-0.1377
N12860 Y4.1282 Z-0.1411
N12870 X3.0294 Y4.1603 Z-0.1445
N12880 X3.0347 Y4.192 Z-0.1479
N12890 X3.0438 Y4.2276 Z-0.1517
N12900 X3.0574 Y4.2617 Z-0.1556
N12910 X3.0753 Y4.2938 Z-0.1595
N12920 X3.0973 Y4.3233 Z-0.1633
N12930 X3.1228 Y4.3497 Z-0.1672
N12940 X3.1515 Y4.3726 Z-0.171
N12950 X3.1517 Y4.3727
N12960 X3.1519 Y4.3728
N12970 X3.152 Y4.373
N12980 X3.1676 Y4.3832 Z-0.1731
N12990 X3.1835 Y4.3929 Z-0.175
N13000 X3.1998 Y4.402 Z-0.177
N13010 X3.2164 Y4.4105 Z-0.1789
N13020 X3.2333 Y4.4183 Z-0.1809
N13030 X3.2505 Y4.4255 Z-0.1829
N13040 X3.2018 Y4.5811 Z-0.2
N13050 X3.2028 Y4.5833
N13060 G03 X3.0456 Y4.4845 I0.172 J-0.4482
N13070 X2.9312 Y4.2332 I0.2817 J-0.28
N13080 G02 X2.9308 Y4.2295 I-0.0916 J0.0066
N13090 G03 X2.925 Y4.1265 I0.9055 J-0.1029
N13100 X2.9552 Y3.8937 I0.9113 J0.
N13110 X3.1072 Y3.683 I0.3771 J0.1118
N13120 G02 X3.1086 Y3.682 I-0.0526 J-0.0753
N13130 G03 X3.3862 Y3.5802 I0.3175 J0.4366
N13140 G02 X3.3903 Y3.5798 I-0.0068 J-0.0915
N13150 G03 X3.4798 Y3.5745 I0.0895 J0.7497
N13160 X3.743 Y3.6218 I0. J0.755
N13170 X4.0028 Y3.941 I-0.1642 J0.3991
N13180 G02 X4.0031 Y3.9426 I0.0902 J-0.017
N13190 G03 X4.0208 Y4.1152 I-0.8361 J0.1725
N13200 X3.9982 Y4.3102 I-0.8537 J0.
N13210 X3.8004 Y4.5563 I-0.3625 J-0.0887
N13220 G02 X3.7981 Y4.5575 I0.0405 J0.0824
N13230 G03 X3.7951 Y4.5591 I-0.3011 J-0.5709
N13240 G01 X3.7604 Y4.3985
N13250 G02 X3.8503 Y4.3216 I-0.1392 J-0.2538
N13260 X3.8511 Y4.3205 I-0.0727 J-0.0561
N13270 X3.9189 Y4.1169 I-0.2719 J-0.2036
N13280 X3.8797 Y3.9584 I-0.3397 J0.
N13290 X3.878 Y3.9555 I-0.0812 J0.0428
N13300 X3.6379 Y3.7887 I-0.2966 J0.1708
N13310 X3.4737 Y3.7739 I-0.1641 J0.8996
N13320 X3.2492 Y3.8018 I0. J0.9144
N13330 X3.2477 Y3.8022 I0.0225 J0.089
N13340 X3.0439 Y4.0002 I0.0769 J0.2831
N13350 X3.0435 Y4.0015 I0.0878 J0.0266
N13360 X3.0281 Y4.1114 I0.3827 J0.1099
N13370 X3.0363 Y4.1917 I0.3982 J0.
N13380 X3.1525 Y4.3713 I0.2776 J-0.0522
N13390 X3.1529 Y4.3716 I0.0525 J-0.0753
N13400 X3.2525 Y4.4246 I0.2835 J-0.4128
N13410 G01 X3.2028 Y4.5833
N13420 G00 Z0.1
N13430 X3.6137 Y5.4537
N13440 Z0.05
N13450 G01 X3.3538 Y5.6314 Z0.0169
N13460 X3.3409 Y5.642 Z0.0152
N13470 X3.3301 Y5.6548 Z0.0134
N13480 X3.3219 Y5.6693 Z0.0116
N13490 X3.3164 Y5.6851 Z0.0099
N13500 X3.3138 Y5.7016 Z0.0081
N13510 X3.3143 Y5.7184 Z0.0064
N13520 X3.3177 Y5.7347 Z0.0046
N13530 X3.3241 Y5.7502 Z0.0029
N13540 X3.3331 Y5.7642 Z0.0011
N13550 X3.3446 Y5.7764 Z-0.0007
N13560 X3.358 Y5.7863 Z-0.0024
N13570 X3.3731 Y5.7936 Z-0.0042
N13580 X3.3892 Y5.7981 Z-0.0059
N13590 X3.4058 Y5.7997 Z-0.0077
N13600 X4.0012 Z-0.0703
N13610 Y5.9779 Z-0.089
N13620 X2.9451 Z-0.2
N13630 X3.1824 Y5.7602
N13640 G02 X3.2188 Y5.8406 I0.2234 J-0.0528
N13650 G01 X3.0825
N13660 Y5.8286
N13670 X3.1824 Y5.7602
N13680 X3.7602 Y5.1872
N13690 G02 X3.7238 Y5.1068 I-0.2234 J0.0527
N13700 G01 X3.8639
N13710 Y5.1163
N13720 X3.7602 Y5.1872
N13730 X2.9448 Y5.9783
N13740 Y5.7559
N13750 X3.5887 Y5.3157
N13760 G02 X3.6287 Y5.2399 I-0.0518 J-0.0758
N13770 X3.5369 Y5.1481 I-0.0918 J0.
N13780 G01 X2.9448
N13790 Y4.9691
N13800 X4.0016
N13810 Y5.1889
N13820 X3.354 Y5.6317
N13830 G02 X3.314 Y5.7075 I0.0518 J0.0758
N13840 X3.4058 Y5.7993 I0.0918 J0.
N13850 G01 X4.0016
N13860 Y5.9783
N13870 X2.9448
N13880 G00 Z0.1
N13890 X3.8659 Y7.088
N13900 Z0.05
N13910 G01 X3.8912 Y7.0439 Z0.0447
N13920 X3.9106 Y6.9892 Z0.0386
N13930 X3.9198 Y6.932 Z0.0325
N13940 X3.9185 Y6.874 Z0.0264
N13950 X3.9092 Y6.8176 Z0.0204
N13960 X3.8902 Y6.7637 Z0.0143
N13970 X3.8621 Y6.7139 Z0.0083
N13980 X3.8258 Y6.6697 Z0.0023
N13990 X3.7823 Y6.6326 Z-0.0037
N14000 X3.733 Y6.6036 Z-0.0097
N14010 X3.6795 Y6.5837 Z-0.0157
N14020 X3.6793
N14030 X3.6791
N14040 X3.679
N14050 X3.6788
N14060 X3.6787
N14070 X3.6785
N14080 X3.6414 Y6.5746 Z-0.0198
N14090 X3.6039 Y6.5676 Z-0.0238
N14100 X3.5661 Y6.5626 Z-0.0278
N14110 X3.5281 Y6.5594 Z-0.0318
N14120 X3.49 Y6.5581 Z-0.0358
N14130 X3.4519 Y6.5587 Z-0.0398
N14140 X3.4169 Y6.5591 Z-0.0435
N14150 X3.382 Y6.5612 Z-0.0472
N14160 X3.3473 Y6.5651 Z-0.0509
N14170 X3.3128 Y6.5708 Z-0.0545
N14180 X3.2786 Y6.5782 Z-0.0582
N14190 X3.2448 Y6.5874 Z-0.0619
N14200 X3.2447
N14210 X3.2446
N14220 X3.2445
N14230 X3.23 Y6.5923 Z-0.0635
N14240 X3.2158 Y6.5977 Z-0.0651
N14250 X3.2018 Y6.6038 Z-0.0667
N14260 X3.1881 Y6.6104 Z-0.0683
N14270 X3.1748 Y6.6177 Z-0.0699
N14280 X3.1617 Y6.6255 Z-0.0715
N14290 X3.1612 Y6.6259
N14300 X3.1606 Y6.6263
N14310 X3.16 Y6.6267
N14320 X3.1594 Y6.627
N14330 X3.1589 Y6.6274
N14340 X3.1583 Y6.6278
N14350 X3.1222 Y6.6573 Z-0.0769
N14360 X3.0911 Y6.6918 Z-0.0818
N14370 X3.0655 Y6.7307 Z-0.0866
N14380 X3.0462 Y6.7731 Z-0.0915
N14390 X3.0334 Y6.8178 Z-0.0964
N14400 X3.0276 Y6.864 Z-0.1013
N14410 X3.026 Y6.8952 Z-0.1046
N14420 X3.0269 Y6.9264 Z-0.1079
N14430 X3.0305 Y6.9574 Z-0.1112
N14440 X3.0367 Y6.9879 Z-0.1144
N14450 X3.0455 Y7.0179 Z-0.1177
N14460 X3.0568 Y7.047 Z-0.121
N14470 X3.0571 Y7.0477
N14480 X3.0575 Y7.0485
N14490 X3.0578 Y7.0493
N14500 X3.0582 Y7.05
N14510 X3.0586 Y7.0508
N14520 X3.1811 Y7.1782
N14530 X3.0589 Y7.0515
N14540 X3.0737 Y7.0774 Z-0.1247
N14550 X3.0909 Y7.1017 Z-0.1278
N14560 X3.1104 Y7.1241 Z-0.1309
N14570 X3.1321 Y7.1445 Z-0.134
N14580 X3.1558 Y7.1626 Z-0.1372
N14590 X3.1811 Y7.1782 Z-0.1403
N14600 X3.1923 Y7.1843 Z-0.1416
N14610 X3.2037 Y7.1902 Z-0.143
N14620 X3.2153 Y7.1958 Z-0.1443
N14630 X3.2269 Y7.2011 Z-0.1457
N14640 X3.2387 Y7.2062 Z-0.147
N14650 X3.2505 Y7.211 Z-0.1484
N14660 X3.202 Y7.3661 Z-0.1655
N14670 X3.1515 Y7.3448 Z-0.1712
N14680 X3.1044 Y7.3169 Z-0.177
N14690 X3.0615 Y7.2828 Z-0.1827
N14700 X3.0236 Y7.2433 Z-0.1885
N14710 X2.9915 Y7.1989 Z-0.1942
N14720 X2.9657 Y7.1506 Z-0.2
N14730 X2.964 Y7.1513
N14740 G03 X2.9254 Y6.9488 I0.5116 J-0.2025
N14750 X2.9257 Y6.9313 I0.5503 J0.
N14760 G02 X2.9257 Y6.9284 I-0.0918 J-0.0029
N14770 X2.9256 Y6.9244 I-0.0918 J0.
N14780 G03 X2.925 Y6.8932 I0.7199 J-0.0312
N14790 X2.9827 Y6.6106 I0.7206 J0.
N14800 X3.2284 Y6.4015 I0.4023 J0.2239
N14810 X3.4812 Y6.362 I0.2529 J0.7887
N14820 X3.6442 Y6.3782 I0. J0.8283
N14830 G02 X3.6472 Y6.3787 I0.0181 J-0.09
N14840 G03 X3.9842 Y6.6632 I-0.0708 J0.4258
N14850 X4.022 Y6.9045 I-0.7529 J0.2414
N14860 X4.0099 Y7.042 I-0.7906 J0.
N14870 G02 X4.0094 Y7.0454 I0.0904 J0.016
N14880 G03 X3.9334 Y7.2328 I-0.4066 J-0.0559
N14890 X3.7955 Y7.3472 I-0.3529 J-0.2846
N14900 G01 X3.7604 Y7.1846
N14910 G02 X3.7747 Y7.1764 I-0.1862 J-0.3417
N14920 X3.779 Y7.1737 I-0.0473 J-0.0787
N14930 X3.9187 Y6.9099 I-0.1791 J-0.2638
N14940 X3.9167 Y6.8742 I-0.3189 J0.
N14950 X3.679 Y6.5854 I-0.3242 J0.0247
N14960 X3.678 Y6.5852 I-0.0244 J0.0885
N14970 X3.4835 Y6.5599 I-0.1945 J0.7361
N14980 X3.4519 Y6.5605 I0. J0.7614
N14990 X3.4407 Y6.5605 I-0.0112 J0.6785
N15000 X3.2454 Y6.5892 I0. J0.6786
N15010 X3.245 Y6.5893 I0.0264 J0.0879
N15020 X3.1627 Y6.6271 I0.0984 J0.323
N15030 X3.1593 Y6.6293 I0.0491 J0.0775
N15040 X3.0295 Y6.8642 I0.174 J0.2496
N15050 X3.0277 Y6.8996 I0.3638 J0.0354
N15060 X3.0584 Y7.0462 I0.3655 J0.
N15070 X3.0606 Y7.0507 I0.0841 J-0.0368
N15080 X3.182 Y7.1766 I0.264 J-0.1331
N15090 X3.2527 Y7.21 I0.2793 J-0.5014
N15100 G01 X3.2032 Y7.3684
N15110 G03 X2.964 Y7.1513 I0.1291 J-0.3825
N15120 G00 Z0.1
N15130 X1.5715 Y9.5937
N15140 Z0.05
N15150 G01 X1.6577 Y9.6707 Z0.0379
N15160 Y9.8287 Z0.0212
N15170 X1.5021 Y9.6676 Z-0.0023
N15180 X1.4887 Y9.6562 Z-0.0041
N15190 X1.4734 Y9.6475 Z-0.006
N15200 X1.4568 Y9.6419 Z-0.0078
N15210 X1.4394 Y9.6396 Z-0.0097
N15220 X1.4218 Y9.6406 Z-0.0115
N15230 X1.4048 Y9.6449 Z-0.0134
N15240 X1.3889 Y9.6523 Z-0.0152
N15250 X0.9451 Y9.9143 Z-0.0694
N15260 Y9.7413 Z-0.0876
N15270 X1.2525 Y9.5788 Z-0.1241
N15280 X1.2668 Y9.5695 Z-0.1259
N15290 X1.2791 Y9.5577 Z-0.1277
N15300 X1.2891 Y9.5438 Z-0.1295
N15310 X1.2963 Y9.5283 Z-0.1313
N15320 X1.3005 Y9.5118 Z-0.1331
N15330 X1.3016 Y9.4948 Z-0.1349
N15340 X1.2995 Y9.4778 Z-0.1367
N15350 X1.2944 Y9.4616 Z-0.1385
N15360 X1.2864 Y9.4465 Z-0.1402
N15370 X1.2757 Y9.4332 Z-0.142
N15380 X1.1523 Y9.3056 Z-0.1607
N15390 X1.1431 Y9.2973 Z-0.162
N15400 X1.133 Y9.2904 Z-0.1633
N15410 X1.122 Y9.2848 Z-0.1646
N15420 X1.1103 Y9.2808 Z-0.1659
N15430 X1.0983 Y9.2783 Z-0.1672
N15440 X1.086 Y9.2775 Z-0.1685
N15450 X0.9451 Z-0.1833
N15460 Y9.1184 Z-0.2
N15470 X0.9448 Y9.118
N15480 X2.0016
N15490 Y9.2779
N15500 X1.4592
N15510 G02 X1.3674 Y9.3697 I0. J0.0918
N15520 X1.398 Y9.4382 I0.0918 J0.
N15530 G01 X1.6581 Y9.6705
N15540 Y9.8296
N15550 X1.5018 Y9.6679
N15560 G02 X1.4358 Y9.6399 I-0.066 J0.0638
N15570 X1.3891 Y9.6526 I0. J0.0918
N15580 G01 X0.9448 Y9.915
N15590 Y9.7411
N15600 X1.2523 Y9.5785
N15610 G02 X1.3012 Y9.4973 I-0.0429 J-0.0812
N15620 X1.2754 Y9.4335 I-0.0918 J0.
N15630 G01 X1.152 Y9.3059
N15640 G02 X1.086 Y9.2779 I-0.066 J0.0638
N15650 G01 X0.9448
N15660 Y9.118
N15670 G00 Z0.1
N15680 X1.4795 Y7.9596
N15690 Z0.05
N15700 G01 X1.5304 Y7.9929 Z0.0436
N15710 X1.5752 Y8.035 Z0.0372
N15720 X1.612 Y8.0842 Z0.0307
N15730 X1.6338 Y8.1269 Z0.0257
N15740 X1.6514 Y8.1715 Z0.0206
N15750 X1.6645 Y8.2177 Z0.0156
N15760 X1.6729 Y8.2649 Z0.0105
N15770 X1.6766 Y8.3127 Z0.0055
N15780 X1.6756 Y8.3607 Z0.0004
N15790 Y8.3619 Z0.0003
N15800 Y8.3631 Z0.0002
N15810 Y8.3643 Z0.0001
N15820 Y8.3655 Z-0.0001
N15830 Y8.3667 Z-0.0002
N15840 Y8.3679 Z-0.0003
N15850 X1.6732 Y8.4154 Z-0.0053
N15860 X1.6664 Y8.4624 Z-0.0103
N15870 X1.6549 Y8.5085 Z-0.0153
N15880 X1.6388 Y8.5532 Z-0.0203
N15890 X1.6183 Y8.596 Z-0.0253
N15900 X1.5936 Y8.6366 Z-0.0303
N15910 X1.5543 Y8.6792 Z-0.0364
N15920 X1.5086 Y8.7147 Z-0.0425
N15930 X1.4576 Y8.7422 Z-0.0485
N15940 X1.4028 Y8.761 Z-0.0546
N15950 X1.3457 Y8.7705 Z-0.0607
N15960 X1.2877 Z-0.0668
N15970 X1.2867 Z-0.0669
N15980 X1.2856 Z-0.067
N15990 X1.2845 Z-0.0671
N16000 X1.2834 Z-0.0673
N16010 X1.2824 Z-0.0674
N16020 X0.9569 Y8.5352 Z-0.0675
N16030 X1.2813 Y8.7702
N16040 X1.2207 Y8.764 Z-0.0739
N16050 X1.1622 Y8.7473 Z-0.0803
N16060 X1.1074 Y8.7208 Z-0.0867
N16070 X1.0581 Y8.6851 Z-0.0931
N16080 X1.0158 Y8.6413 Z-0.0995
N16090 X0.9817 Y8.5909 Z-0.1059
N16100 X0.9569 Y8.5353 Z-0.1123
N16110 X0.9435 Y8.4872 Z-0.1175
N16120 X0.9339 Y8.4382 Z-0.1228
N16130 X0.9283 Y8.3886 Z-0.128
N16140 X0.9265 Y8.3387 Z-0.1333
N16150 X0.9288 Y8.2889 Z-0.1385
N16160 X0.9349 Y8.2394 Z-0.1437
N16170 X0.935 Y8.2387
N16180 X0.9351 Y8.238
N16190 X0.9352 Y8.2373
N16200 Y8.2366
N16210 Y8.2359
N16220 Y8.2352
N16230 X0.9492 Y8.1707 Z-0.1511
N16240 X0.9745 Y8.1098 Z-0.158
N16250 X1.0103 Y8.0545 Z-0.165
N16260 X1.0557 Y8.0067 Z-0.1719
N16270 X1.109 Y7.968 Z-0.1788
N16280 X1.1684 Y7.9395 Z-0.1858
N16290 X1.2321 Y7.9224 Z-0.1927
N16300 X1.2978 Y7.9172 Z-0.1996
N16310 X1.2984
N16320 X1.299
N16330 X1.2996
N16340 X1.3003
N16350 X1.3009
N16360 X1.3015
N16370 X1.3111 Y8.2598
N16380 G03 X1.3114 Y8.2598 I0.0003 J0.011
N16390 X1.3191 Y8.2628 I0. J0.011
N16400 X1.334 Y8.3263 I-0.1269 J0.0634
N16410 X1.3337 Y8.3364 I-0.1418 J0.
N16420 G02 X1.3326 Y8.3673 I0.4349 J0.031
N16430 X1.3326 Y8.37 I0.4361 J0.
N16440 G03 X1.3326 Y8.3708 I-0.1305 J0.0008
N16450 X1.3191 Y8.4287 I-0.1305 J0.
N16460 X1.3169 Y8.429 I-0.0022 J-0.0081
N16470 X1.3162 Y8.4289 I0. J-0.0084
N16480 G02 X1.2862 Y8.4275 I-0.0362 J0.4345
N16490 G03 X1.2814 Y8.4247 I0.0001 J-0.0056
N16500 X1.2693 Y8.3419 I0.2751 J-0.0828
N16510 X1.2731 Y8.2951 I0.2873 J0.
N16520 G02 X1.2759 Y8.2755 I-0.4302 J-0.071
N16530 G03 X1.2935 Y8.2599 I0.0176 J0.0021
N16540 X1.2937 Y8.2599 I0. J0.0177
N16550 G02 X1.2989 Y8.2599 I0.0052 J-0.436
N16560 X1.3111 Y8.2598 I0. J-0.4361
N16570 G01 X1.3092 Y8.1909
N16580 G03 X1.3114 Y8.1909 I0.0022 J0.0799
N16590 X1.3772 Y8.2255 I0. J0.0799
N16600 X1.4029 Y8.3263 I-0.185 J0.1007
N16610 X1.4024 Y8.3412 I-0.2107 J0.
N16620 G02 X1.4014 Y8.3673 I0.3663 J0.0261
N16630 X1.4014 Y8.3696 I0.3672 J0.
N16640 G03 X1.4014 Y8.3708 I-0.1994 J0.0012
N16650 X1.3727 Y8.4739 I-0.1994 J0.
N16660 X1.3169 Y8.4978 I-0.0559 J-0.0533
N16670 X1.3105 Y8.4975 I0. J-0.0772
N16680 G02 X1.2852 Y8.4963 I-0.0305 J0.3659
N16690 G03 X1.2166 Y8.448 I0.0011 J-0.0744
N16700 X1.2004 Y8.3419 I0.34 J-0.1061
N16710 X1.2052 Y8.2839 I0.3562 J0.
N16720 G02 X1.2075 Y8.2674 I-0.3623 J-0.0598
N16730 G03 X1.2935 Y8.1911 I0.086 J0.0102
N16740 X1.2945 Y8.1911 I0. J0.0866
N16750 G02 X1.2989 Y8.1911 I0.0044 J-0.3672
N16760 X1.3092 Y8.1909 I0. J-0.3672
N16770 G01 X1.3053 Y8.0533
N16780 G03 X1.3114 Y8.0532 I0.0061 J0.2175
N16790 X1.4951 Y8.1542 I0. J0.2176
N16800 X1.5406 Y8.3263 I-0.3029 J0.1721
N16810 X1.5397 Y8.351 I-0.3484 J0.
N16820 G02 X1.5391 Y8.3673 I0.2289 J0.0163
N16830 X1.5391 Y8.3687 I0.2295 J0.
N16840 G03 X1.5391 Y8.3708 I-0.3371 J0.0021
N16850 X1.4836 Y8.5562 I-0.3371 J0.
N16860 X1.3169 Y8.6355 I-0.1667 J-0.1357
N16870 X1.299 Y8.6348 I0. J-0.2149
N16880 G02 X1.2832 Y8.634 I-0.019 J0.2287
N16890 G03 X1.0861 Y8.4921 I0.003 J-0.2121
N16900 X1.0627 Y8.3419 I0.4705 J-0.1502
N16910 X1.0693 Y8.2615 I0.4939 J0.
N16920 G02 X1.0708 Y8.2512 I-0.2264 J-0.0374
N16930 G03 X1.2935 Y8.0534 I0.2227 J0.0264
N16940 X1.2961 Y8.0534 I0. J0.2243
N16950 G02 X1.2989 Y8.0534 I0.0028 J-0.2295
N16960 X1.3053 Y8.0533 I0. J-0.2295
N16970 G01 X1.3015 Y7.9157
N16980 G03 X1.3114 Y7.9155 I0.01 J0.3551
N16990 X1.6133 Y8.0834 I0. J0.3553
N17000 X1.6783 Y8.3263 I-0.4211 J0.2429
N17010 X1.6771 Y8.3608 I-0.4861 J0.
N17020 G02 X1.6768 Y8.3673 I0.0916 J0.0065
N17030 X1.6768 Y8.3679 I0.0918 J0.
N17040 G03 X1.6768 Y8.3708 I-0.4748 J0.0029
N17050 X1.5949 Y8.6375 I-0.4748 J0.
N17060 X1.3169 Y8.7732 I-0.278 J-0.2169
N17070 X1.2876 Y8.772 I0. J-0.3526
N17080 G02 X1.2813 Y8.7717 I-0.0076 J0.0915
N17090 G03 X0.9555 Y8.5357 I0.005 J-0.3498
N17100 X0.925 Y8.3419 I0.6011 J-0.1938
N17110 X0.9334 Y8.2391 I0.6316 J0.
N17120 G02 X0.934 Y8.235 I-0.0906 J-0.0149
N17130 G03 X1.2935 Y7.9157 I0.3594 J0.0426
N17140 X1.2978 Y7.9157 I0. J0.362
N17150 G02 X1.2989 Y7.9157 I0.0011 J-0.0918
N17160 X1.3015 Y7.9157 I0. J-0.0918
N17170 G00 Z0.1
N17180 X1.4795 Y6.805
N17190 Z0.05
N17200 G01 X1.5304 Y6.8384 Z0.0436
N17210 X1.5752 Y6.8804 Z0.0372
N17220 X1.612 Y6.9296 Z0.0307
N17230 X1.6338 Y6.9723 Z0.0257
N17240 X1.6514 Y7.0169 Z0.0206
N17250 X1.6645 Y7.0631 Z0.0156
N17260 X1.6729 Y7.1103 Z0.0105
N17270 X1.6766 Y7.1582 Z0.0055
N17280 X1.6756 Y7.2061 Z0.0004
N17290 Y7.2073 Z0.0003
N17300 Y7.2085 Z0.0002
N17310 Y7.2097 Z0.0001
N17320 Y7.2109 Z-0.0001
N17330 Y7.2121 Z-0.0002
N17340 Y7.2133 Z-0.0003
N17350 X1.6732 Y7.2608 Z-0.0053
N17360 X1.6664 Y7.3078 Z-0.0103
N17370 X1.6549 Y7.3539 Z-0.0153
N17380 X1.6388 Y7.3986 Z-0.0203
N17390 X1.6183 Y7.4414 Z-0.0253
N17400 X1.5936 Y7.482 Z-0.0303
N17410 X1.5543 Y7.5246 Z-0.0364
N17420 X1.5086 Y7.5601 Z-0.0425
N17430 X1.4576 Y7.5877 Z-0.0485
N17440 X1.4028 Y7.6064 Z-0.0546
N17450 X1.3457 Y7.6159 Z-0.0607
N17460 X1.2877 Z-0.0668
N17470 X1.2867 Z-0.0669
N17480 X1.2856 Z-0.067
N17490 X1.2845 Z-0.0671
N17500 X1.2834 Z-0.0673
N17510 X1.2824 Z-0.0674
N17520 X0.9569 Y7.3807 Z-0.0675
N17530 X1.2813 Y7.6156
N17540 X1.2207 Y7.6094 Z-0.0739
N17550 X1.1622 Y7.5928 Z-0.0803
N17560 X1.1074 Y7.5662 Z-0.0867
N17570 X1.0581 Y7.5305 Z-0.0931
N17580 X1.0158 Y7.4867 Z-0.0995
N17590 X0.9817 Y7.4363 Z-0.1059
N17600 X0.9569 Y7.3807 Z-0.1123
N17610 X0.9435 Y7.3326 Z-0.1175
N17620 X0.9339 Y7.2836 Z-0.1228
N17630 X0.9283 Y7.234 Z-0.128
N17640 X0.9265 Y7.1842 Z-0.1333
N17650 X0.9288 Y7.1343 Z-0.1385
N17660 X0.9349 Y7.0848 Z-0.1437
N17670 X0.935 Y7.0841
N17680 X0.9351 Y7.0834
N17690 X0.9352 Y7.0827
N17700 Y7.082
N17710 Y7.0813
N17720 Y7.0806
N17730 X0.9492 Y7.0161 Z-0.1511
N17740 X0.9745 Y6.9552 Z-0.158
N17750 X1.0103 Y6.9 Z-0.165
N17760 X1.0557 Y6.8521 Z-0.1719
N17770 X1.109 Y6.8134 Z-0.1788
N17780 X1.1684 Y6.785 Z-0.1858
N17790 X1.2321 Y6.7679 Z-0.1927
N17800 X1.2978 Y6.7626 Z-0.1996
N17810 X1.2984
N17820 X1.299
N17830 X1.2996
N17840 X1.3003
N17850 X1.3009
N17860 X1.3015
N17870 X1.3111 Y7.1052
N17880 G03 X1.3114 Y7.1052 I0.0003 J0.011
N17890 X1.3191 Y7.1083 I0. J0.011
N17900 X1.334 Y7.1717 I-0.1269 J0.0634
N17910 X1.3337 Y7.1818 I-0.1418 J0.
N17920 G02 X1.3326 Y7.2128 I0.4349 J0.031
N17930 X1.3326 Y7.2154 I0.436 J0.
N17940 G03 X1.3326 Y7.2162 I-0.1305 J0.0008
N17950 X1.3191 Y7.2741 I-0.1305 J0.
N17960 X1.3169 Y7.2744 I-0.0022 J-0.0081
N17970 X1.3162 Y7.2743 I0. J-0.0084
N17980 G02 X1.2862 Y7.2729 I-0.0362 J0.4345
N17990 G03 X1.2814 Y7.2701 I0.0001 J-0.0056
N18000 X1.2693 Y7.1873 I0.2751 J-0.0828
N18010 X1.2731 Y7.1406 I0.2873 J0.
N18020 G02 X1.2759 Y7.121 I-0.4302 J-0.071
N18030 G03 X1.2935 Y7.1053 I0.0176 J0.0021
N18040 X1.2937 Y7.1053 I0. J0.0177
N18050 G02 X1.2989 Y7.1054 I0.0052 J-0.436
N18060 X1.3111 Y7.1052 I0. J-0.436
N18070 G01 X1.3092 Y7.0364
N18080 G03 X1.3114 Y7.0363 I0.0022 J0.0799
N18090 X1.3772 Y7.0709 I0. J0.0799
N18100 X1.4029 Y7.1717 I-0.185 J0.1007
N18110 X1.4024 Y7.1867 I-0.2107 J0.
N18120 G02 X1.4014 Y7.2128 I0.3663 J0.0261
N18130 X1.4014 Y7.215 I0.3672 J0.
N18140 G03 X1.4014 Y7.2162 I-0.1994 J0.0012
N18150 X1.3727 Y7.3193 I-0.1994 J0.
N18160 X1.3169 Y7.3432 I-0.0559 J-0.0533
N18170 X1.3105 Y7.343 I0. J-0.0772
N18180 G02 X1.2852 Y7.3417 I-0.0305 J0.3659
N18190 G03 X1.2166 Y7.2935 I0.0011 J-0.0744
N18200 X1.2004 Y7.1873 I0.34 J-0.1061
N18210 X1.2052 Y7.1293 I0.3562 J0.
N18220 G02 X1.2075 Y7.1128 I-0.3623 J-0.0598
N18230 G03 X1.2935 Y7.0365 I0.086 J0.0102
N18240 X1.2945 Y7.0365 I0. J0.0866
N18250 G02 X1.2989 Y7.0365 I0.0044 J-0.3672
N18260 X1.3092 Y7.0364 I0. J-0.3672
N18270 G01 X1.3053 Y6.8987
N18280 G03 X1.3114 Y6.8986 I0.0061 J0.2175
N18290 X1.4951 Y6.9996 I0. J0.2176
N18300 X1.5406 Y7.1717 I-0.3029 J0.1721
N18310 X1.5397 Y7.1964 I-0.3484 J0.
N18320 G02 X1.5391 Y7.2128 I0.2289 J0.0163
N18330 X1.5391 Y7.2142 I0.2295 J0.
N18340 G03 X1.5391 Y7.2162 I-0.3371 J0.0021
N18350 X1.4836 Y7.4017 I-0.3371 J0.
N18360 X1.3169 Y7.4809 I-0.1667 J-0.1357
N18370 X1.299 Y7.4802 I0. J-0.2149
N18380 G02 X1.2832 Y7.4794 I-0.019 J0.2287
N18390 G03 X1.0861 Y7.3375 I0.003 J-0.2121
N18400 X1.0627 Y7.1873 I0.4705 J-0.1502
N18410 X1.0693 Y7.1069 I0.4939 J0.
N18420 G02 X1.0708 Y7.0966 I-0.2264 J-0.0374
N18430 G03 X1.2935 Y6.8988 I0.2227 J0.0264
N18440 X1.2961 Y6.8988 I0. J0.2243
N18450 G02 X1.2989 Y6.8988 I0.0028 J-0.2295
N18460 X1.3053 Y6.8987 I0. J-0.2295
N18470 G01 X1.3015 Y6.7611
N18480 G03 X1.3114 Y6.7609 I0.01 J0.3551
N18490 X1.6133 Y6.9288 I0. J0.3553
N18500 X1.6783 Y7.1717 I-0.4211 J0.2429
N18510 X1.6771 Y7.2062 I-0.4861 J0.
N18520 G02 X1.6768 Y7.2128 I0.0916 J0.0065
N18530 X1.6768 Y7.2133 I0.0918 J0.
N18540 G03 X1.6768 Y7.2162 I-0.4748 J0.0029
N18550 X1.5949 Y7.4829 I-0.4748 J0.
N18560 X1.3169 Y7.6186 I-0.278 J-0.2169
N18570 X1.2876 Y7.6174 I0. J-0.3526
N18580 G02 X1.2813 Y7.6171 I-0.0076 J0.0915
N18590 G03 X0.9555 Y7.3811 I0.005 J-0.3498
N18600 X0.925 Y7.1873 I0.6011 J-0.1938
N18610 X0.9334 Y7.0845 I0.6316 J0.
N18620 G02 X0.934 Y7.0804 I-0.0906 J-0.0149
N18630 G03 X1.2935 Y6.7611 I0.3594 J0.0426
N18640 X1.2978 Y6.7611 I0. J0.362
N18650 G02 X1.2989 Y6.7611 I0.0011 J-0.0918
N18660 X1.3015 Y6.7611 I0. J-0.0918
N18670 G00 Z0.1
N18680 X1.8726 Y5.813
N18690 Z0.05
N18700 G01 X1.6605 Z0.0277
N18710 X1.6437 Y5.8145 Z0.0259
N18720 X1.6274 Y5.819 Z0.0242
N18730 X1.6123 Y5.8264 Z0.0224
N18740 X1.5987 Y5.8364 Z0.0206
N18750 X1.5872 Y5.8487 Z0.0188
N18760 X1.5781 Y5.8629 Z0.0171
N18770 X1.5716 Y5.8784 Z0.0153
N18780 X1.5681 Y5.8949 Z0.0135
N18790 X1.5677 Y5.9118 Z0.0118
N18800 X1.5702 Y5.9284 Z0.01
N18810 X1.5758 Y5.9443 Z0.0082
N18820 X1.5841 Y5.959 Z0.0064
N18830 X1.5949 Y5.9719 Z0.0047
N18840 X1.6223 Y6.0035 Z0.0003
N18850 X1.6446 Y6.0389 Z-0.0041
N18860 X1.6613 Y6.0773 Z-0.0085
N18870 X1.672 Y6.1177 Z-0.0129
N18880 X1.6766 Y6.1593 Z-0.0173
N18890 X1.6748 Y6.2011 Z-0.0217
N18900 Y6.2014
N18910 Y6.2017
N18920 Y6.202
N18930 Y6.2023
N18940 Y6.2026
N18950 Y6.2029
N18960 X1.665 Y6.2531 Z-0.0273
N18970 X1.6463 Y6.3007 Z-0.0326
N18980 X1.6191 Y6.3439 Z-0.038
N18990 X1.5844 Y6.3815 Z-0.0434
N19000 X1.5435 Y6.412 Z-0.0488
N19010 X1.4976 Y6.4344 Z-0.0541
N19020 X1.4483 Y6.448 Z-0.0595
N19030 X1.4477 Y6.4481
N19040 X1.4471 Y6.4482
N19050 X1.4465 Y6.4483
N19060 X1.4459 Y6.4485
N19070 X1.4453 Y6.4486
N19080 X1.4447 Y6.4487
N19090 X1.3897 Y6.4582 Z-0.0657
N19100 X1.3342 Y6.4625 Z-0.0716
N19110 X1.2784 Y6.4618 Z-0.0775
N19120 X1.223 Y6.4559 Z-0.0833
N19130 X1.1684 Y6.445 Z-0.0892
N19140 X1.115 Y6.4291 Z-0.095
N19150 X1.1147
N19160 X1.1145
N19170 X1.1143
N19180 X1.1141
N19190 X1.1139
N19200 X1.1137
N19210 X1.0876 Y6.4185 Z-0.0981
N19220 X1.0626 Y6.4059 Z-0.1011
N19230 X1.0389 Y6.391 Z-0.104
N19240 X1.0168 Y6.3738 Z-0.1069
N19250 X0.9965 Y6.3546 Z-0.1099
N19260 X0.9781 Y6.3335 Z-0.1128
N19270 X0.9531 Y6.2908 Z-0.118
N19280 X0.936 Y6.2443 Z-0.1232
N19290 X0.9274 Y6.1955 Z-0.1284
N19300 Y6.1459 Z-0.1336
N19310 X0.9363 Y6.0972 Z-0.1389
N19320 X0.9535 Y6.0507 Z-0.1441
N19330 X0.967 Y6.0291 Z-0.1467
N19340 X0.978 Y6.0154 Z-0.1486
N19350 X0.9895 Y6.0021 Z-0.1504
N19360 X1.0016 Y5.9893 Z-0.1523
N19370 X1.0143 Y5.9771 Z-0.1541
N19380 X1.0274 Y5.9655 Z-0.156
N19390 X1.0411 Y5.9544 Z-0.1578
N19400 X1.0532 Y5.9432 Z-0.1596
N19410 X1.0631 Y5.9301 Z-0.1613
N19420 X1.0705 Y5.9154 Z-0.163
N19430 X1.0752 Y5.8996 Z-0.1647
N19440 X1.0771 Y5.8832 Z-0.1665
N19450 X1.0761 Y5.8668 Z-0.1682
N19460 X1.0721 Y5.8508 Z-0.1699
N19470 X1.0655 Y5.8358 Z-0.1717
N19480 X1.0562 Y5.8221 Z-0.1734
N19490 X1.0447 Y5.8103 Z-0.1751
N19500 X1.0313 Y5.8008 Z-0.1769
N19510 X1.0165 Y5.7937 Z-0.1786
N19520 X1.0006 Y5.7894 Z-0.1803
N19530 X0.9842 Y5.7879 Z-0.1821
N19540 X0.9459 Z-0.1861
N19550 Y5.6554 Z-0.2
N19560 X1.317 Y6.0359
N19570 G02 X1.4016 Y6.1664 I0.3434 J-0.13
N19580 G03 X1.4025 Y6.1685 I-0.0021 J0.0021
N19590 X1.4025 Y6.1689 I-0.0029 J0.
N19600 G02 X1.4017 Y6.1763 I0.3647 J0.0431
N19610 G03 X1.4001 Y6.178 I-0.0019 J-0.0002
N19620 G02 X1.3858 Y6.1809 I0.0645 J0.3615
N19630 G03 X1.3145 Y6.1886 I-0.0713 J-0.3242
N19640 X1.2088 Y6.1714 I0. J-0.3319
N19650 X1.209 Y6.1712 I0.0799 J0.1027
N19660 G02 X1.317 Y6.0359 I-0.2249 J-0.2903
N19670 G01 X1.1957 Y5.7919
N19680 X1.4613
N19690 G02 X1.431 Y5.9059 I0.1992 J0.114
N19700 X1.4987 Y6.0688 I0.2295 J0.
N19710 G03 X1.5402 Y6.1685 I-0.0991 J0.0998
N19720 X1.5392 Y6.185 I-0.1406 J0.
N19730 G02 X1.5387 Y6.1897 I0.2279 J0.0269
N19740 G03 X1.4243 Y6.3136 I-0.1389 J-0.0135
N19750 G02 X1.4154 Y6.3154 I0.0403 J0.2259
N19760 G03 X1.3145 Y6.3263 I-0.1008 J-0.4587
N19770 X1.1599 Y6.3001 I0. J-0.4696
N19780 G02 X1.1568 Y6.2991 I-0.0756 J0.2167
N19790 G03 X1.0875 Y6.2516 I0.0481 J-0.1445
N19800 X1.0628 Y6.1712 I0.119 J-0.0804
N19810 X1.0741 Y6.1153 I0.1436 J0.
N19820 G01 X1.0791 Y6.1073
N19830 G03 X1.1247 Y6.0623 I0.2095 J0.1668
N19840 G02 X1.2137 Y5.8809 I-0.1405 J-0.1814
N19850 X1.1957 Y5.7919 I-0.2295 J0.
N19860 G01 X0.9448 Y5.6542
N19870 X2.0016
N19880 Y5.8141
N19890 X1.6605
N19900 G02 X1.5687 Y5.9059 I0. J0.0918
N19910 X1.5958 Y5.9711 I0.0918 J0.
N19920 G03 X1.6779 Y6.1685 I-0.1962 J0.1975
N19930 X1.676 Y6.2012 I-0.2783 J0.
N19940 G02 X1.6758 Y6.2031 I0.0912 J0.0108
N19950 G03 X1.4485 Y6.4491 I-0.276 J-0.0269
N19960 G02 X1.4449 Y6.4499 I0.0161 J0.0904
N19970 G03 X1.3145 Y6.464 I-0.1304 J-0.5932
N19980 X1.1146 Y6.4302 I0. J-0.6073
N19990 G02 X1.1133 Y6.4297 I-0.0302 J0.0867
N20000 G03 X0.9772 Y6.3342 I0.0915 J-0.2752
N20010 X0.9251 Y6.1712 I0.2293 J-0.163
N20020 X0.9525 Y6.0502 I0.2813 J0.
N20030 G01 X0.966 Y6.0284
N20040 G03 X1.0404 Y5.9535 I0.3226 J0.2456
N20050 G02 X1.076 Y5.8809 I-0.0562 J-0.0726
N20060 X0.9842 Y5.7891 I-0.0918 J0.
N20070 G01 X0.9448
N20080 Y5.6542
N20090 G00 Z0.1
N20100 X1.5715 Y4.9754
N20110 Z0.05
N20120 G01 X1.6577 Y5.0523 Z0.0379
N20130 Y5.2104 Z0.0212
N20140 X1.5021 Y5.0493 Z-0.0023
N20150 X1.4887 Y5.0379 Z-0.0041
N20160 X1.4734 Y5.0292 Z-0.006
N20170 X1.4568 Y5.0236 Z-0.0078
N20180 X1.4394 Y5.0213 Z-0.0097
N20190 X1.4218 Y5.0222 Z-0.0115
N20200 X1.4048 Y5.0265 Z-0.0134
N20210 X1.3889 Y5.034 Z-0.0152
N20220 X0.9451 Y5.296 Z-0.0694
N20230 Y5.123 Z-0.0876
N20240 X1.2525 Y4.9605 Z-0.1241
N20250 X1.2668 Y4.9512 Z-0.1259
N20260 X1.2791 Y4.9393 Z-0.1277
N20270 X1.2891 Y4.9255 Z-0.1295
N20280 X1.2963 Y4.91 Z-0.1313
N20290 X1.3005 Y4.8935 Z-0.1331
N20300 X1.3016 Y4.8765 Z-0.1349
N20310 X1.2995 Y4.8595 Z-0.1367
N20320 X1.2944 Y4.8433 Z-0.1385
N20330 X1.2864 Y4.8282 Z-0.1402
N20340 X1.2757 Y4.8149 Z-0.142
N20350 X1.1523 Y4.6873 Z-0.1607
N20360 X1.1431 Y4.679 Z-0.162
N20370 X1.133 Y4.6721 Z-0.1633
N20380 X1.122 Y4.6665 Z-0.1646
N20390 X1.1103 Y4.6625 Z-0.1659
N20400 X1.0983 Y4.66 Z-0.1672
N20410 X1.086 Y4.6592 Z-0.1685
N20420 X0.9451 Z-0.1833
N20430 Y4.5 Z-0.2
N20440 X0.9448 Y4.4997
N20450 X2.0016
N20460 Y4.6596
N20470 X1.4592
N20480 G02 X1.3674 Y4.7514 I0. J0.0918
N20490 X1.398 Y4.8198 I0.0918 J0.
N20500 G01 X1.6581 Y5.0522
N20510 Y5.2113
N20520 X1.5018 Y5.0496
N20530 G02 X1.4358 Y5.0216 I-0.066 J0.0638
N20540 X1.3891 Y5.0343 I0. J0.0918
N20550 G01 X0.9448 Y5.2967
N20560 Y5.1228
N20570 X1.2523 Y4.9602
N20580 G02 X1.3012 Y4.879 I-0.0429 J-0.0812
N20590 X1.2754 Y4.8152 I-0.0918 J0.
N20600 G01 X1.152 Y4.6875
N20610 G02 X1.086 Y4.6596 I-0.066 J0.0638
N20620 G01 X0.9448
N20630 Y4.4997
N20640 G00 Z0.1
N20650 X1.4795 Y3.3413
N20660 Z0.05
N20670 G01 X1.5304 Y3.3746 Z0.0436
N20680 X1.5752 Y3.4167 Z0.0372
N20690 X1.612 Y3.4659 Z0.0307
N20700 X1.6338 Y3.5085 Z0.0257
N20710 X1.6514 Y3.5532 Z0.0206
N20720 X1.6645 Y3.5994 Z0.0156
N20730 X1.6729 Y3.6466 Z0.0105
N20740 X1.6766 Y3.6944 Z0.0055
N20750 X1.6756 Y3.7424 Z0.0004
N20760 Y3.7436 Z0.0003
N20770 Y3.7448 Z0.0002
N20780 Y3.746 Z0.0001
N20790 Y3.7472 Z-0.0001
N20800 Y3.7484 Z-0.0002
N20810 Y3.7496 Z-0.0003
N20820 X1.6732 Y3.797 Z-0.0053
N20830 X1.6664 Y3.8441 Z-0.0103
N20840 X1.6549 Y3.8901 Z-0.0153
N20850 X1.6388 Y3.9348 Z-0.0203
N20860 X1.6183 Y3.9777 Z-0.0253
N20870 X1.5936 Y4.0183 Z-0.0303
N20880 X1.5543 Y4.0609 Z-0.0364
N20890 X1.5086 Y4.0964 Z-0.0425
N20900 X1.4576 Y4.1239 Z-0.0485
N20910 X1.4028 Y4.1427 Z-0.0546
N20920 X1.3457 Y4.1522 Z-0.0607
N20930 X1.2877 Z-0.0668
N20940 X1.2867 Z-0.0669
N20950 X1.2856 Z-0.067
N20960 X1.2845 Z-0.0671
N20970 X1.2834 Z-0.0673
N20980 X1.2824 Z-0.0674
N20990 X0.9569 Y3.9169 Z-0.0675
N21000 X1.2813 Y4.1518
N21010 X1.2207 Y4.1457 Z-0.0739
N21020 X1.1622 Y4.129 Z-0.0803
N21030 X1.1074 Y4.1024 Z-0.0867
N21040 X1.0581 Y4.0667 Z-0.0931
N21050 X1.0158 Y4.023 Z-0.0995
N21060 X0.9817 Y3.9725 Z-0.1059
N21070 X0.9569 Y3.9169 Z-0.1123
N21080 X0.9435 Y3.8689 Z-0.1175
N21090 X0.9339 Y3.8199 Z-0.1228
N21100 X0.9283 Y3.7703 Z-0.128
N21110 X0.9265 Y3.7204 Z-0.1333
N21120 X0.9288 Y3.6706 Z-0.1385
N21130 X0.9349 Y3.621 Z-0.1437
N21140 X0.935 Y3.6203
N21150 X0.9351 Y3.6196
N21160 X0.9352 Y3.6189
N21170 Y3.6182
N21180 Y3.6175
N21190 Y3.6168
N21200 X0.9492 Y3.5524 Z-0.1511
N21210 X0.9745 Y3.4915 Z-0.158
N21220 X1.0103 Y3.4362 Z-0.165
N21230 X1.0557 Y3.3884 Z-0.1719
N21240 X1.109 Y3.3496 Z-0.1788
N21250 X1.1684 Y3.3212 Z-0.1858
N21260 X1.2321 Y3.3041 Z-0.1927
N21270 X1.2978 Y3.2989 Z-0.1996
N21280 X1.2984
N21290 X1.299
N21300 X1.2996
N21310 X1.3003
N21320 X1.3009
N21330 X1.3015
N21340 X1.3111 Y3.6414
N21350 G03 X1.3114 Y3.6414 I0.0003 J0.011
N21360 X1.3191 Y3.6445 I0. J0.011
N21370 X1.334 Y3.708 I-0.1269 J0.0634
N21380 X1.3337 Y3.718 I-0.1418 J0.
N21390 G02 X1.3326 Y3.749 I0.4349 J0.031
N21400 X1.3326 Y3.7517 I0.436 J0.
N21410 G03 X1.3326 Y3.7525 I-0.1305 J0.0008
N21420 X1.3191 Y3.8103 I-0.1305 J0.
N21430 X1.3169 Y3.8106 I-0.0022 J-0.0081
N21440 X1.3162 Y3.8106 I0. J-0.0084
N21450 G02 X1.2862 Y3.8091 I-0.0362 J0.4345
N21460 G03 X1.2814 Y3.8064 I0.0001 J-0.0056
N21470 X1.2693 Y3.7236 I0.2751 J-0.0828
N21480 X1.2731 Y3.6768 I0.2873 J0.
N21490 G02 X1.2759 Y3.6572 I-0.4302 J-0.071
N21500 G03 X1.2935 Y3.6416 I0.0176 J0.0021
N21510 X1.2937 Y3.6416 I0. J0.0177
N21520 G02 X1.2989 Y3.6416 I0.0052 J-0.436
N21530 X1.3111 Y3.6414 I0. J-0.436
N21540 G01 X1.3092 Y3.5726
N21550 G03 X1.3114 Y3.5726 I0.0022 J0.0799
N21560 X1.3772 Y3.6072 I0. J0.0799
N21570 X1.4029 Y3.708 I-0.185 J0.1007
N21580 X1.4024 Y3.7229 I-0.2107 J0.
N21590 G02 X1.4014 Y3.749 I0.3663 J0.0261
N21600 X1.4014 Y3.7513 I0.3672 J0.
N21610 G03 X1.4014 Y3.7525 I-0.1994 J0.0012
N21620 X1.3727 Y3.8556 I-0.1994 J0.
N21630 X1.3169 Y3.8795 I-0.0559 J-0.0533
N21640 X1.3105 Y3.8792 I0. J-0.0772
N21650 G02 X1.2852 Y3.878 I-0.0305 J0.3659
N21660 G03 X1.2166 Y3.8297 I0.0011 J-0.0744
N21670 X1.2004 Y3.7236 I0.34 J-0.1061
N21680 X1.2052 Y3.6656 I0.3562 J0.
N21690 G02 X1.2075 Y3.6491 I-0.3623 J-0.0598
N21700 G03 X1.2935 Y3.5727 I0.086 J0.0102
N21710 X1.2945 Y3.5727 I0. J0.0866
N21720 G02 X1.2989 Y3.5728 I0.0044 J-0.3672
N21730 X1.3092 Y3.5726 I0. J-0.3672
N21740 G01 X1.3053 Y3.435
N21750 G03 X1.3114 Y3.4349 I0.0061 J0.2175
N21760 X1.4951 Y3.5359 I0. J0.2176
N21770 X1.5406 Y3.708 I-0.3029 J0.1721
N21780 X1.5397 Y3.7327 I-0.3484 J0.
N21790 G02 X1.5391 Y3.749 I0.2289 J0.0163
N21800 X1.5391 Y3.7504 I0.2295 J0.
N21810 G03 X1.5391 Y3.7525 I-0.3371 J0.0021
N21820 X1.4836 Y3.9379 I-0.3371 J0.
N21830 X1.3169 Y4.0172 I-0.1667 J-0.1357
N21840 X1.299 Y4.0164 I0. J-0.2149
N21850 G02 X1.2832 Y4.0157 I-0.019 J0.2287
N21860 G03 X1.0861 Y3.8738 I0.003 J-0.2121
N21870 X1.0627 Y3.7236 I0.4705 J-0.1502
N21880 X1.0693 Y3.6432 I0.4939 J0.
N21890 G02 X1.0708 Y3.6329 I-0.2264 J-0.0374
N21900 G03 X1.2935 Y3.435 I0.2227 J0.0264
N21910 X1.2961 Y3.4351 I0. J0.2243
N21920 G02 X1.2989 Y3.4351 I0.0028 J-0.2295
N21930 X1.3053 Y3.435 I0. J-0.2295
N21940 G01 X1.3015 Y3.2973
N21950 G03 X1.3114 Y3.2972 I0.01 J0.3551
N21960 X1.6133 Y3.4651 I0. J0.3553
N21970 X1.6783 Y3.708 I-0.4211 J0.2429
N21980 X1.6771 Y3.7425 I-0.4861 J0.
N21990 G02 X1.6768 Y3.749 I0.0916 J0.0065
N22000 X1.6768 Y3.7496 I0.0918 J0.
N22010 G03 X1.6768 Y3.7525 I-0.4748 J0.0029
N22020 X1.5949 Y4.0192 I-0.4748 J0.
N22030 X1.3169 Y4.1549 I-0.278 J-0.2169
N22040 X1.2876 Y4.1537 I0. J-0.3526
N22050 G02 X1.2813 Y4.1534 I-0.0076 J0.0915
N22060 G03 X0.9555 Y3.9174 I0.005 J-0.3498
N22070 X0.925 Y3.7236 I0.6011 J-0.1938
N22080 X0.9334 Y3.6208 I0.6316 J0.
N22090 G02 X0.934 Y3.6167 I-0.0906 J-0.0149
N22100 G03 X1.2935 Y3.2973 I0.3594 J0.0426
N22110 X1.2978 Y3.2974 I0. J0.362
N22120 G02 X1.2989 Y3.2974 I0.0011 J-0.0918
N22130 X1.3015 Y3.2973 I0. J-0.0918
N22140 G00 Z0.1
N22150 X1.4762 Y2.1851
N22160 Z0.05
N22170 G01 X1.479 Y2.1863 Z0.0497
N22180 X1.5304 Y2.22 Z0.0432
N22190 X1.5752 Y2.2621 Z0.0368
N22200 X1.612 Y2.3113 Z0.0303
N22210 X1.6338 Y2.354 Z0.0253
N22220 X1.6514 Y2.3986 Z0.0202
N22230 X1.6645 Y2.4448 Z0.0152
N22240 X1.6729 Y2.492 Z0.0101
N22250 X1.6766 Y2.5398 Z0.0051
N22260 X1.6756 Y2.5878 Z0.
N22270 Y2.589 Z-0.0001
N22280 Y2.5902 Z-0.0002
N22290 Y2.5914 Z-0.0003
N22300 Y2.5926 Z-0.0005
N22310 Y2.5938 Z-0.0006
N22320 Y2.595 Z-0.0007
N22330 X1.6732 Y2.6425 Z-0.0057
N22340 X1.6664 Y2.6895 Z-0.0107
N22350 X1.6549 Y2.7356 Z-0.0157
N22360 X1.6388 Y2.7803 Z-0.0207
N22370 X1.6183 Y2.8231 Z-0.0257
N22380 X1.5936 Y2.8637 Z-0.0307
N22390 X1.5543 Y2.9063 Z-0.0368
N22400 X1.5086 Y2.9418 Z-0.0428
N22410 X1.4576 Y2.9693 Z-0.0489
N22420 X1.4028 Y2.9881 Z-0.055
N22430 X1.3457 Y2.9976 Z-0.0611
N22440 X1.2877 Z-0.0672
N22450 X1.2867 Z-0.0673
N22460 X1.2856 Z-0.0674
N22470 X1.2845 Z-0.0675
N22480 X1.2834 Z-0.0676
N22490 X1.2824 Z-0.0678
N22500 X0.9569 Y2.7623 Z-0.0679
N22510 X1.2813 Y2.9973
N22520 X1.2207 Y2.9911 Z-0.0743
N22530 X1.1622 Y2.9744 Z-0.0807
N22540 X1.1074 Y2.9479 Z-0.0871
N22550 X1.0581 Y2.9122 Z-0.0935
N22560 X1.0158 Y2.8684 Z-0.0999
N22570 X0.9817 Y2.818 Z-0.1063
N22580 X0.9569 Y2.7624 Z-0.1127
N22590 X0.9435 Y2.7143 Z-0.1179
N22600 X0.9339 Y2.6653 Z-0.1232
N22610 X0.9283 Y2.6157 Z-0.1284
N22620 X0.9265 Y2.5658 Z-0.1337
N22630 X0.9288 Y2.516 Z-0.1389
N22640 X0.9349 Y2.4665 Z-0.1441
N22650 X0.935 Y2.4658
N22660 X0.9351 Y2.4651
N22670 X0.9352 Y2.4644
N22680 Y2.4637
N22690 Y2.463
N22700 Y2.4623
N22710 X0.9492 Y2.3978 Z-0.1515
N22720 X0.9745 Y2.3369 Z-0.1584
N22730 X1.0103 Y2.2816 Z-0.1654
N22740 X1.0557 Y2.2338 Z-0.1723
N22750 X1.109 Y2.1951 Z-0.1792
N22760 X1.1684 Y2.1666 Z-0.1861
N22770 X1.2321 Y2.1495 Z-0.1931
N22780 X1.2978 Y2.1443 Z-0.2
N22790 X1.2937 Y2.487
N22800 G02 X1.2989 Y2.487 I0.0052 J-0.436
N22810 X1.3111 Y2.4869 I0. J-0.436
N22820 G03 X1.3114 Y2.4869 I0.0003 J0.011
N22830 X1.3191 Y2.4899 I0. J0.011
N22840 X1.334 Y2.5534 I-0.1269 J0.0634
N22850 X1.3337 Y2.5635 I-0.1418 J0.
N22860 G02 X1.3326 Y2.5944 I0.4349 J0.031
N22870 X1.3326 Y2.5971 I0.436 J0.
N22880 G03 X1.3326 Y2.5979 I-0.1305 J0.0008
N22890 X1.3191 Y2.6558 I-0.1305 J0.
N22900 X1.3169 Y2.6561 I-0.0022 J-0.0081
N22910 X1.3162 Y2.656 I0. J-0.0084
N22920 G02 X1.2862 Y2.6546 I-0.0362 J0.4345
N22930 G03 X1.2814 Y2.6518 I0.0001 J-0.0056
N22940 X1.2693 Y2.569 I0.2751 J-0.0828
N22950 X1.2731 Y2.5222 I0.2873 J0.
N22960 G02 X1.2759 Y2.5026 I-0.4302 J-0.071
N22970 G03 X1.2935 Y2.487 I0.0176 J0.0021
N22980 X1.2937 Y2.487 I0. J0.0177
N22990 G01 X1.2945 Y2.4182
N23000 G02 X1.2989 Y2.4182 I0.0044 J-0.3672
N23010 X1.3092 Y2.418 I0. J-0.3672
N23020 G03 X1.3114 Y2.418 I0.0022 J0.0799
N23030 X1.3772 Y2.4526 I0. J0.0799
N23040 X1.4029 Y2.5534 I-0.185 J0.1007
N23050 X1.4024 Y2.5683 I-0.2107 J0.
N23060 G02 X1.4014 Y2.5944 I0.3663 J0.0261
N23070 X1.4014 Y2.5967 I0.3672 J0.
N23080 G03 X1.4014 Y2.5979 I-0.1994 J0.0012
N23090 X1.3727 Y2.701 I-0.1994 J0.
N23100 X1.3169 Y2.7249 I-0.0559 J-0.0533
N23110 X1.3105 Y2.7246 I0. J-0.0772
N23120 G02 X1.2852 Y2.7234 I-0.0305 J0.3659
N23130 G03 X1.2166 Y2.6751 I0.0011 J-0.0744
N23140 X1.2004 Y2.569 I0.34 J-0.1061
N23150 X1.2052 Y2.511 I0.3562 J0.
N23160 G02 X1.2075 Y2.4945 I-0.3623 J-0.0598
N23170 G03 X1.2935 Y2.4182 I0.086 J0.0102
N23180 X1.2945 Y2.4182 I0. J0.0866
N23190 G01 X1.2961 Y2.2805
N23200 G02 X1.2989 Y2.2805 I0.0028 J-0.2295
N23210 X1.3053 Y2.2804 I0. J-0.2295
N23220 G03 X1.3114 Y2.2803 I0.0061 J0.2175
N23230 X1.4951 Y2.3813 I0. J0.2176
N23240 X1.5406 Y2.5534 I-0.3029 J0.1721
N23250 X1.5397 Y2.5781 I-0.3484 J0.
N23260 G02 X1.5391 Y2.5944 I0.2289 J0.0163
N23270 X1.5391 Y2.5958 I0.2295 J0.
N23280 G03 X1.5391 Y2.5979 I-0.3371 J0.0021
N23290 X1.4836 Y2.7833 I-0.3371 J0.
N23300 X1.3169 Y2.8626 I-0.1667 J-0.1357
N23310 X1.299 Y2.8619 I0. J-0.2149
N23320 G02 X1.2832 Y2.8611 I-0.019 J0.2287
N23330 G03 X1.0861 Y2.7192 I0.003 J-0.2121
N23340 X1.0627 Y2.569 I0.4705 J-0.1502
N23350 X1.0693 Y2.4886 I0.4939 J0.
N23360 G02 X1.0708 Y2.4783 I-0.2264 J-0.0374
N23370 G03 X1.2935 Y2.2805 I0.2227 J0.0264
N23380 X1.2961 Y2.2805 I0. J0.2243
N23390 G01 X1.2978 Y2.1428
N23400 G02 X1.2989 Y2.1428 I0.0011 J-0.0918
N23410 X1.3015 Y2.1428 I0. J-0.0918
N23420 G03 X1.3114 Y2.1426 I0.01 J0.3551
N23430 X1.6133 Y2.3105 I0. J0.3553
N23440 X1.6783 Y2.5534 I-0.4211 J0.2429
N23450 X1.6771 Y2.5879 I-0.4861 J0.
N23460 G02 X1.6768 Y2.5944 I0.0916 J0.0065
N23470 X1.6768 Y2.595 I0.0918 J0.
N23480 G03 X1.6768 Y2.5979 I-0.4748 J0.0029
N23490 X1.5949 Y2.8646 I-0.4748 J0.
N23500 X1.3169 Y3.0003 I-0.278 J-0.2169
N23510 X1.2876 Y2.9991 I0. J-0.3526
N23520 G02 X1.2813 Y2.9988 I-0.0076 J0.0915
N23530 G03 X0.9555 Y2.7628 I0.005 J-0.3498
N23540 X0.925 Y2.569 I0.6011 J-0.1938
N23550 X0.9334 Y2.4662 I0.6316 J0.
N23560 G02 X0.934 Y2.4621 I-0.0906 J-0.0149
N23570 G03 X1.2935 Y2.1428 I0.3594 J0.0426
N23580 X1.2978 Y2.1428 I0. J0.362
N23590 G00 Z0.1
N23600 X1.7479 Y1.0761
N23610 Z0.05
N23620 G01 X1.7341 Y1.068 Z0.0483
N23630 X1.6873 Y1.0489 Z0.043
N23640 X1.6382 Y1.0369 Z0.0377
N23650 X1.5734 Y1.0275 Z0.0308
N23660 X1.5082 Y1.0227 Z0.0239
N23670 X1.4428 Y1.0226 Z0.0171
N23680 X1.3775 Y1.0271 Z0.0102
N23690 X1.3128 Y1.0363 Z0.0033
N23700 X1.2488 Y1.0501 Z-0.0036
N23710 X1.2485
N23720 X1.2483
N23730 X1.248
N23740 X1.2478
N23750 X1.2475
N23760 X1.2472
N23770 X1.2006 Y1.0675 Z-0.009
N23780 X1.1574 Y1.0921 Z-0.0142
N23790 X1.119 Y1.1236 Z-0.0194
N23800 X1.0864 Y1.1611 Z-0.0246
N23810 X1.0606 Y1.2035 Z-0.0298
N23820 X1.0422 Y1.2496 Z-0.0351
N23830 Y1.2499
N23840 Y1.2501
N23850 Y1.2503
N23860 Y1.2505
N23870 Y1.2507
N23880 X1.0345 Y1.4421
N23890 X1.0418 Y1.251
N23900 X1.0342 Y1.2822 Z-0.0386
N23910 X1.0291 Y1.314 Z-0.042
N23920 X1.0266 Y1.3461 Z-0.0454
N23930 Y1.3783 Z-0.0487
N23940 X1.0293 Y1.4103 Z-0.0521
N23950 X1.0345 Y1.4421 Z-0.0555
N23960 X1.0436 Y1.4777 Z-0.0594
N23970 X1.0573 Y1.5118 Z-0.0632
N23980 X1.0752 Y1.5439 Z-0.0671
N23990 X1.0971 Y1.5734 Z-0.071
N24000 X1.1227 Y1.5998 Z-0.0748
N24010 X1.1514 Y1.6228 Z-0.0787
N24020 X1.1516 Y1.6229
N24030 X1.1517 Y1.623
N24040 X1.1519 Y1.6231
N24050 X1.1675 Y1.6334 Z-0.0807
N24060 X1.1834 Y1.643 Z-0.0827
N24070 X1.1996 Y1.6521 Z-0.0846
N24080 X1.2162 Y1.6606 Z-0.0866
N24090 X1.2331 Y1.6684 Z-0.0885
N24100 X1.2502 Y1.6756 Z-0.0905
N24110 X1.202 Y1.8298 Z-0.1075
N24120 X1.1515 Y1.8086 Z-0.1132
N24130 X1.1044 Y1.7806 Z-0.119
N24140 X1.0615 Y1.7466 Z-0.1247
N24150 X1.0236 Y1.707 Z-0.1305
N24160 X0.9915 Y1.6626 Z-0.1363
N24170 X0.9657 Y1.6143 Z-0.142
N24180 X0.9531 Y1.5791 Z-0.1459
N24190 X0.943 Y1.5432 Z-0.1499
N24200 X0.9354 Y1.5067 Z-0.1538
N24210 X0.9302 Y1.4697 Z-0.1577
N24220 X0.9276 Y1.4324 Z-0.1616
N24230 Y1.3951 Z-0.1656
N24240 Y1.3939 Z-0.1657
N24250 Y1.3927 Z-0.1658
N24260 Y1.3916 Z-0.1659
N24270 Y1.3904 Z-0.1661
N24280 Y1.3892 Z-0.1662
N24290 Y1.3881 Z-0.1663
N24300 X0.9271 Y1.3346 Z-0.1719
N24310 X0.9308 Y1.2813 Z-0.1775
N24320 X0.9384 Y1.2284 Z-0.1831
N24330 X0.9499 Y1.1762 Z-0.1888
N24340 X0.9652 Y1.125 Z-0.1944
N24350 X0.9843 Y1.0751 Z-0.2
N24360 X0.9827 Y1.0743
N24370 G03 X1.2284 Y0.8653 I0.4023 J0.2239
N24380 X1.4812 Y0.8257 I0.2529 J0.7887
N24390 X1.6442 Y0.8419 I0. J0.8283
N24400 G02 X1.6472 Y0.8425 I0.0181 J-0.09
N24410 G03 X1.9842 Y1.1269 I-0.0708 J0.4258
N24420 X2.022 Y1.3683 I-0.7529 J0.2414
N24430 X2.0099 Y1.5057 I-0.7906 J0.
N24440 G02 X2.0094 Y1.5092 I0.0904 J0.016
N24450 G03 X1.9334 Y1.6965 I-0.4066 J-0.0559
N24460 X1.7955 Y1.811 I-0.3529 J-0.2846
N24470 G01 X1.7604 Y1.6485
N24480 G02 X1.8503 Y1.5716 I-0.1392 J-0.2538
N24490 X1.8511 Y1.5705 I-0.0727 J-0.0561
N24500 X1.9189 Y1.3669 I-0.2719 J-0.2036
N24510 X1.8797 Y1.2084 I-0.3397 J0.
N24520 X1.878 Y1.2055 I-0.0812 J0.0428
N24530 X1.6379 Y1.0387 I-0.2966 J0.1708
N24540 X1.4737 Y1.0239 I-0.1641 J0.8996
N24550 X1.2492 Y1.0518 I0. J0.9144
N24560 X1.2477 Y1.0522 I0.0225 J0.089
N24570 X1.0439 Y1.2502 I0.0769 J0.2831
N24580 X1.0435 Y1.2515 I0.0878 J0.0266
N24590 X1.0281 Y1.3614 I0.3827 J0.1099
N24600 X1.0363 Y1.4417 I0.3982 J0.
N24610 X1.1525 Y1.6213 I0.2776 J-0.0522
N24620 X1.1529 Y1.6216 I0.0525 J-0.0753
N24630 X1.2525 Y1.6746 I0.2835 J-0.4128
N24640 G01 X1.2032 Y1.8321
N24650 G03 X0.964 Y1.615 I0.1291 J-0.3825
N24660 X0.9254 Y1.4125 I0.5116 J-0.2025
N24670 X0.9257 Y1.395 I0.5503 J0.
N24680 G02 X0.9257 Y1.3921 I-0.0918 J-0.0029
N24690 X0.9256 Y1.3881 I-0.0918 J0.
N24700 G03 X0.925 Y1.357 I0.7199 J-0.0312
N24710 X0.9827 Y1.0743 I0.7206 J0.
N24720 G00 Z0.1
N24730 X14.9375 Y1.4106
N24740 Z-0.15
N24750 G01 X14.9358 Y1.3786 Z-0.1534
N24760 X14.9376 Y1.3149 Z-0.1601
N24770 X14.9445 Y1.2515 Z-0.1668
N24780 X14.9564 Y1.1889 Z-0.1735
N24790 X14.9734 Y1.1275 Z-0.1802
N24800 X15.0049 Y1.0575 Z-0.1882
N24810 X15.0484 Y0.9943 Z-0.1963
N24820 X15.1023 Y0.9398 Z-0.2044
N24830 X15.1652 Y0.8957 Z-0.2124
N24840 X15.2348 Y0.8636 Z-0.2205
N24850 X15.309 Y0.8443 Z-0.2285
N24860 X15.3096
N24870 X15.3101
N24880 X15.3106
N24890 X15.3111
N24900 X15.3116
N24910 X15.3121 Y0.8437
N24920 X15.3812 Y0.8329 Z-0.2362
N24930 X15.4511 Y0.8279 Z-0.2436
N24940 X15.521 Y0.8289 Z-0.2509
N24950 X15.5907 Y0.8357 Z-0.2583
N24960 X15.6595 Y0.8485 Z-0.2656
N24970 X15.727 Y0.867 Z-0.273
N24980 X15.7772 Y0.8886 Z-0.2787
N24990 X15.8244 Y0.9161 Z-0.2845
N25000 X15.8681 Y0.9489 Z-0.2902
N25010 X15.9075 Y0.9868 Z-0.296
N25020 X15.9422 Y1.029 Z-0.3017
N25030 X15.9716 Y1.0751 Z-0.3075
N25040 X15.9907 Y1.125 Z-0.3131
N25050 X16.0061 Y1.1762 Z-0.3187
N25060 X16.0176 Y1.2284 Z-0.3243
N25070 X16.0252 Y1.2813 Z-0.3299
N25080 X16.0288 Y1.3346 Z-0.3356
N25090 X16.0285 Y1.3881 Z-0.3412
N25100 Y1.3892 Z-0.3413
N25110 Y1.3904 Z-0.3414
N25120 Y1.3916 Z-0.3415
N25130 Y1.3927 Z-0.3417
N25140 Y1.3939 Z-0.3418
N25150 Y1.3951 Z-0.3419
N25160 Y1.4324 Z-0.3458
N25170 X16.0257 Y1.4697 Z-0.3498
N25180 X16.0206 Y1.5067 Z-0.3537
N25190 X16.0129 Y1.5432 Z-0.3576
N25200 X16.0028 Y1.5791 Z-0.3615
N25210 X15.9902 Y1.6143 Z-0.3655
N25220 X15.9644 Y1.6626 Z-0.3712
N25230 X15.9323 Y1.707 Z-0.377
N25240 X15.8944 Y1.7466 Z-0.3827
N25250 X15.8515 Y1.7806 Z-0.3885
N25260 X15.8044 Y1.8086 Z-0.3942
N25270 X15.7539 Y1.8298 Z-0.4
N25280 X15.7528 Y1.8321
N25290 X15.7032 Y1.6737
N25300 G02 X15.774 Y1.6404 I-0.2085 J-0.5347
N25310 X15.8954 Y1.5145 I-0.1426 J-0.259
N25320 X15.8975 Y1.51 I-0.082 J-0.0413
N25330 X15.9282 Y1.3633 I-0.3348 J-0.1466
N25340 X15.9265 Y1.3279 I-0.3655 J0.
N25350 X15.7966 Y1.093 I-0.3039 J0.0147
N25360 X15.7932 Y1.0908 I-0.0525 J0.0753
N25370 X15.7109 Y1.053 I-0.1808 J0.2853
N25380 X15.7106 Y1.0529 I-0.0268 J0.0878
N25390 X15.5152 Y1.0242 I-0.1953 J0.6498
N25400 X15.504 Y1.0243 I0. J0.6786
N25410 X15.4724 Y1.0236 I-0.0316 J0.7607
N25420 X15.2779 Y1.0489 I0. J0.7614
N25430 X15.2769 Y1.0492 I0.0235 J0.0888
N25440 X15.0392 Y1.3379 I0.0864 J0.3134
N25450 X15.0372 Y1.3736 I0.3169 J0.0357
N25460 X15.177 Y1.6375 I0.3189 J0.
N25470 X15.1812 Y1.6402 I0.0516 J-0.076
N25480 X15.1955 Y1.6484 I0.2005 J-0.3335
N25490 G01 X15.1604 Y1.811
N25500 G03 X15.0225 Y1.6965 I0.215 J-0.3991
N25510 X14.9465 Y1.5092 I0.3306 J-0.2432
N25520 G02 X14.946 Y1.5057 I-0.0909 J0.0125
N25530 G03 X14.934 Y1.3683 I0.7786 J-0.1374
N25540 X14.9717 Y1.1269 I0.7906 J0.
N25550 X15.3087 Y0.8425 I0.4079 J0.1414
N25560 G02 X15.3117 Y0.8419 I-0.0151 J-0.0906
N25570 G03 X15.4747 Y0.8257 I0.163 J0.8121
N25580 X15.7276 Y0.8653 I0. J0.8283
N25590 X15.9732 Y1.0743 I-0.1566 J0.4329
N25600 X16.031 Y1.357 I-0.6628 J0.2826
N25610 X16.0303 Y1.3881 I-0.7206 J0.
N25620 G02 X16.0302 Y1.3921 I0.0917 J0.004
N25630 X16.0302 Y1.395 I0.0918 J0.
N25640 G03 X16.0305 Y1.4125 I-0.55 J0.0175
N25650 X15.9919 Y1.615 I-0.5503 J0.
N25660 X15.7528 Y1.8321 I-0.3683 J-0.1654
N25670 G00 Z0.1
N25680 X15.4885 Y2.9641
N25690 Z-0.15
N25700 G01 X15.4473 Y2.9418 Z-0.1549
N25710 X15.4016 Y2.9063 Z-0.161
N25720 X15.3623 Y2.8637 Z-0.1671
N25730 X15.3376 Y2.8231 Z-0.1721
N25740 X15.3171 Y2.7803 Z-0.1771
N25750 X15.301 Y2.7355 Z-0.1821
N25760 X15.2895 Y2.6894 Z-0.1871
N25770 X15.2827 Y2.6424 Z-0.1921
N25780 X15.2806 Y2.595 Z-0.1971
N25790 Y2.5938 Z-0.1972
N25800 Y2.5926 Z-0.1973
N25810 Y2.5914 Z-0.1974
N25820 Y2.5901 Z-0.1976
N25830 Y2.5889 Z-0.1977
N25840 Y2.5877 Z-0.1978
N25850 X15.2793 Y2.5398 Z-0.2029
N25860 X15.2831 Y2.492 Z-0.2079
N25870 X15.2915 Y2.4447 Z-0.2129
N25880 X15.3045 Y2.3986 Z-0.218
N25890 X15.3221 Y2.3539 Z-0.223
N25900 X15.344 Y2.3113 Z-0.2281
N25910 X15.3808 Y2.2621 Z-0.2345
N25920 X15.4255 Y2.22 Z-0.241
N25930 X15.4769 Y2.1863 Z-0.2474
N25940 X15.5333 Y2.162 Z-0.2539
N25950 X15.5931 Y2.1479 Z-0.2603
N25960 X15.6544 Y2.1443 Z-0.2668
N25970 X15.655
N25980 X15.6557
N25990 X15.6563
N26000 X15.6569
N26010 X15.6575
N26020 X15.6581
N26030 X15.7238 Y2.1495 Z-0.2741
N26040 X15.7875 Y2.1666 Z-0.2811
N26050 X15.8469 Y2.1951 Z-0.288
N26060 X15.9002 Y2.2338 Z-0.2949
N26070 X15.9456 Y2.2816 Z-0.3018
N26080 X15.9815 Y2.3369 Z-0.3088
N26090 X16.0067 Y2.3978 Z-0.3157
N26100 X16.0204 Y2.4623 Z-0.3226
N26110 Y2.463
N26120 Y2.4637
N26130 Y2.4644
N26140 X16.0208 Y2.4651
N26150 X16.0209 Y2.4658
N26160 X15.999 Y2.7624
N26170 X16.021 Y2.4665
N26180 X16.0272 Y2.516 Z-0.3283
N26190 X16.0294 Y2.5659 Z-0.3336
N26200 X16.0277 Y2.6157 Z-0.3388
N26210 X16.022 Y2.6653 Z-0.344
N26220 X16.0124 Y2.7143 Z-0.3493
N26230 X15.999 Y2.7624 Z-0.3545
N26240 X15.9742 Y2.818 Z-0.3609
N26250 X15.9402 Y2.8684 Z-0.3673
N26260 X15.8978 Y2.9122 Z-0.3737
N26270 X15.8485 Y2.9479 Z-0.3801
N26280 X15.7937 Y2.9745 Z-0.3865
N26290 X15.7352 Y2.9911 Z-0.3929
N26300 X15.6746 Y2.9973 Z-0.3993
N26310 X15.6735 Z-0.3994
N26320 X15.6725 Z-0.3995
N26330 X15.6714 Z-0.3997
N26340 X15.6703 Z-0.3998
N26350 X15.6693 Z-0.3999
N26360 X15.6682 Z-0.4
N26370 X15.6398 Y2.656
N26380 G03 X15.6391 Y2.6561 I-0.0007 J-0.0083
N26390 X15.6368 Y2.6558 I0. J-0.0084
N26400 X15.6233 Y2.5979 I0.117 J-0.0578
N26410 X15.6233 Y2.5971 I0.1305 J0.
N26420 G02 X15.6233 Y2.5944 I-0.436 J-0.0027
N26430 X15.6222 Y2.5634 I-0.436 J0.
N26440 G03 X15.6219 Y2.5534 I0.1414 J-0.0101
N26450 X15.6369 Y2.4899 I0.1417 J0.
N26460 X15.6445 Y2.4869 I0.0076 J0.0079
N26470 X15.6448 Y2.4869 I0. J0.011
N26480 G02 X15.657 Y2.487 I0.0122 J-0.4359
N26490 X15.6623 Y2.487 I0. J-0.436
N26500 G03 X15.6625 Y2.487 I0.0002 J0.0177
N26510 X15.6801 Y2.5026 I0. J0.0177
N26520 G02 X15.6828 Y2.5223 I0.433 J-0.0513
N26530 G03 X15.6867 Y2.569 I-0.2834 J0.0467
N26540 X15.6745 Y2.6518 I-0.2873 J0.
N26550 X15.6697 Y2.6546 I-0.0048 J-0.0028
N26560 G02 X15.6398 Y2.656 I0.0062 J0.436
N26570 G01 X15.6455 Y2.7246
N26580 G03 X15.6391 Y2.7249 I-0.0064 J-0.077
N26590 X15.5832 Y2.701 I0. J-0.0772
N26600 X15.5545 Y2.5979 I0.1707 J-0.1031
N26610 X15.5545 Y2.5967 I0.1994 J0.
N26620 G02 X15.5545 Y2.5944 I-0.3672 J-0.0023
N26630 X15.5536 Y2.5683 I-0.3672 J0.
N26640 G03 X15.553 Y2.5534 I0.2101 J-0.015
N26650 X15.5787 Y2.4526 I0.2106 J0.
N26660 X15.6445 Y2.418 I0.0658 J0.0453
N26670 X15.6467 Y2.418 I0. J0.0799
N26680 G02 X15.657 Y2.4182 I0.0103 J-0.3671
N26690 X15.6614 Y2.4182 I0. J-0.3672
N26700 G03 X15.6625 Y2.4182 I0.001 J0.0866
N26710 X15.7484 Y2.4945 I0. J0.0866
N26720 G02 X15.7508 Y2.5111 I0.3646 J-0.0432
N26730 G03 X15.7555 Y2.569 I-0.3514 J0.058
N26740 X15.7393 Y2.6751 I-0.3561 J0.
N26750 X15.6707 Y2.7234 I-0.0697 J-0.0261
N26760 G02 X15.6455 Y2.7246 I0.0052 J0.3672
N26770 G01 X15.6569 Y2.8619
N26780 G03 X15.6391 Y2.8626 I-0.0178 J-0.2142
N26790 X15.4724 Y2.7833 I0. J-0.2149
N26800 X15.4168 Y2.5979 I0.2815 J-0.1854
N26810 X15.4168 Y2.5958 I0.3371 J0.
N26820 G02 X15.4168 Y2.5944 I-0.2295 J-0.0014
N26830 X15.4162 Y2.5781 I-0.2295 J0.
N26840 G03 X15.4153 Y2.5534 I0.3474 J-0.0247
N26850 X15.4608 Y2.3813 I0.3483 J0.
N26860 X15.6445 Y2.2803 I0.1837 J0.1166
N26870 X15.6506 Y2.2804 I0. J0.2176
N26880 G02 X15.657 Y2.2805 I0.0064 J-0.2294
N26890 X15.6598 Y2.2805 I0. J-0.2295
N26900 G03 X15.6625 Y2.2805 I0.0027 J0.2243
N26910 X15.8852 Y2.4783 I0. J0.2243
N26920 G02 X15.8866 Y2.4886 I0.2279 J-0.027
N26930 G03 X15.8932 Y2.569 I-0.4872 J0.0804
N26940 X15.8698 Y2.7192 I-0.4938 J0.
N26950 X15.6727 Y2.8611 I-0.2002 J-0.0702
N26960 G02 X15.6569 Y2.8619 I0.0033 J0.2295
N26970 G01 X15.6683 Y2.9991
N26980 G03 X15.6391 Y3.0003 I-0.0293 J-0.3514
N26990 X15.3611 Y2.8646 I0. J-0.3526
N27000 X15.2791 Y2.5979 I0.3928 J-0.2667
N27010 X15.2791 Y2.5949 I0.4748 J0.
N27020 G02 X15.2791 Y2.5944 I-0.0918 J-0.0006
N27030 X15.2789 Y2.5879 I-0.0918 J0.
N27040 G03 X15.2776 Y2.5534 I0.4848 J-0.0345
N27050 X15.3427 Y2.3105 I0.486 J0.
N27060 X15.6445 Y2.1426 I0.3018 J0.1874
N27070 X15.6545 Y2.1428 I0. J0.3553
N27080 G02 X15.657 Y2.1428 I0.0026 J-0.0918
N27090 X15.6581 Y2.1428 I0. J-0.0918
N27100 G03 X15.6625 Y2.1428 I0.0043 J0.3619
N27110 X16.0219 Y2.4621 I0. J0.362
N27120 G02 X16.0225 Y2.4662 I0.0912 J-0.0108
N27130 G03 X16.0309 Y2.569 I-0.6231 J0.1028
N27140 X16.0004 Y2.7628 I-0.6315 J0.
N27150 X15.6746 Y2.9988 I-0.3308 J-0.1138
N27160 G02 X15.6683 Y2.9991 I0.0013 J0.0918
N27170 G00 Z0.1
N27180 X15.4748 Y4.1126
N27190 Z-0.15
N27200 G01 X15.4726 Y4.1116 Z-0.1503
N27210 X15.4219 Y4.0783 Z-0.1566
N27220 X15.3779 Y4.0366 Z-0.163
N27230 X15.3419 Y3.9878 Z-0.1694
N27240 X15.315 Y3.9334 Z-0.1758
N27250 X15.2985 Y3.8789 Z-0.1817
N27260 X15.2871 Y3.8231 Z-0.1877
N27270 X15.2807 Y3.7666 Z-0.1937
N27280 X15.2795 Y3.7096 Z-0.1997
N27290 X15.2834 Y3.6528 Z-0.2057
N27300 X15.2926 Y3.5966 Z-0.2117
N27310 Y3.5962
N27320 Y3.5958
N27330 Y3.5954
N27340 Y3.595
N27350 Y3.5945
N27360 Y3.5941
N27370 X15.3098 Y3.5329 Z-0.2186
N27380 X15.3371 Y3.4756 Z-0.2253
N27390 X15.374 Y3.424 Z-0.2319
N27400 X15.4194 Y3.3797 Z-0.2386
N27410 X15.472 Y3.3441 Z-0.2453
N27420 X15.5299 Y3.3182 Z-0.2519
N27430 X15.5915 Y3.303 Z-0.2586
N27440 X15.6549 Y3.2989 Z-0.2653
N27450 X15.6557
N27460 X15.6564
N27470 X15.6572
N27480 X15.658
N27490 X15.6588
N27500 X15.9934 Y3.5204
N27510 X15.6595 Y3.2988
N27520 X15.7203 Y3.3025 Z-0.2722
N27530 X15.7795 Y3.3168 Z-0.2786
N27540 X15.8354 Y3.3411 Z-0.285
N27550 X15.8861 Y3.3748 Z-0.2914
N27560 X15.9302 Y3.4168 Z-0.2978
N27570 X15.9663 Y3.4658 Z-0.3042
N27580 X15.9933 Y3.5204 Z-0.3106
N27590 X16.0103 Y3.5745 Z-0.3166
N27600 X16.0221 Y3.63 Z-0.3225
N27610 X16.0286 Y3.6863 Z-0.3285
N27620 X16.0298 Y3.743 Z-0.3344
N27630 X16.0257 Y3.7996 Z-0.3404
N27640 X16.0162 Y3.8555 Z-0.3464
N27650 X16.0161 Y3.8561
N27660 X16.0159 Y3.8567
N27670 X16.0158 Y3.8574
N27680 X16.0157 Y3.858
N27690 X16.0156 Y3.8586
N27700 X16.0155 Y3.8593
N27710 X15.999 Y3.9204 Z-0.3534
N27720 X15.9719 Y3.9776 Z-0.3601
N27730 X15.9351 Y4.0292 Z-0.3667
N27740 X15.8897 Y4.0733 Z-0.3734
N27750 X15.8372 Y4.1087 Z-0.38
N27760 X15.7792 Y4.1341 Z-0.3867
N27770 X15.7176 Y4.1488 Z-0.3933
N27780 X15.6544 Y4.1524 Z-0.4
N27790 X15.6659 Y3.8098
N27800 G02 X15.6513 Y3.8096 I-0.0146 J0.4358
N27810 X15.6355 Y3.8099 I0. J0.436
N27820 G03 X15.635 Y3.8098 I0. J-0.001
N27830 X15.622 Y3.7249 I0.2708 J-0.0849
N27840 X15.628 Y3.6668 I0.2838 J0.
N27850 G02 X15.6303 Y3.6551 I-0.4268 J-0.0892
N27860 G03 X15.6466 Y3.6415 I0.0163 J0.0029
N27870 X15.647 Y3.6415 I0. J0.0166
N27880 G02 X15.657 Y3.6416 I0.01 J-0.4359
N27890 X15.6687 Y3.6415 I0. J-0.436
N27900 G03 X15.6689 Y3.6415 I0.0001 J0.0055
N27910 X15.6735 Y3.644 I0. J0.0055
N27920 X15.6873 Y3.7273 I-0.2452 J0.0833
N27930 X15.6813 Y3.7825 I-0.259 J0.
N27940 G02 X15.6779 Y3.8001 I0.426 J0.0929
N27950 G03 X15.6663 Y3.8098 I-0.0116 J-0.002
N27960 X15.6659 Y3.8098 I0. J-0.0118
N27970 G01 X15.6636 Y3.8786
N27980 G02 X15.6513 Y3.8784 I-0.0123 J0.367
N27990 X15.638 Y3.8787 I0. J0.3672
N28000 G03 X15.6354 Y3.8787 I-0.0025 J-0.0698
N28010 X15.5715 Y3.8372 I0. J-0.0699
N28020 X15.5532 Y3.7249 I0.3343 J-0.1123
N28030 X15.5606 Y3.6527 I0.3526 J0.
N28040 G02 X15.5626 Y3.6429 I-0.3594 J-0.0752
N28050 G03 X15.6466 Y3.5726 I0.0841 J0.0152
N28060 X15.6486 Y3.5727 I0. J0.0854
N28070 G02 X15.657 Y3.5728 I0.0084 J-0.3671
N28080 X15.6669 Y3.5726 I0. J-0.3672
N28090 G03 X15.6689 Y3.5726 I0.002 J0.0744
N28100 X15.7374 Y3.6179 I0. J0.0744
N28110 X15.7561 Y3.7273 I-0.3091 J0.1094
N28120 X15.7486 Y3.7971 I-0.3278 J0.
N28130 G02 X15.7457 Y3.812 I0.3588 J0.0782
N28140 G03 X15.6663 Y3.8787 I-0.0794 J-0.0139
N28150 X15.6636 Y3.8786 I0. J-0.0806
N28160 G01 X15.659 Y4.0163
N28170 G02 X15.6513 Y4.0161 I-0.0077 J0.2294
N28180 X15.643 Y4.0163 I0. J0.2295
N28190 G03 X15.6354 Y4.0164 I-0.0075 J-0.2074
N28200 X15.4427 Y3.8859 I0. J-0.2076
N28210 X15.4155 Y3.7249 I0.4631 J-0.1611
N28220 X15.4259 Y3.6245 I0.4903 J0.
N28230 G02 X15.4271 Y3.6184 I-0.2246 J-0.047
N28240 G03 X15.6466 Y3.4349 I0.2196 J0.0397
N28250 X15.6517 Y3.435 I0. J0.2231
N28260 G02 X15.657 Y3.4351 I0.0053 J-0.2294
N28270 X15.6632 Y3.435 I0. J-0.2295
N28280 G03 X15.6689 Y3.4349 I0.0057 J0.212
N28290 X15.866 Y3.5687 I0. J0.2121
N28300 X15.8938 Y3.7273 I-0.4377 J0.1586
N28310 X15.8832 Y3.8265 I-0.4655 J0.
N28320 G02 X15.8813 Y3.8358 I0.2242 J0.0489
N28330 G03 X15.6663 Y4.0164 I-0.2151 J-0.0377
N28340 X15.659 Y4.0163 I0. J-0.2183
N28350 G01 X15.6544 Y4.1539
N28360 G02 X15.6513 Y4.1538 I-0.0031 J0.0917
N28370 X15.648 Y4.1539 I0. J0.0918
N28380 G03 X15.6354 Y4.1541 I-0.0125 J-0.3451
N28390 X15.3136 Y3.9339 I0. J-0.3453
N28400 X15.2778 Y3.7249 I0.5922 J-0.2091
N28410 X15.2911 Y3.5963 I0.628 J0.
N28420 G02 X15.2916 Y3.5939 I-0.0899 J-0.0188
N28430 G03 X15.6466 Y3.2972 I0.3551 J0.0642
N28440 X15.6549 Y3.2973 I0. J0.3608
N28450 G02 X15.657 Y3.2974 I0.0021 J-0.0918
N28460 X15.6595 Y3.2973 I0. J-0.0918
N28470 G03 X15.6689 Y3.2972 I0.0094 J0.3497
N28480 X15.9948 Y3.5199 I0. J0.3498
N28490 X16.0315 Y3.7273 I-0.5665 J0.2074
N28500 X16.0177 Y3.8558 I-0.6032 J0.
N28510 G02 X16.017 Y3.8595 I0.0897 J0.0196
N28520 G03 X15.6663 Y4.1541 I-0.3507 J-0.0615
N28530 X15.6544 Y4.1539 I0. J-0.356
N28540 G00 Z0.1
N28550 X14.9547 Y4.5798
N28560 Z-0.15
N28570 G01 Y4.5 Z-0.1584
N28580 X16.0108 Z-0.2694
N28590 Y4.6592 Z-0.2861
N28600 X15.8699 Z-0.3009
N28610 X15.8576 Y4.66 Z-0.3022
N28620 X15.8456 Y4.6625 Z-0.3035
N28630 X15.8339 Y4.6665 Z-0.3048
N28640 X15.823 Y4.6721 Z-0.3061
N28650 X15.8128 Y4.679 Z-0.3074
N28660 X15.8037 Y4.6873 Z-0.3087
N28670 X15.6802 Y4.8149 Z-0.3273
N28680 X15.6695 Y4.8282 Z-0.3291
N28690 X15.6615 Y4.8433 Z-0.3309
N28700 X15.6564 Y4.8595 Z-0.3327
N28710 X15.6543 Y4.8765 Z-0.3345
N28720 X15.6554 Y4.8935 Z-0.3363
N28730 X15.6597 Y4.91 Z-0.3381
N28740 X15.6669 Y4.9255 Z-0.3399
N28750 X15.6768 Y4.9393 Z-0.3417
N28760 X15.6891 Y4.9512 Z-0.3435
N28770 X15.7034 Y4.9605 Z-0.3453
N28780 X16.0108 Y5.123 Z-0.3818
N28790 Y5.296 Z-0.4
N28800 X16.0112 Y5.2967
N28810 X15.5668 Y5.0343
N28820 G02 X15.5202 Y5.0216 I-0.0467 J0.079
N28830 X15.4541 Y5.0496 I0. J0.0918
N28840 G01 X15.2978 Y5.2113
N28850 Y5.0522
N28860 X15.5579 Y4.8198
N28870 G02 X15.5885 Y4.7514 I-0.0612 J-0.0685
N28880 X15.4967 Y4.6596 I-0.0918 J0.
N28890 G01 X14.9543
N28900 Y4.4997
N28910 X16.0112
N28920 Y4.6596
N28930 X15.8699
N28940 G02 X15.8039 Y4.6875 I0. J0.0918
N28950 G01 X15.6805 Y4.8152
N28960 G02 X15.6547 Y4.879 I0.066 J0.0638
N28970 X15.7036 Y4.9602 I0.0918 J0.
N28980 G01 X16.0112 Y5.1228
N28990 Y5.2967
N29000 G00 Z0.1
N29010 X15.2982 Y9.7213
N29020 Z-0.15
N29030 G01 Y9.6707 Z-0.1553
N29040 X15.5582 Y9.4384 Z-0.192
N29050 X15.5698 Y9.4259 Z-0.1938
N29060 X15.5789 Y9.4115 Z-0.1956
N29070 X15.5852 Y9.3956 Z-0.1973
N29080 X15.5885 Y9.3788 Z-0.1991
N29090 X15.5886 Y9.3618 Z-0.2009
N29100 X15.5855 Y9.3449 Z-0.2027
N29110 X15.5795 Y9.329 Z-0.2045
N29120 X15.5705 Y9.3144 Z-0.2063
N29130 X15.5591 Y9.3018 Z-0.2081
N29140 X15.5455 Y9.2914 Z-0.2099
N29150 X15.5302 Y9.2838 Z-0.2117
N29160 X15.5138 Y9.2791 Z-0.2135
N29170 X15.4967 Y9.2775 Z-0.2153
N29180 X14.9547 Z-0.2723
N29190 Y9.1184 Z-0.289
N29200 X16.0108 Z-0.4
N29210 X16.0112 Y9.118
N29220 Y9.2779
N29230 X15.8699
N29240 G02 X15.8039 Y9.3059 I0. J0.0918
N29250 G01 X15.6805 Y9.4335
N29260 G02 X15.6547 Y9.4973 I0.066 J0.0638
N29270 X15.7036 Y9.5785 I0.0918 J0.
N29280 G01 X16.0112 Y9.7411
N29290 Y9.915
N29300 X15.5668 Y9.6526
N29310 G02 X15.5202 Y9.6399 I-0.0467 J0.079
N29320 X15.4541 Y9.6679 I0. J0.0918
N29330 G01 X15.2978 Y9.8296
N29340 Y9.6705
N29350 X15.5579 Y9.4382
N29360 G02 X15.5885 Y9.3697 I-0.0612 J-0.0685
N29370 X15.4967 Y9.2779 I-0.0918 J0.
N29380 G01 X14.9543
N29390 Y9.118
N29400 X16.0112
N29410 G00 Z0.1
N29420 X15.832 Y7.9608
N29430 Z-0.15
N29440 G01 X15.8469 Y7.968 Z-0.1517
N29450 X15.9002 Y8.0067 Z-0.1587
N29460 X15.9456 Y8.0545 Z-0.1656
N29470 X15.9815 Y8.1098 Z-0.1725
N29480 X16.0067 Y8.1707 Z-0.1794
N29490 X16.0204 Y8.2352 Z-0.1864
N29500 Y8.2359
N29510 Y8.2366
N29520 Y8.2373
N29530 X16.0208 Y8.238
N29540 X16.0209 Y8.2387
N29550 X15.999 Y8.5353
N29560 X16.021 Y8.2394
N29570 X16.0272 Y8.2889 Z-0.1921
N29580 X16.0294 Y8.3388 Z-0.1973
N29590 X16.0277 Y8.3886 Z-0.2026
N29600 X16.022 Y8.4382 Z-0.2078
N29610 X16.0124 Y8.4872 Z-0.213
N29620 X15.999 Y8.5353 Z-0.2183
N29630 X15.9742 Y8.5909 Z-0.2247
N29640 X15.9402 Y8.6413 Z-0.2311
N29650 X15.8978 Y8.6851 Z-0.2375
N29660 X15.8485 Y8.7208 Z-0.2439
N29670 X15.7937 Y8.7474 Z-0.2503
N29680 X15.7352 Y8.764 Z-0.2567
N29690 X15.6746 Y8.7702 Z-0.2631
N29700 X15.6735 Z-0.2632
N29710 X15.6725 Z-0.2633
N29720 X15.6714 Z-0.2634
N29730 X15.6703 Z-0.2635
N29740 X15.6693 Z-0.2636
N29750 X15.6682 Z-0.2638
N29760 X15.6103 Z-0.2699
N29770 X15.5531 Y8.761 Z-0.2759
N29780 X15.4983 Y8.7422 Z-0.282
N29790 X15.4473 Y8.7147 Z-0.2881
N29800 X15.4016 Y8.6792 Z-0.2942
N29810 X15.3623 Y8.6366 Z-0.3003
N29820 X15.3376 Y8.596 Z-0.3053
N29830 X15.3171 Y8.5532 Z-0.3103
N29840 X15.301 Y8.5084 Z-0.3153
N29850 X15.2895 Y8.4623 Z-0.3203
N29860 X15.2827 Y8.4153 Z-0.3253
N29870 X15.2806 Y8.3679 Z-0.3303
N29880 Y8.3667 Z-0.3304
N29890 Y8.3655 Z-0.3305
N29900 Y8.3643 Z-0.3306
N29910 Y8.3631 Z-0.3308
N29920 Y8.3618 Z-0.3309
N29930 Y8.3607 Z-0.331
N29940 X15.2793 Y8.3127 Z-0.3361
N29950 X15.2831 Y8.2649 Z-0.3411
N29960 X15.2915 Y8.2176 Z-0.3461
N29970 X15.3045 Y8.1715 Z-0.3512
N29980 X15.3221 Y8.1268 Z-0.3562
N29990 X15.344 Y8.0842 Z-0.3613
N30000 X15.3808 Y8.035 Z-0.3677
N30010 X15.4255 Y7.9929 Z-0.3742
N30020 X15.4769 Y7.9592 Z-0.3806
N30030 X15.5333 Y7.9349 Z-0.3871
N30040 X15.5931 Y7.9208 Z-0.3935
N30050 X15.6544 Y7.9172 Z-0.4
N30060 X15.6448 Y8.2598
N30070 G02 X15.657 Y8.2599 I0.0122 J-0.4359
N30080 X15.6623 Y8.2599 I0. J-0.436
N30090 G03 X15.6625 Y8.2599 I0.0002 J0.0177
N30100 X15.6801 Y8.2755 I0. J0.0177
N30110 G02 X15.6828 Y8.2952 I0.433 J-0.0513
N30120 G03 X15.6867 Y8.3419 I-0.2834 J0.0467
N30130 X15.6745 Y8.4247 I-0.2873 J0.
N30140 X15.6697 Y8.4275 I-0.0048 J-0.0028
N30150 G02 X15.6398 Y8.4289 I0.0062 J0.436
N30160 G03 X15.6391 Y8.429 I-0.0007 J-0.0083
N30170 X15.6368 Y8.4287 I0. J-0.0084
N30180 X15.6233 Y8.3708 I0.117 J-0.0578
N30190 X15.6233 Y8.37 I0.1305 J0.
N30200 G02 X15.6233 Y8.3673 I-0.436 J-0.0027
N30210 X15.6222 Y8.3363 I-0.436 J0.
N30220 G03 X15.6219 Y8.3263 I0.1414 J-0.0101
N30230 X15.6369 Y8.2628 I0.1417 J0.
N30240 X15.6445 Y8.2598 I0.0076 J0.0079
N30250 X15.6448 Y8.2598 I0. J0.011
N30260 G01 X15.6467 Y8.1909
N30270 G02 X15.657 Y8.1911 I0.0103 J-0.3671
N30280 X15.6614 Y8.1911 I0. J-0.3672
N30290 G03 X15.6625 Y8.1911 I0.001 J0.0866
N30300 X15.7484 Y8.2674 I0. J0.0866
N30310 G02 X15.7508 Y8.284 I0.3646 J-0.0432
N30320 G03 X15.7555 Y8.3419 I-0.3514 J0.058
N30330 X15.7393 Y8.448 I-0.3561 J0.
N30340 X15.6707 Y8.4963 I-0.0697 J-0.0261
N30350 G02 X15.6455 Y8.4975 I0.0052 J0.3672
N30360 G03 X15.6391 Y8.4978 I-0.0064 J-0.077
